P3
400 225
255
110 147 0
111 148 0
113 150 0
103 144 0
107 146 0
110 148 0
107 146 0
107 146 0
104 144 0
112 149 0
113 149 0
108 146 0
108 146 0
107 146 0
108 146 0
107 146 0
108 146 0
110 148 0
106 145 0
107 146 0
107 146 0
105 145 0
106 146 0
109 147 0
104 144 0
109 147 0
109 147 0
112 149 0
108 146 0
109 147 0
108 146 0
109 147 0
108 147 0
106 146 0
108 147 0
108 147 0
106 146 0
111 148 0
107 146 0
107 146 0
111 148 0
107 146 0
107 146 0
107 146 0
108 146 0
106 146 0
107 146 0
107 146 0
110 148 0
108 147 0
108 147 0
105 145 0
106 145 0
106 145 0
111 148 0
113 149 0
107 146 0
104 144 0
112 149 0
109 147 0
107 146 0
106 145 0
106 145 0
109 147 0
105 145 0
108 147 0
111 148 0
114 150 0
107 146 0
108 147 0
109 147 0
104 144 0
103 144 0
107 146 0
111 148 0
108 147 0
108 147 0
107 146 0
109 147 0
112 149 0
109 147 0
110 148 0
110 148 0
107 146 0
106 145 0
108 147 0
107 146 0
107 146 0
108 146 0
105 144 0
104 144 0
110 148 0
110 148 0
109 147 0
107 146 0
112 149 0
112 149 0
107 146 0
106 146 0
109 147 0
109 147 0
108 147 0
106 145 0
109 147 0
108 147 0
106 145 0
106 146 0
110 148 0
110 147 0
112 149 0
105 145 0
105 145 0
106 145 0
108 147 0
107 146 0
104 144 0
103 143 0
105 145 0
106 145 0
108 146 0
106 145 0
111 148 0
103 144 0
110 148 0
109 147 0
105 145 0
106 145 0
108 146 0
109 147 0
110 147 0
104 144 0
107 146 0
107 146 0
110 148 0
107 146 0
106 146 0
107 146 0
106 145 0
112 149 0
105 145 0
108 146 0
107 146 0
111 148 0
108 146 0
114 150 0
110 148 0
107 146 0
107 146 0
111 148 0
109 147 0
107 146 0
102 143 0
113 149 0
111 148 0
109 147 0
107 146 0
109 147 0
109 147 0
109 147 0
107 146 0
106 146 0
114 150 0
107 146 0
103 144 0
108 146 0
109 147 0
111 148 0
106 146 0
108 146 0
108 146 0
106 145 0
107 146 0
103 143 0
110 148 0
107 146 0
111 149 0
108 147 0
104 144 0
108 146 0
109 147 0
110 147 0
112 149 0
107 146 0
110 148 0
107 146 0
106 146 0
109 147 0
112 149 0
113 150 0
106 145 0
109 147 0
108 146 0
109 147 0
108 146 0
108 147 0
108 147 0
110 148 0
106 145 0
104 144 0
108 147 0
110 148 0
107 146 0
111 148 0
106 145 0
106 145 0
109 147 0
108 146 0
105 145 0
107 146 0
107 146 0
107 146 0
108 147 0
106 145 0
108 146 0
111 148 0
107 146 0
106 145 0
107 146 0
107 146 0
107 146 0
108 146 0
107 146 0
105 145 0
108 146 0
110 148 0
108 147 0
112 149 0
112 149 0
110 147 0
108 147 0
111 148 0
107 146 0
105 145 0
110 148 0
112 149 0
106 145 0
106 145 0
114 150 0
108 147 0
110 148 0
107 146 0
105 145 0
104 144 0
107 146 0
113 149 0
108 146 0
106 145 0
109 147 0
110 148 0
105 145 0
110 148 0
106 146 0
108 146 0
107 146 0
109 147 0
107 146 0
108 146 0
110 148 0
105 145 0
106 145 0
109 147 0
110 148 0
111 148 0
108 146 0
108 146 0
108 146 0
108 146 0
111 149 0
111 148 0
109 147 0
105 145 0
107 146 0
107 146 0
109 147 0
107 146 0
107 146 0
104 144 0
105 145 0
106 146 0
107 146 0
106 145 0
108 147 0
107 146 0
107 146 0
108 146 0
108 146 0
110 148 0
110 148 0
107 146 0
106 145 0
111 148 0
108 146 0
106 146 0
111 149 0
112 149 0
110 148 0
108 146 0
108 147 0
107 146 0
108 147 0
107 146 0
112 149 0
106 146 0
109 147 0
106 146 0
106 146 0
104 144 0
111 148 0
109 147 0
110 148 0
107 146 0
106 145 0
108 147 0
106 145 0
109 147 0
106 145 0
106 145 0
107 146 0
109 147 0
105 145 0
107 146 0
107 146 0
106 146 0
107 146 0
107 146 0
109 147 0
109 147 0
106 145 0
109 147 0
109 147 0
107 146 0
113 149 0
114 150 0
109 147 0
110 147 0
111 148 0
107 146 0
110 148 0
107 146 0
106 146 0
111 148 0
108 147 0
107 146 0
105 145 0
115 150 0
110 148 0
105 144 0
110 148 0
108 146 0
109 147 0
108 147 0
106 146 0
108 146 0
107 146 0
111 148 0
109 147 0
109 147 0
107 146 0
109 147 0
109 147 0
108 147 0
108 146 0
109 147 0
107 146 0
110 147 0
105 145 0
106 146 0
104 144 0
113 149 0
109 147 0
108 147 0
108 146 0
108 147 0
107 146 0
108 147 0
111 148 0
106 145 0
110 148 0
109 147 0
110 148 0
107 146 0
105 145 0
109 147 0
112 149 0
105 145 0
105 145 0
109 147 0
109 147 0
106 145 0
108 147 0
107 146 0
109 147 0
107 146 0
109 147 0
109 147 0
104 144 0
109 147 0
109 147 0
106 145 0
107 146 0
107 146 0
113 149 0
106 146 0
108 147 0
108 146 0
108 146 0
107 146 0
108 147 0
109 147 0
109 147 0
105 145 0
118 152 0
107 146 0
111 149 0
109 147 0
105 145 0
109 147 0
107 146 0
111 149 0
108 146 0
107 146 0
107 146 0
109 147 0
109 147 0
108 147 0
106 145 0
108 147 0
111 148 0
110 148 0
108 147 0
107 146 0
108 147 0
108 147 0
106 145 0
104 144 0
109 147 0
110 148 0
108 146 0
108 147 0
109 147 0
109 147 0
108 147 0
108 146 0
109 147 0
107 146 0
107 146 0
109 147 0
108 147 0
110 148 0
105 144 0
110 148 0
107 146 0
109 147 0
108 146 0
111 149 0
104 144 0
109 147 0
105 144 0
107 146 0
106 145 0
104 144 0
107 146 0
111 149 0
110 148 0
107 146 0
110 148 0
104 144 0
107 146 0
105 145 0
112 149 0
109 147 0
113 149 0
109 147 0
112 149 0
112 149 0
108 146 0
106 145 0
103 144 0
106 145 0
110 148 0
109 147 0
104 144 0
111 148 0
109 147 0
112 149 0
108 147 0
108 147 0
108 146 0
109 147 0
106 145 0
109 147 0
109 147 0
107 146 0
111 148 0
107 146 0
111 148 0
104 144 0
111 148 0
108 146 0
106 146 0
108 147 0
108 147 0
109 147 0
107 146 0
108 147 0
109 147 0
113 150 0
105 144 0
109 147 0
115 151 0
106 145 0
108 146 0
108 147 0
105 144 0
106 145 0
106 146 0
107 146 0
106 145 0
109 147 0
107 146 0
108 146 0
106 145 0
108 146 0
105 145 0
105 145 0
104 144 0
106 145 0
105 145 0
106 145 0
108 146 0
108 147 0
111 148 0
109 147 0
108 147 0
111 148 0
109 147 0
108 147 0
109 147 0
111 148 0
106 145 0
110 148 0
106 145 0
108 146 0
107 146 0
111 148 0
107 146 0
103 144 0
108 146 0
110 148 0
105 145 0
106 145 0
106 145 0
107 146 0
111 148 0
108 146 0
108 147 0
112 149 0
108 146 0
115 150 0
104 144 0
110 148 0
105 144 0
104 144 0
108 147 0
106 145 0
106 145 0
108 147 0
111 148 0
106 145 0
106 145 0
105 145 0
104 144 0
108 146 0
104 144 0
107 146 0
109 147 0
105 145 0
109 147 0
107 146 0
108 147 0
108 147 0
109 147 0
109 147 0
108 147 0
110 148 0
110 148 0
111 148 0
108 147 0
109 147 0
107 146 0
108 147 0
108 147 0
110 148 0
109 147 0
107 146 0
108 146 0
111 148 0
112 149 0
112 149 0
107 146 0
108 147 0
108 146 0
107 146 0
108 146 0
106 145 0
108 146 0
109 147 0
110 147 0
108 147 0
109 147 0
108 146 0
111 148 0
111 148 0
106 145 0
109 147 0
105 145 0
105 145 0
108 147 0
108 146 0
109 147 0
107 146 0
108 147 0
108 147 0
108 146 0
107 146 0
107 146 0
105 145 0
111 148 0
107 146 0
109 147 0
109 147 0
107 146 0
109 147 0
105 145 0
109 147 0
105 145 0
108 147 0
108 147 0
108 147 0
108 146 0
110 147 0
112 149 0
106 146 0
104 144 0
107 146 0
107 146 0
108 146 0
106 146 0
111 148 0
109 147 0
107 146 0
108 146 0
106 145 0
106 145 0
108 147 0
108 147 0
107 146 0
110 148 0
107 146 0
107 146 0
106 145 0
109 147 0
107 146 0
106 145 0
108 147 0
109 147 0
105 145 0
108 146 0
108 147 0
105 145 0
107 146 0
106 145 0
104 144 0
107 146 0
110 148 0
113 149 0
107 146 0
104 144 0
107 146 0
109 147 0
109 147 0
108 147 0
109 147 0
108 147 0
110 148 0
112 149 0
107 146 0
109 147 0
104 144 0
108 146 0
104 144 0
107 146 0
106 145 0
108 147 0
111 149 0
103 144 0
106 145 0
108 146 0
108 147 0
109 147 0
108 146 0
109 147 0
109 147 0
105 145 0
106 146 0
109 147 0
109 147 0
111 149 0
109 147 0
106 145 0
111 148 0
107 146 0
107 146 0
105 145 0
115 151 0
109 147 0
108 146 0
112 149 0
102 143 0
110 148 0
107 146 0
109 147 0
106 146 0
109 147 0
108 146 0
109 147 0
107 146 0
107 146 0
110 148 0
114 150 0
106 145 0
107 146 0
113 149 0
110 148 0
106 145 0
110 148 0
108 147 0
111 149 0
110 148 0
106 146 0
109 147 0
109 147 0
110 148 0
108 147 0
108 147 0
110 148 0
107 146 0
108 147 0
108 147 0
105 145 0
110 148 0
110 148 0
105 145 0
110 148 0
107 146 0
106 145 0
108 147 0
107 146 0
111 148 0
111 148 0
112 149 0
108 147 0
105 145 0
108 147 0
108 147 0
107 146 0
108 146 0
107 146 0
107 146 0
109 147 0
108 146 0
106 146 0
112 149 0
111 148 0
112 149 0
108 146 0
110 148 0
107 146 0
106 145 0
109 147 0
106 146 0
106 145 0
104 144 0
112 149 0
105 145 0
110 148 0
110 148 0
108 147 0
110 148 0
109 147 0
109 147 0
109 147 0
108 147 0
110 148 0
109 147 0
110 148 0
107 146 0
106 145 0
107 146 0
106 145 0
111 149 0
107 146 0
105 144 0
107 146 0
106 145 0
108 146 0
107 146 0
108 147 0
107 146 0
104 144 0
107 146 0
106 145 0
108 146 0
106 145 0
110 148 0
106 145 0
104 144 0
112 149 0
102 143 0
113 149 0
111 148 0
107 146 0
106 145 0
108 146 0
111 148 0
108 146 0
105 145 0
110 148 0
105 144 0
110 148 0
109 147 0
106 145 0
110 148 0
106 145 0
107 146 0
108 147 0
109 147 0
106 145 0
106 145 0
106 146 0
107 146 0
107 146 0
106 145 0
105 145 0
108 146 0
110 148 0
106 145 0
106 145 0
105 145 0
107 146 0
108 146 0
104 144 0
107 146 0
108 147 0
106 145 0
107 146 0
109 147 0
108 147 0
107 146 0
112 149 0
111 148 0
109 147 0
106 145 0
105 145 0
109 147 0
105 145 0
108 147 0
107 146 0
110 148 0
107 146 0
103 144 0
104 144 0
110 148 0
107 146 0
107 146 0
106 145 0
105 145 0
105 145 0
108 147 0
108 147 0
104 144 0
106 145 0
105 145 0
112 149 0
107 146 0
113 150 0
111 148 0
105 145 0
112 149 0
111 148 0
109 147 0
105 145 0
108 147 0
113 149 0
112 149 0
104 144 0
110 148 0
106 145 0
105 145 0
110 148 0
109 147 0
108 147 0
106 145 0
106 145 0
106 146 0
111 148 0
104 144 0
106 146 0
107 146 0
110 148 0
106 145 0
113 150 0
112 149 0
106 146 0
108 147 0
107 146 0
105 144 0
110 148 0
105 145 0
111 148 0
105 145 0
107 146 0
110 148 0
111 148 0
109 147 0
106 145 0
105 145 0
108 147 0
110 148 0
108 146 0
111 148 0
112 149 0
108 146 0
109 147 0
107 146 0
109 147 0
104 144 0
109 147 0
109 147 0
109 147 0
109 147 0
109 147 0
106 145 0
109 147 0
105 145 0
108 147 0
107 146 0
108 146 0
111 148 0
105 145 0
106 145 0
107 146 0
108 146 0
108 146 0
108 147 0
105 145 0
107 146 0
107 146 0
109 147 0
107 146 0
107 146 0
108 146 0
108 146 0
108 146 0
106 146 0
107 146 0
111 148 0
106 145 0
108 146 0
111 148 0
107 146 0
110 148 0
104 144 0
107 146 0
109 147 0
106 145 0
105 144 0
107 146 0
108 147 0
107 146 0
109 147 0
109 147 0
105 144 0
107 146 0
107 146 0
106 146 0
108 146 0
108 147 0
111 148 0
107 146 0
110 148 0
105 145 0
106 145 0
107 146 0
106 146 0
111 148 0
106 145 0
105 145 0
109 147 0
106 145 0
108 146 0
107 146 0
107 146 0
106 145 0
106 145 0
107 146 0
109 147 0
109 147 0
107 146 0
108 147 0
105 145 0
109 147 0
108 147 0
112 149 0
105 145 0
106 145 0
110 148 0
105 145 0
106 146 0
107 146 0
107 146 0
109 147 0
109 147 0
110 148 0
106 145 0
112 149 0
112 149 0
109 147 0
110 148 0
112 149 0
105 145 0
108 146 0
108 147 0
104 144 0
108 146 0
106 145 0
109 147 0
103 144 0
107 146 0
111 148 0
107 146 0
104 144 0
108 147 0
106 145 0
108 147 0
113 150 0
113 150 0
112 149 0
112 149 0
108 146 0
106 145 0
105 145 0
107 146 0
111 148 0
110 148 0
108 147 0
106 145 0
107 146 0
106 145 0
106 145 0
110 148 0
105 145 0
104 144 0
110 148 0
105 144 0
109 147 0
106 145 0
107 146 0
105 145 0
104 144 0
107 146 0
110 148 0
106 145 0
108 147 0
112 149 0
110 148 0
108 146 0
106 145 0
109 147 0
111 148 0
109 147 0
112 149 0
106 146 0
109 147 0
105 145 0
108 147 0
109 147 0
107 146 0
109 147 0
105 145 0
105 145 0
108 147 0
110 148 0
107 146 0
106 145 0
107 146 0
111 149 0
106 146 0
107 146 0
111 148 0
108 147 0
104 144 0
110 148 0
109 147 0
110 147 0
111 148 0
108 146 0
108 147 0
108 147 0
105 145 0
106 145 0
106 145 0
108 147 0
108 147 0
110 148 0
109 147 0
110 148 0
109 147 0
103 143 0
109 147 0
106 145 0
109 147 0
105 145 0
104 144 0
110 148 0
109 147 0
110 147 0
107 146 0
110 147 0
109 147 0
112 149 0
106 145 0
106 145 0
109 147 0
111 148 0
108 147 0
108 146 0
105 145 0
114 150 0
110 148 0
108 147 0
113 150 0
108 146 0
106 145 0
103 144 0
108 147 0
108 146 0
107 146 0
108 146 0
106 146 0
109 147 0
109 147 0
109 147 0
105 145 0
106 145 0
109 147 0
107 146 0
104 144 0
109 147 0
113 150 0
111 148 0
105 145 0
106 145 0
108 147 0
107 146 0
106 145 0
107 146 0
111 148 0
105 145 0
110 148 0
107 146 0
109 147 0
109 147 0
113 149 0
109 147 0
109 147 0
105 145 0
109 147 0
106 145 0
107 146 0
110 148 0
111 149 0
109 147 0
112 149 0
105 145 0
104 144 0
105 144 0
107 146 0
113 150 0
107 146 0
107 146 0
108 147 0
109 147 0
107 146 0
112 149 0
109 147 0
110 147 0
110 147 0
107 146 0
107 146 0
107 146 0
109 147 0
106 145 0
109 147 0
106 145 0
106 146 0
113 149 0
109 147 0
110 148 0
109 147 0
108 147 0
105 145 0
107 146 0
106 145 0
108 147 0
109 147 0
106 145 0
107 146 0
107 146 0
110 148 0
111 148 0
109 147 0
108 147 0
111 149 0
105 145 0
113 149 0
110 148 0
106 145 0
107 146 0
114 150 0
111 148 0
108 147 0
105 145 0
105 145 0
108 147 0
108 147 0
107 146 0
105 145 0
107 146 0
111 148 0
111 148 0
109 147 0
109 147 0
108 147 0
110 148 0
109 147 0
105 145 0
109 147 0
105 145 0
106 146 0
108 147 0
109 147 0
106 145 0
111 148 0
104 144 0
107 146 0
108 146 0
106 146 0
110 148 0
109 147 0
109 147 0
106 145 0
104 144 0
106 145 0
109 147 0
105 145 0
104 144 0
110 148 0
105 145 0
108 146 0
107 146 0
107 146 0
109 147 0
111 148 0
110 148 0
107 146 0
105 145 0
104 144 0
106 145 0
111 148 0
105 145 0
108 146 0
108 147 0
104 144 0
109 147 0
107 146 0
108 146 0
108 146 0
110 148 0
112 149 0
109 147 0
108 147 0
107 146 0
107 146 0
107 146 0
110 148 0
106 145 0
110 148 0
107 146 0
107 146 0
107 146 0
106 145 0
110 148 0
103 144 0
108 147 0
108 147 0
106 145 0
112 149 0
104 144 0
108 146 0
108 147 0
111 148 0
114 150 0
108 147 0
109 147 0
106 145 0
106 145 0
107 146 0
105 145 0
106 145 0
108 146 0
112 149 0
108 146 0
109 147 0
106 145 0
111 148 0
104 144 0
111 148 0
107 146 0
111 149 0
110 148 0
105 145 0
106 145 0
109 147 0
105 144 0
106 145 0
107 146 0
109 147 0
106 145 0
107 146 0
107 146 0
106 145 0
105 145 0
109 147 0
106 145 0
111 148 0
108 146 0
108 146 0
105 145 0
109 147 0
107 146 0
109 147 0
109 147 0
110 147 0
108 147 0
108 147 0
111 148 0
110 148 0
106 145 0
111 148 0
109 147 0
113 149 0
105 145 0
106 145 0
104 144 0
105 145 0
111 149 0
105 145 0
110 148 0
110 147 0
106 145 0
108 146 0
114 150 0
111 149 0
105 145 0
105 145 0
105 145 0
111 148 0
108 146 0
108 147 0
108 147 0
105 145 0
111 148 0
109 147 0
106 145 0
112 149 0
104 144 0
111 148 0
110 148 0
109 147 0
104 144 0
107 146 0
107 146 0
111 148 0
106 145 0
104 144 0
110 148 0
110 148 0
107 146 0
111 148 0
107 146 0
106 145 0
106 146 0
105 145 0
105 145 0
107 146 0
104 144 0
106 145 0
109 147 0
106 145 0
107 146 0
112 149 0
110 148 0
107 146 0
107 146 0
107 146 0
107 146 0
109 147 0
110 148 0
109 147 0
105 145 0
108 146 0
114 150 0
107 146 0
111 148 0
105 145 0
106 145 0
108 147 0
110 148 0
109 147 0
107 146 0
110 148 0
102 143 0
104 144 0
111 148 0
111 148 0
111 148 0
111 148 0
108 146 0
111 148 0
104 144 0
104 144 0
109 147 0
106 145 0
113 150 0
110 147 0
108 147 0
107 146 0
115 151 0
105 145 0
110 147 0
106 146 0
107 146 0
109 147 0
111 149 0
105 145 0
112 149 0
108 146 0
110 147 0
109 147 0
109 147 0
107 146 0
105 145 0
108 147 0
110 148 0
110 148 0
106 145 0
105 145 0
108 146 0
108 146 0
107 146 0
108 147 0
113 149 0
110 148 0
108 147 0
110 147 0
113 150 0
106 145 0
105 144 0
109 147 0
109 147 0
103 144 0
112 149 0
107 146 0
109 147 0
105 145 0
111 148 0
111 148 0
106 146 0
108 146 0
107 146 0
104 144 0
109 147 0
106 145 0
115 151 0
108 147 0
107 146 0
107 146 0
105 145 0
111 149 0
108 146 0
108 147 0
112 149 0
107 146 0
105 145 0
105 144 0
109 147 0
106 145 0
108 147 0
112 149 0
113 149 0
107 146 0
108 147 0
111 149 0
104 144 0
108 147 0
109 147 0
110 148 0
106 145 0
109 147 0
108 147 0
109 147 0
109 147 0
105 145 0
104 144 0
106 145 0
113 150 0
105 145 0
109 147 0
106 145 0
109 147 0
110 148 0
113 150 0
112 149 0
106 146 0
110 148 0
109 147 0
109 147 0
108 147 0
109 147 0
113 149 0
107 146 0
109 147 0
108 147 0
105 145 0
107 146 0
107 146 0
105 145 0
110 147 0
107 146 0
111 148 0
112 149 0
111 149 0
105 145 0
106 145 0
113 149 0
108 147 0
113 149 0
110 148 0
105 145 0
106 145 0
105 145 0
107 146 0
106 145 0
111 148 0
111 149 0
107 146 0
108 146 0
108 146 0
108 146 0
111 148 0
111 148 0
111 148 0
110 148 0
104 144 0
106 145 0
108 146 0
110 148 0
111 149 0
106 146 0
107 146 0
110 148 0
113 150 0
105 145 0
110 148 0
110 148 0
111 148 0
107 146 0
110 148 0
109 147 0
108 146 0
109 147 0
108 147 0
105 145 0
104 144 0
106 145 0
106 145 0
112 149 0
106 145 0
111 148 0
104 144 0
111 149 0
108 146 0
109 147 0
104 144 0
107 146 0
106 146 0
110 148 0
108 146 0
107 146 0
106 145 0
109 147 0
110 148 0
107 146 0
110 148 0
112 149 0
107 146 0
110 148 0
107 146 0
106 145 0
107 146 0
105 145 0
112 149 0
107 146 0
105 145 0
104 144 0
109 147 0
111 149 0
106 145 0
110 148 0
108 146 0
111 148 0
105 145 0
106 146 0
107 146 0
104 144 0
110 148 0
110 147 0
109 147 0
109 147 0
114 150 0
109 147 0
107 146 0
114 150 0
105 145 0
106 146 0
109 147 0
107 146 0
112 149 0
108 147 0
110 148 0
108 147 0
106 145 0
108 146 0
107 146 0
105 145 0
111 149 0
109 147 0
105 145 0
109 147 0
107 146 0
108 146 0
110 148 0
107 146 0
106 145 0
109 147 0
106 145 0
108 146 0
107 146 0
106 145 0
106 146 0
106 145 0
107 146 0
106 145 0
116 152 0
110 148 0
109 147 0
107 146 0
110 147 0
106 145 0
107 146 0
110 148 0
109 147 0
105 144 0
108 146 0
105 144 0
107 146 0
107 146 0
107 146 0
107 146 0
109 147 0
106 145 0
108 146 0
106 145 0
107 146 0
106 145 0
105 145 0
110 148 0
106 145 0
109 147 0
106 145 0
108 147 0
110 148 0
109 147 0
112 149 0
110 148 0
106 145 0
109 147 0
111 148 0
107 146 0
108 146 0
108 147 0
106 146 0
106 145 0
107 146 0
109 147 0
108 146 0
109 147 0
106 146 0
108 147 0
108 146 0
109 147 0
106 145 0
110 148 0
107 146 0
110 148 0
109 147 0
110 148 0
109 147 0
105 145 0
109 147 0
107 146 0
107 146 0
110 147 0
112 149 0
107 146 0
109 147 0
108 147 0
112 149 0
111 148 0
110 148 0
107 146 0
105 144 0
109 147 0
105 145 0
108 146 0
108 146 0
109 147 0
109 147 0
103 144 0
111 148 0
109 147 0
105 145 0
114 150 0
109 147 0
107 146 0
106 146 0
107 146 0
108 147 0
106 145 0
107 146 0
107 146 0
109 147 0
106 145 0
106 145 0
105 145 0
108 147 0
110 147 0
110 148 0
106 145 0
109 147 0
107 146 0
106 146 0
109 147 0
110 148 0
109 147 0
109 147 0
107 146 0
103 143 0
110 148 0
103 143 0
104 144 0
110 148 0
110 148 0
110 148 0
108 146 0
105 145 0
110 148 0
110 148 0
108 146 0
113 149 0
108 146 0
112 149 0
107 146 0
112 149 0
107 146 0
107 146 0
104 144 0
104 144 0
106 145 0
106 146 0
109 147 0
106 145 0
107 146 0
105 145 0
106 145 0
106 145 0
109 147 0
109 147 0
106 145 0
105 145 0
107 146 0
113 150 0
103 143 0
108 146 0
110 148 0
107 146 0
107 146 0
105 145 0
110 148 0
106 145 0
108 146 0
109 147 0
108 147 0
111 148 0
107 146 0
109 147 0
107 146 0
109 147 0
106 146 0
109 147 0
110 148 0
108 146 0
107 146 0
108 147 0
110 147 0
111 148 0
110 148 0
107 146 0
110 148 0
108 147 0
106 145 0
108 146 0
110 148 0
106 145 0
112 149 0
111 148 0
112 149 0
104 144 0
108 147 0
111 148 0
110 148 0
106 145 0
110 148 0
110 148 0
108 147 0
108 146 0
108 146 0
108 146 0
107 146 0
105 145 0
107 146 0
107 146 0
110 148 0
108 147 0
107 146 0
113 149 0
107 146 0
109 147 0
108 146 0
105 144 0
107 146 0
110 148 0
105 145 0
107 146 0
107 146 0
109 147 0
108 147 0
113 150 0
108 147 0
107 146 0
109 147 0
106 145 0
108 147 0
107 146 0
107 146 0
108 146 0
110 148 0
105 145 0
110 148 0
108 146 0
109 147 0
107 146 0
109 147 0
110 147 0
107 146 0
109 147 0
106 145 0
109 147 0
109 147 0
106 145 0
107 146 0
109 147 0
113 149 0
109 147 0
109 147 0
105 145 0
106 145 0
106 145 0
109 147 0
107 146 0
110 147 0
106 145 0
108 146 0
111 148 0
110 148 0
108 146 0
108 147 0
107 146 0
105 145 0
109 147 0
109 147 0
112 149 0
111 148 0
105 145 0
107 146 0
106 145 0
107 146 0
106 146 0
111 148 0
108 147 0
109 147 0
108 147 0
109 147 0
110 148 0
110 147 0
108 147 0
112 149 0
110 148 0
111 148 0
107 146 0
104 144 0
110 148 0
109 147 0
108 146 0
109 147 0
110 148 0
111 148 0
106 146 0
108 147 0
111 148 0
110 148 0
110 148 0
109 147 0
113 149 0
109 147 0
105 145 0
108 146 0
108 146 0
106 145 0
104 144 0
111 149 0
103 144 0
105 145 0
109 147 0
107 146 0
111 148 0
108 146 0
110 148 0
114 150 0
107 146 0
109 147 0
111 148 0
107 146 0
109 147 0
112 149 0
111 148 0
107 146 0
107 146 0
112 149 0
110 148 0
107 146 0
106 145 0
108 147 0
105 145 0
107 146 0
109 147 0
108 146 0
104 144 0
110 148 0
107 146 0
107 146 0
109 147 0
105 145 0
111 148 0
112 149 0
110 148 0
113 150 0
108 146 0
105 145 0
106 145 0
108 147 0
106 146 0
109 147 0
105 145 0
109 147 0
110 148 0
109 147 0
113 149 0
105 145 0
108 147 0
111 148 0
107 146 0
110 148 0
113 150 0
105 145 0
106 145 0
106 145 0
107 146 0
108 147 0
107 146 0
105 145 0
108 146 0
112 149 0
112 149 0
115 151 0
110 148 0
105 145 0
110 148 0
108 147 0
107 146 0
109 147 0
104 144 0
106 145 0
106 145 0
108 146 0
107 146 0
109 147 0
106 145 0
108 147 0
105 145 0
107 146 0
108 147 0
109 147 0
109 147 0
111 148 0
113 149 0
108 146 0
105 145 0
107 146 0
108 147 0
105 145 0
110 148 0
109 147 0
106 145 0
106 145 0
112 149 0
106 145 0
111 148 0
108 146 0
106 145 0
104 144 0
108 147 0
108 146 0
112 149 0
105 145 0
108 146 0
107 146 0
108 146 0
107 146 0
107 146 0
112 149 0
106 145 0
106 145 0
109 147 0
109 147 0
111 148 0
106 146 0
107 146 0
115 151 0
107 146 0
106 145 0
109 147 0
106 145 0
106 145 0
108 147 0
107 146 0
111 148 0
112 149 0
109 147 0
109 147 0
108 146 0
105 145 0
113 150 0
110 147 0
106 145 0
107 146 0
105 145 0
105 145 0
108 147 0
109 147 0
109 147 0
107 146 0
107 146 0
109 147 0
107 146 0
108 146 0
111 149 0
106 145 0
107 146 0
109 147 0
108 146 0
108 146 0
108 147 0
107 146 0
107 146 0
108 146 0
111 148 0
114 150 0
108 146 0
107 146 0
111 148 0
108 146 0
109 147 0
107 146 0
113 149 0
110 148 0
105 145 0
107 146 0
109 147 0
106 145 0
110 148 0
107 146 0
107 146 0
107 146 0
108 146 0
112 149 0
108 146 0
106 145 0
110 148 0
108 146 0
109 147 0
112 149 0
108 146 0
108 146 0
108 147 0
107 146 0
102 143 0
109 147 0
106 146 0
107 146 0
109 147 0
106 146 0
107 146 0
111 149 0
109 147 0
111 148 0
112 149 0
108 147 0
106 146 0
109 147 0
110 147 0
107 146 0
108 146 0
111 148 0
106 145 0
110 148 0
110 148 0
105 145 0
106 146 0
110 148 0
107 146 0
104 144 0
105 145 0
107 146 0
106 145 0
108 146 0
112 149 0
110 147 0
107 146 0
114 150 0
107 146 0
108 146 0
108 147 0
109 147 0
113 149 0
103 144 0
111 148 0
106 146 0
105 145 0
111 148 0
112 149 0
109 147 0
107 146 0
106 145 0
108 146 0
107 146 0
108 147 0
107 146 0
106 146 0
112 149 0
106 146 0
109 147 0
105 145 0
112 149 0
107 146 0
103 144 0
107 146 0
108 146 0
105 145 0
104 144 0
110 148 0
108 147 0
106 145 0
109 147 0
109 147 0
106 145 0
108 146 0
108 147 0
108 147 0
107 146 0
108 146 0
107 146 0
107 146 0
108 146 0
106 145 0
106 145 0
106 145 0
113 149 0
107 146 0
106 145 0
105 145 0
108 147 0
104 144 0
107 146 0
110 147 0
103 144 0
111 148 0
106 145 0
105 145 0
106 145 0
107 146 0
107 146 0
107 146 0
108 146 0
106 145 0
110 148 0
109 147 0
107 146 0
110 148 0
108 146 0
107 146 0
106 145 0
106 145 0
106 145 0
108 146 0
103 144 0
111 149 0
108 146 0
107 146 0
106 145 0
107 146 0
109 147 0
108 147 0
108 147 0
114 150 0
106 145 0
111 148 0
113 150 0
106 145 0
106 145 0
107 146 0
108 147 0
108 147 0
108 147 0
110 148 0
106 145 0
109 147 0
109 147 0
105 145 0
110 148 0
107 146 0
113 149 0
109 147 0
109 147 0
106 145 0
107 146 0
107 146 0
110 148 0
108 147 0
107 146 0
108 147 0
105 145 0
108 147 0
113 150 0
109 147 0
107 146 0
113 149 0
107 146 0
114 150 0
110 148 0
107 146 0
108 147 0
106 145 0
111 149 0
104 144 0
111 148 0
110 148 0
111 148 0
106 145 0
109 147 0
108 146 0
108 146 0
110 148 0
110 148 0
108 147 0
109 147 0
107 146 0
105 144 0
109 147 0
106 145 0
110 148 0
109 147 0
109 147 0
105 145 0
108 147 0
107 146 0
107 146 0
105 145 0
111 148 0
110 148 0
110 148 0
107 146 0
108 146 0
108 146 0
110 148 0
107 146 0
104 144 0
108 146 0
107 146 0
110 148 0
107 146 0
107 146 0
108 146 0
107 146 0
110 148 0
109 147 0
108 146 0
113 149 0
110 148 0
108 146 0
107 146 0
111 148 0
107 146 0
114 150 0
110 148 0
105 145 0
107 146 0
109 147 0
105 145 0
108 146 0
107 146 0
109 147 0
108 147 0
105 145 0
104 144 0
112 149 0
106 146 0
111 148 0
109 147 0
107 146 0
108 146 0
109 147 0
109 147 0
113 149 0
105 145 0
112 149 0
108 147 0
107 146 0
109 147 0
109 147 0
108 147 0
106 145 0
107 146 0
106 145 0
109 147 0
105 145 0
107 146 0
113 149 0
106 145 0
108 146 0
111 148 0
108 146 0
108 147 0
107 146 0
107 146 0
111 148 0
110 148 0
106 145 0
104 144 0
108 147 0
105 145 0
108 147 0
105 145 0
108 146 0
105 145 0
108 146 0
107 146 0
105 145 0
104 144 0
106 145 0
111 148 0
109 147 0
107 146 0
109 147 0
111 148 0
109 147 0
106 146 0
105 145 0
106 145 0
106 145 0
106 145 0
107 146 0
109 147 0
107 146 0
108 146 0
104 144 0
105 145 0
112 149 0
110 148 0
108 146 0
107 146 0
104 144 0
109 147 0
107 146 0
110 147 0
107 146 0
105 145 0
108 147 0
108 147 0
106 146 0
110 148 0
113 149 0
105 145 0
108 147 0
108 147 0
110 148 0
106 145 0
105 145 0
108 147 0
114 150 0
107 146 0
105 145 0
104 144 0
110 148 0
106 146 0
105 144 0
108 146 0
106 145 0
108 146 0
103 144 0
108 146 0
107 146 0
106 145 0
108 146 0
113 149 0
107 146 0
110 148 0
111 148 0
111 149 0
107 146 0
108 146 0
107 146 0
110 148 0
103 143 0
111 148 0
106 145 0
112 149 0
107 146 0
104 144 0
105 145 0
113 149 0
112 149 0
105 145 0
103 143 0
106 145 0
106 145 0
108 147 0
109 147 0
107 146 0
107 146 0
109 147 0
108 147 0
108 146 0
108 147 0
111 148 0
109 147 0
104 144 0
108 146 0
106 145 0
107 146 0
105 145 0
106 145 0
105 145 0
105 145 0
110 148 0
110 148 0
111 148 0
109 147 0
107 146 0
108 146 0
108 147 0
106 145 0
106 145 0
106 146 0
112 149 0
108 146 0
107 146 0
107 146 0
112 149 0
108 147 0
106 145 0
107 146 0
105 144 0
108 147 0
106 146 0
110 147 0
107 146 0
108 146 0
108 147 0
109 147 0
105 145 0
112 149 0
105 145 0
109 147 0
106 145 0
110 148 0
108 146 0
112 149 0
108 146 0
108 147 0
108 147 0
110 147 0
104 144 0
109 147 0
107 146 0
107 146 0
111 149 0
108 146 0
111 148 0
108 147 0
106 145 0
113 149 0
108 146 0
113 149 0
104 144 0
108 147 0
107 146 0
109 147 0
111 148 0
108 146 0
109 147 0
110 148 0
107 146 0
108 146 0
109 147 0
105 145 0
109 147 0
110 148 0
113 149 0
109 147 0
109 147 0
109 147 0
110 148 0
108 146 0
106 146 0
110 147 0
105 145 0
111 148 0
107 146 0
108 147 0
105 145 0
108 146 0
109 147 0
110 147 0
106 146 0
107 146 0
108 146 0
108 146 0
105 145 0
111 148 0
109 147 0
107 146 0
105 145 0
108 146 0
108 146 0
109 147 0
108 146 0
109 147 0
106 145 0
112 149 0
111 148 0
106 145 0
104 144 0
111 148 0
105 145 0
107 146 0
108 146 0
110 148 0
110 148 0
105 145 0
104 144 0
104 144 0
107 146 0
108 146 0
113 150 0
105 145 0
107 146 0
109 147 0
106 145 0
109 147 0
111 148 0
111 148 0
108 147 0
107 146 0
108 147 0
111 148 0
111 148 0
108 146 0
109 147 0
109 147 0
107 146 0
108 147 0
108 146 0
111 148 0
108 146 0
111 148 0
106 146 0
110 148 0
107 146 0
107 146 0
109 147 0
111 148 0
103 144 0
110 148 0
105 145 0
112 149 0
112 149 0
110 148 0
108 146 0
110 147 0
109 147 0
107 146 0
106 145 0
110 148 0
108 147 0
109 147 0
109 147 0
109 147 0
106 145 0
109 147 0
108 146 0
108 147 0
114 150 0
103 144 0
111 148 0
110 148 0
107 146 0
109 147 0
108 146 0
109 147 0
109 147 0
106 145 0
112 149 0
108 146 0
108 147 0
104 144 0
106 145 0
108 146 0
108 146 0
107 146 0
105 145 0
112 149 0
108 146 0
108 147 0
106 146 0
108 147 0
109 147 0
108 147 0
113 149 0
112 149 0
113 149 0
108 147 0
106 145 0
109 147 0
111 148 0
105 145 0
108 147 0
111 148 0
107 146 0
106 146 0
110 148 0
108 147 0
107 146 0
107 146 0
108 146 0
109 147 0
108 146 0
105 145 0
108 146 0
108 147 0
110 147 0
107 146 0
106 145 0
107 146 0
108 147 0
107 146 0
107 146 0
108 146 0
112 149 0
108 146 0
105 144 0
109 147 0
113 150 0
106 145 0
107 146 0
108 147 0
112 149 0
114 150 0
106 145 0
111 148 0
105 145 0
106 145 0
103 144 0
110 148 0
110 148 0
110 148 0
108 147 0
106 145 0
111 148 0
112 149 0
105 145 0
108 146 0
110 147 0
110 148 0
110 148 0
107 146 0
106 145 0
105 145 0
109 147 0
106 146 0
110 148 0
108 146 0
111 148 0
105 145 0
106 145 0
108 147 0
104 144 0
106 146 0
108 147 0
107 146 0
106 145 0
112 149 0
104 144 0
107 146 0
109 147 0
106 146 0
110 148 0
107 146 0
112 149 0
107 146 0
107 146 0
112 149 0
107 146 0
108 146 0
111 148 0
107 146 0
111 148 0
111 148 0
113 150 0
108 147 0
104 144 0
107 146 0
109 147 0
109 147 0
107 146 0
111 148 0
105 145 0
109 147 0
106 145 0
111 148 0
114 150 0
106 145 0
112 149 0
117 152 0
111 149 0
106 145 0
107 146 0
106 146 0
110 147 0
111 149 0
108 147 0
108 146 0
105 145 0
105 144 0
105 145 0
109 147 0
109 147 0
115 151 0
109 147 0
108 146 0
106 145 0
110 148 0
109 147 0
113 149 0
106 146 0
105 145 0
108 146 0
108 146 0
109 147 0
106 145 0
106 145 0
107 146 0
104 144 0
108 147 0
106 145 0
105 145 0
106 145 0
102 143 0
111 148 0
113 150 0
107 146 0
110 148 0
108 147 0
109 147 0
105 145 0
112 149 0
110 148 0
109 147 0
107 146 0
103 144 0
108 147 0
109 147 0
105 145 0
105 145 0
110 147 0
103 144 0
105 144 0
110 148 0
106 145 0
105 145 0
108 146 0
108 147 0
106 146 0
108 147 0
106 146 0
105 145 0
105 145 0
106 145 0
109 147 0
108 146 0
104 144 0
111 148 0
112 149 0
108 147 0
106 145 0
110 148 0
110 148 0
106 145 0
111 148 0
109 147 0
110 148 0
109 147 0
112 149 0
106 146 0
106 145 0
110 148 0
109 147 0
108 146 0
104 144 0
109 147 0
108 146 0
110 148 0
108 147 0
106 145 0
107 146 0
106 145 0
108 147 0
111 148 0
104 144 0
108 146 0
108 147 0
107 146 0
106 145 0
108 147 0
113 150 0
106 145 0
108 146 0
106 145 0
107 146 0
111 148 0
109 147 0
110 147 0
110 148 0
106 145 0
108 147 0
106 146 0
111 148 0
105 145 0
106 145 0
105 144 0
109 147 0
111 148 0
109 147 0
111 148 0
106 145 0
109 147 0
108 146 0
109 147 0
109 147 0
107 146 0
106 146 0
112 149 0
107 146 0
106 145 0
110 147 0
106 145 0
111 149 0
108 146 0
106 145 0
105 145 0
110 148 0
106 145 0
110 148 0
111 148 0
107 146 0
112 149 0
106 145 0
105 145 0
109 147 0
105 145 0
112 149 0
108 146 0
106 145 0
108 146 0
110 148 0
110 148 0
108 147 0
107 146 0
108 146 0
107 146 0
109 147 0
107 146 0
110 148 0
111 148 0
104 144 0
108 147 0
104 144 0
111 148 0
106 146 0
110 148 0
105 145 0
107 146 0
108 147 0
106 145 0
112 149 0
107 146 0
105 145 0
108 147 0
111 148 0
108 146 0
105 145 0
105 145 0
109 147 0
107 146 0
108 147 0
110 148 0
107 146 0
109 147 0
111 149 0
110 148 0
110 148 0
104 144 0
105 145 0
105 145 0
104 144 0
107 146 0
106 145 0
113 149 0
110 147 0
107 146 0
105 145 0
107 146 0
106 145 0
108 146 0
111 148 0
107 146 0
109 147 0
108 146 0
105 145 0
106 145 0
108 146 0
109 147 0
109 147 0
113 149 0
110 148 0
114 150 0
108 146 0
104 144 0
105 145 0
106 145 0
106 145 0
106 145 0
108 147 0
109 147 0
113 150 0
107 146 0
107 146 0
108 147 0
105 145 0
107 146 0
106 145 0
108 146 0
107 146 0
110 148 0
105 145 0
106 145 0
111 148 0
114 150 0
107 146 0
108 146 0
108 146 0
107 146 0
107 146 0
107 146 0
108 146 0
110 148 0
109 147 0
107 146 0
107 146 0
109 147 0
110 148 0
107 146 0
107 146 0
114 150 0
108 146 0
108 146 0
107 146 0
104 144 0
108 146 0
104 144 0
111 148 0
108 146 0
108 147 0
109 147 0
108 147 0
107 146 0
105 145 0
109 147 0
106 145 0
110 148 0
108 147 0
109 147 0
112 149 0
107 146 0
106 145 0
106 145 0
107 146 0
106 145 0
106 145 0
110 148 0
107 146 0
107 146 0
107 146 0
111 148 0
106 145 0
107 146 0
109 147 0
108 146 0
108 146 0
107 146 0
107 146 0
105 145 0
108 146 0
110 148 0
110 148 0
104 144 0
116 151 0
109 147 0
107 146 0
113 150 0
105 145 0
111 148 0
107 146 0
108 146 0
111 148 0
112 149 0
109 147 0
110 148 0
108 146 0
107 146 0
106 145 0
110 148 0
111 149 0
111 148 0
109 147 0
109 147 0
110 148 0
107 146 0
105 145 0
108 147 0
107 146 0
105 145 0
109 147 0
107 146 0
113 149 0
108 147 0
111 148 0
108 147 0
106 145 0
108 146 0
111 148 0
107 146 0
108 147 0
112 149 0
112 149 0
111 148 0
109 147 0
111 149 0
105 145 0
108 147 0
109 147 0
109 147 0
107 146 0
105 145 0
113 149 0
110 148 0
116 151 0
112 149 0
112 149 0
109 147 0
108 146 0
107 146 0
109 147 0
106 146 0
114 150 0
109 147 0
113 149 0
111 148 0
106 145 0
110 147 0
106 145 0
107 146 0
106 145 0
106 146 0
108 147 0
109 147 0
109 147 0
109 147 0
109 147 0
108 147 0
107 146 0
109 147 0
105 145 0
110 148 0
111 148 0
108 146 0
104 144 0
114 150 0
110 148 0
108 146 0
104 144 0
110 148 0
106 145 0
109 147 0
112 149 0
108 146 0
107 146 0
107 146 0
113 150 0
106 145 0
113 150 0
110 148 0
109 147 0
105 145 0
111 149 0
109 147 0
109 147 0
111 148 0
107 146 0
108 147 0
107 146 0
111 149 0
114 150 0
108 147 0
111 148 0
111 149 0
111 149 0
109 147 0
107 146 0
105 145 0
104 144 0
109 147 0
113 149 0
108 146 0
106 145 0
108 147 0
108 147 0
113 149 0
106 146 0
107 146 0
111 149 0
110 148 0
106 145 0
108 146 0
107 146 0
111 149 0
103 143 0
106 145 0
105 145 0
107 146 0
105 145 0
109 147 0
105 145 0
109 147 0
110 148 0
109 147 0
106 145 0
108 147 0
107 146 0
108 147 0
107 146 0
107 146 0
105 145 0
108 147 0
109 147 0
108 147 0
113 149 0
107 146 0
109 147 0
108 147 0
110 148 0
108 146 0
104 144 0
109 147 0
110 148 0
108 147 0
111 148 0
103 144 0
110 148 0
105 145 0
109 147 0
109 147 0
106 145 0
106 145 0
107 146 0
109 147 0
109 147 0
105 145 0
105 145 0
110 148 0
110 148 0
109 147 0
106 145 0
108 146 0
106 145 0
108 146 0
111 149 0
104 144 0
107 146 0
108 147 0
111 148 0
107 146 0
108 147 0
107 146 0
113 149 0
109 147 0
113 149 0
108 146 0
107 146 0
106 145 0
107 146 0
106 146 0
104 144 0
109 147 0
110 148 0
109 147 0
105 145 0
109 147 0
107 146 0
112 149 0
107 146 0
110 148 0
108 147 0
107 146 0
107 146 0
110 148 0
105 145 0
106 145 0
105 145 0
107 146 0
107 146 0
108 147 0
110 147 0
108 147 0
108 146 0
105 145 0
105 145 0
107 146 0
114 150 0
112 149 0
108 147 0
108 147 0
108 147 0
106 145 0
109 147 0
106 145 0
107 146 0
108 147 0
105 145 0
111 148 0
105 145 0
109 147 0
111 148 0
108 146 0
107 146 0
106 146 0
110 148 0
107 146 0
109 147 0
109 147 0
106 145 0
108 146 0
108 146 0
108 146 0
107 146 0
109 147 0
107 146 0
106 145 0
104 144 0
110 148 0
106 145 0
107 146 0
110 147 0
108 146 0
109 147 0
108 147 0
109 147 0
109 147 0
108 147 0
109 147 0
109 147 0
108 146 0
108 146 0
109 147 0
110 148 0
106 145 0
107 146 0
109 147 0
105 144 0
108 147 0
106 145 0
106 145 0
108 147 0
107 146 0
107 146 0
107 146 0
104 144 0
104 144 0
106 145 0
109 147 0
109 147 0
110 148 0
108 147 0
111 148 0
106 146 0
115 151 0
107 146 0
108 147 0
109 147 0
110 147 0
110 148 0
109 147 0
107 146 0
108 147 0
107 146 0
109 147 0
105 145 0
111 148 0
108 146 0
107 146 0
106 145 0
106 145 0
110 148 0
105 145 0
110 148 0
107 146 0
112 149 0
110 148 0
108 146 0
107 146 0
111 149 0
108 147 0
105 145 0
108 146 0
110 148 0
109 147 0
108 146 0
111 149 0
106 145 0
109 147 0
106 145 0
106 145 0
109 147 0
106 145 0
108 146 0
105 145 0
113 149 0
109 147 0
110 148 0
110 148 0
106 146 0
105 145 0
115 150 0
107 146 0
110 148 0
112 149 0
110 148 0
110 148 0
113 149 0
111 149 0
104 144 0
106 145 0
109 147 0
107 146 0
106 146 0
107 146 0
106 145 0
108 146 0
106 145 0
109 147 0
106 145 0
111 148 0
108 147 0
109 147 0
108 147 0
111 148 0
109 147 0
105 145 0
107 146 0
111 148 0
108 147 0
106 145 0
107 146 0
107 146 0
107 146 0
108 147 0
107 146 0
109 147 0
109 147 0
107 146 0
106 145 0
108 147 0
114 150 0
109 147 0
109 147 0
108 146 0
112 149 0
106 145 0
105 145 0
106 145 0
110 148 0
107 146 0
107 146 0
110 148 0
108 146 0
104 144 0
112 149 0
107 146 0
109 147 0
108 146 0
111 149 0
109 147 0
108 147 0
111 148 0
107 146 0
111 148 0
109 147 0
107 146 0
110 148 0
108 146 0
110 148 0
107 146 0
107 146 0
110 147 0
108 146 0
110 148 0
108 146 0
108 146 0
105 145 0
111 149 0
109 147 0
112 149 0
111 148 0
104 144 0
106 146 0
112 149 0
109 147 0
106 145 0
107 146 0
110 148 0
111 148 0
105 145 0
111 148 0
107 146 0
109 147 0
106 146 0
110 148 0
111 148 0
105 145 0
106 145 0
106 145 0
107 146 0
106 146 0
112 149 0
109 147 0
106 145 0
103 144 0
108 147 0
112 149 0
109 147 0
107 146 0
108 147 0
109 147 0
107 146 0
109 147 0
109 147 0
107 146 0
109 147 0
106 146 0
110 147 0
106 145 0
108 147 0
109 147 0
108 146 0
107 146 0
111 148 0
110 148 0
109 147 0
108 146 0
106 145 0
106 146 0
111 148 0
105 145 0
105 145 0
106 145 0
112 149 0
113 150 0
113 149 0
105 145 0
109 147 0
109 147 0
109 147 0
108 146 0
107 146 0
109 147 0
109 147 0
107 146 0
113 149 0
108 146 0
111 148 0
116 151 0
106 145 0
104 144 0
105 145 0
110 148 0
110 148 0
104 144 0
107 146 0
117 152 0
112 149 0
110 148 0
110 148 0
105 145 0
107 146 0
107 146 0
107 146 0
111 148 0
109 147 0
106 146 0
107 146 0
108 146 0
112 149 0
108 147 0
106 145 0
112 149 0
110 148 0
109 147 0
107 146 0
105 145 0
110 148 0
111 148 0
108 147 0
105 145 0
108 146 0
108 146 0
108 147 0
109 147 0
106 146 0
109 147 0
108 147 0
107 146 0
107 146 0
108 146 0
108 146 0
112 149 0
107 146 0
107 146 0
106 145 0
111 148 0
106 145 0
109 147 0
107 146 0
109 147 0
105 145 0
107 146 0
105 145 0
109 147 0
108 146 0
107 146 0
107 146 0
109 147 0
106 145 0
109 147 0
106 146 0
107 146 0
108 147 0
108 147 0
109 147 0
104 144 0
105 145 0
110 148 0
107 146 0
111 148 0
109 147 0
108 147 0
109 147 0
106 146 0
111 149 0
109 147 0
107 146 0
109 147 0
111 148 0
107 146 0
111 148 0
109 147 0
106 146 0
107 146 0
107 146 0
108 147 0
104 144 0
110 148 0
108 147 0
111 148 0
107 146 0
109 147 0
105 145 0
109 147 0
110 148 0
109 147 0
109 147 0
109 147 0
108 146 0
105 145 0
106 145 0
106 145 0
110 148 0
107 146 0
106 145 0
108 147 0
110 148 0
111 148 0
106 145 0
107 146 0
106 145 0
105 145 0
105 145 0
110 148 0
106 145 0
109 147 0
110 148 0
111 149 0
106 145 0
107 146 0
110 148 0
106 146 0
110 147 0
111 148 0
108 147 0
110 147 0
108 146 0
107 146 0
106 145 0
108 147 0
111 148 0
105 145 0
111 148 0
105 145 0
104 144 0
109 147 0
107 146 0
113 150 0
109 147 0
111 149 0
107 146 0
109 147 0
105 145 0
108 146 0
105 145 0
108 147 0
109 147 0
107 146 0
109 147 0
105 145 0
106 145 0
112 149 0
104 144 0
103 144 0
112 149 0
111 148 0
106 145 0
106 145 0
108 146 0
103 144 0
109 147 0
107 146 0
109 147 0
109 147 0
108 147 0
107 146 0
107 146 0
111 148 0
107 146 0
112 149 0
107 146 0
111 148 0
109 147 0
105 145 0
107 146 0
108 146 0
108 147 0
105 145 0
107 146 0
112 149 0
112 149 0
108 147 0
110 148 0
108 146 0
108 146 0
116 151 0
108 147 0
109 147 0
107 146 0
111 148 0
106 145 0
107 146 0
107 146 0
111 149 0
105 145 0
108 147 0
109 147 0
110 148 0
107 146 0
104 144 0
112 149 0
105 145 0
106 145 0
104 144 0
107 146 0
108 147 0
105 145 0
114 150 0
108 147 0
106 145 0
106 145 0
105 145 0
105 145 0
106 145 0
106 145 0
105 145 0
106 145 0
107 146 0
109 147 0
105 145 0
107 146 0
109 147 0
107 146 0
112 149 0
108 147 0
105 145 0
108 147 0
108 146 0
106 146 0
109 147 0
106 145 0
107 146 0
106 145 0
106 145 0
108 147 0
113 149 0
108 147 0
110 148 0
109 147 0
105 144 0
109 147 0
104 144 0
106 145 0
107 146 0
112 149 0
112 149 0
107 146 0
111 148 0
115 150 0
105 145 0
111 148 0
110 148 0
108 146 0
111 148 0
105 145 0
109 147 0
107 146 0
111 149 0
107 146 0
105 145 0
111 148 0
112 149 0
109 147 0
109 147 0
104 144 0
108 146 0
107 146 0
112 149 0
107 146 0
106 146 0
105 145 0
111 148 0
108 146 0
111 149 0
110 148 0
110 148 0
109 147 0
108 147 0
108 147 0
106 145 0
105 145 0
103 144 0
108 146 0
109 147 0
109 147 0
108 147 0
106 145 0
109 147 0
106 146 0
111 148 0
110 148 0
106 145 0
109 147 0
109 147 0
107 146 0
110 148 0
111 148 0
106 145 0
110 148 0
106 145 0
110 148 0
111 148 0
108 147 0
110 148 0
114 150 0
106 145 0
109 147 0
105 145 0
106 145 0
108 147 0
110 148 0
106 145 0
112 149 0
108 146 0
107 146 0
111 148 0
108 147 0
109 147 0
107 146 0
106 146 0
110 148 0
108 146 0
109 147 0
110 148 0
109 147 0
111 148 0
108 147 0
108 146 0
112 149 0
104 144 0
107 146 0
112 149 0
107 146 0
106 145 0
106 145 0
110 148 0
109 147 0
108 146 0
109 147 0
111 148 0
106 145 0
108 146 0
108 146 0
106 145 0
107 146 0
113 150 0
106 145 0
110 148 0
107 146 0
109 147 0
108 147 0
105 145 0
108 146 0
106 145 0
107 146 0
107 146 0
108 147 0
112 149 0
108 146 0
107 146 0
104 144 0
106 145 0
108 147 0
106 145 0
106 145 0
113 150 0
106 145 0
110 148 0
104 144 0
110 148 0
109 147 0
111 148 0
111 148 0
104 144 0
110 148 0
108 146 0
111 148 0
112 149 0
115 151 0
115 151 0
105 145 0
108 146 0
106 145 0
110 147 0
112 149 0
110 148 0
110 148 0
109 147 0
108 147 0
105 145 0
108 147 0
104 144 0
110 147 0
105 145 0
111 148 0
109 147 0
108 146 0
108 147 0
104 144 0
107 146 0
111 148 0
112 149 0
108 147 0
108 147 0
106 145 0
105 144 0
114 150 0
106 145 0
105 145 0
108 147 0
106 146 0
107 146 0
111 148 0
111 148 0
114 150 0
109 147 0
108 146 0
103 144 0
108 146 0
107 146 0
109 147 0
112 149 0
106 145 0
111 148 0
104 144 0
113 149 0
107 146 0
107 146 0
112 149 0
105 145 0
109 147 0
110 148 0
106 145 0
106 146 0
110 148 0
105 145 0
110 148 0
110 148 0
107 146 0
107 146 0
107 146 0
105 145 0
106 145 0
107 146 0
109 147 0
108 146 0
110 148 0
107 146 0
108 147 0
108 146 0
107 146 0
107 146 0
104 144 0
108 146 0
105 145 0
106 145 0
105 145 0
110 148 0
105 145 0
105 145 0
103 143 0
106 145 0
108 147 0
109 147 0
105 145 0
109 147 0
111 148 0
110 148 0
110 147 0
107 146 0
108 147 0
109 147 0
108 147 0
109 147 0
109 147 0
108 146 0
109 147 0
107 146 0
105 145 0
107 146 0
109 147 0
108 146 0
109 147 0
106 145 0
111 148 0
109 147 0
104 144 0
110 148 0
106 145 0
108 147 0
112 149 0
112 149 0
105 145 0
110 148 0
108 146 0
114 150 0
108 147 0
105 145 0
109 147 0
106 145 0
110 148 0
106 145 0
108 147 0
108 147 0
106 145 0
106 145 0
106 146 0
110 148 0
109 147 0
106 145 0
110 148 0
109 147 0
109 147 0
107 146 0
107 146 0
110 148 0
108 146 0
105 145 0
111 149 0
110 148 0
103 144 0
104 144 0
106 145 0
112 149 0
103 144 0
111 149 0
106 146 0
106 145 0
106 145 0
107 146 0
108 146 0
107 146 0
108 146 0
107 146 0
106 145 0
109 147 0
105 145 0
108 146 0
111 148 0
107 146 0
109 147 0
108 147 0
104 144 0
108 147 0
107 146 0
105 145 0
111 149 0
110 148 0
112 149 0
108 146 0
112 149 0
107 146 0
111 148 0
106 145 0
105 145 0
104 144 0
105 145 0
110 148 0
104 144 0
108 147 0
109 147 0
110 148 0
110 148 0
111 148 0
108 146 0
107 146 0
107 146 0
109 147 0
105 144 0
107 146 0
106 145 0
108 147 0
110 148 0
107 146 0
106 145 0
107 146 0
108 147 0
109 147 0
107 146 0
109 147 0
105 145 0
109 147 0
110 148 0
109 147 0
107 146 0
107 146 0
109 147 0
107 146 0
108 146 0
106 145 0
105 145 0
106 145 0
112 149 0
106 146 0
107 146 0
108 147 0
108 146 0
111 149 0
108 147 0
110 147 0
107 146 0
107 146 0
107 146 0
111 148 0
108 146 0
111 149 0
108 147 0
107 146 0
115 150 0
112 149 0
105 145 0
107 146 0
107 146 0
109 147 0
107 146 0
108 146 0
105 145 0
108 147 0
108 147 0
105 145 0
107 146 0
107 146 0
109 147 0
106 145 0
113 150 0
113 149 0
111 149 0
106 145 0
109 147 0
109 147 0
106 145 0
109 147 0
106 146 0
110 148 0
106 145 0
113 150 0
108 147 0
111 149 0
105 145 0
108 146 0
109 147 0
103 143 0
107 146 0
110 148 0
102 143 0
106 145 0
108 147 0
110 148 0
110 148 0
108 147 0
107 146 0
111 149 0
106 145 0
107 146 0
110 148 0
104 144 0
109 147 0
106 145 0
105 145 0
107 146 0
105 144 0
111 148 0
107 146 0
107 146 0
108 146 0
104 144 0
112 149 0
109 147 0
104 144 0
106 145 0
106 146 0
108 147 0
108 146 0
104 144 0
107 146 0
103 144 0
112 149 0
105 145 0
105 145 0
105 145 0
110 148 0
107 146 0
107 146 0
108 146 0
106 145 0
112 149 0
112 149 0
107 146 0
106 146 0
105 145 0
106 145 0
111 148 0
108 147 0
105 145 0
106 145 0
105 145 0
107 146 0
107 146 0
108 147 0
107 146 0
112 149 0
105 145 0
112 149 0
110 148 0
109 147 0
113 149 0
108 146 0
107 146 0
104 144 0
113 149 0
108 146 0
110 148 0
111 148 0
107 146 0
112 149 0
109 147 0
109 147 0
105 145 0
105 145 0
105 145 0
113 149 0
110 148 0
112 149 0
111 148 0
106 146 0
107 146 0
109 147 0
110 148 0
111 148 0
107 146 0
108 146 0
112 149 0
107 146 0
111 148 0
106 145 0
103 144 0
108 147 0
108 147 0
105 145 0
105 145 0
108 146 0
104 144 0
106 145 0
112 149 0
109 147 0
107 146 0
108 146 0
105 145 0
108 147 0
111 148 0
106 145 0
106 145 0
108 147 0
110 148 0
105 144 0
106 145 0
110 148 0
107 146 0
110 148 0
105 145 0
107 146 0
108 146 0
110 147 0
111 148 0
108 147 0
106 146 0
108 147 0
106 145 0
105 145 0
107 146 0
107 146 0
113 150 0
108 147 0
108 146 0
112 149 0
105 145 0
112 149 0
113 149 0
108 146 0
110 148 0
109 147 0
108 146 0
108 147 0
108 147 0
104 144 0
111 148 0
107 146 0
108 147 0
113 149 0
107 146 0
110 148 0
104 144 0
108 146 0
109 147 0
108 146 0
108 147 0
105 145 0
106 145 0
106 145 0
107 146 0
110 148 0
109 147 0
113 150 0
106 145 0
112 149 0
113 150 0
113 150 0
111 148 0
109 147 0
108 147 0
108 146 0
110 148 0
107 146 0
110 148 0
108 147 0
106 145 0
106 146 0
108 146 0
104 144 0
108 146 0
106 145 0
110 148 0
116 152 0
107 146 0
107 146 0
108 146 0
112 149 0
105 145 0
107 146 0
107 146 0
107 146 0
110 148 0
108 146 0
111 148 0
104 144 0
111 148 0
106 145 0
106 145 0
107 146 0
105 145 0
107 146 0
107 146 0
106 145 0
107 146 0
106 145 0
112 149 0
108 146 0
109 147 0
106 145 0
112 149 0
107 146 0
107 146 0
108 147 0
106 145 0
105 145 0
105 145 0
113 150 0
104 144 0
107 146 0
109 147 0
111 149 0
104 144 0
106 146 0
106 145 0
105 145 0
108 146 0
112 149 0
104 144 0
108 146 0
109 147 0
108 146 0
107 146 0
108 146 0
106 145 0
110 148 0
110 148 0
106 146 0
110 148 0
108 147 0
108 146 0
106 145 0
108 147 0
107 146 0
110 148 0
110 147 0
108 147 0
112 149 0
106 145 0
108 146 0
106 145 0
107 146 0
107 146 0
109 147 0
109 147 0
111 148 0
107 146 0
108 147 0
104 144 0
108 147 0
112 149 0
105 145 0
109 147 0
109 147 0
107 146 0
106 145 0
109 147 0
105 145 0
106 145 0
106 145 0
112 149 0
109 147 0
107 146 0
106 146 0
109 147 0
108 146 0
107 146 0
104 144 0
109 147 0
111 148 0
113 149 0
117 152 0
109 147 0
105 145 0
106 145 0
106 145 0
106 145 0
106 145 0
109 147 0
106 145 0
109 147 0
105 145 0
104 144 0
105 145 0
108 146 0
107 146 0
107 146 0
106 146 0
109 147 0
108 147 0
107 146 0
107 146 0
109 147 0
110 148 0
111 148 0
112 149 0
106 145 0
107 146 0
109 147 0
107 146 0
107 146 0
108 147 0
105 145 0
107 146 0
106 146 0
111 148 0
112 149 0
106 145 0
110 148 0
107 146 0
108 147 0
109 147 0
110 147 0
106 145 0
113 150 0
107 146 0
107 146 0
106 146 0
108 146 0
106 145 0
104 144 0
107 146 0
110 148 0
111 148 0
110 147 0
110 148 0
107 146 0
111 149 0
111 148 0
105 145 0
109 147 0
113 150 0
107 146 0
110 148 0
109 147 0
112 149 0
107 146 0
106 145 0
108 147 0
105 145 0
106 145 0
106 145 0
104 144 0
113 149 0
105 145 0
109 147 0
111 149 0
111 148 0
107 146 0
108 146 0
109 147 0
109 147 0
104 144 0
108 146 0
110 148 0
108 147 0
108 147 0
105 145 0
108 146 0
107 146 0
107 146 0
109 147 0
112 149 0
107 146 0
107 146 0
107 146 0
108 146 0
106 145 0
104 144 0
107 146 0
107 146 0
108 146 0
110 147 0
107 146 0
110 148 0
108 147 0
104 144 0
109 147 0
113 149 0
105 145 0
112 149 0
108 146 0
105 145 0
107 146 0
109 147 0
111 148 0
109 147 0
107 146 0
106 145 0
103 144 0
107 146 0
107 146 0
106 145 0
105 145 0
104 144 0
111 149 0
110 148 0
104 144 0
109 147 0
107 146 0
107 146 0
110 148 0
106 145 0
108 146 0
104 144 0
104 144 0
111 148 0
108 147 0
109 147 0
109 147 0
107 146 0
108 147 0
105 145 0
109 147 0
108 147 0
109 147 0
110 147 0
106 145 0
112 149 0
109 147 0
105 145 0
107 146 0
109 147 0
105 145 0
107 146 0
116 151 0
107 146 0
106 145 0
109 147 0
108 146 0
109 147 0
107 146 0
105 144 0
108 147 0
112 149 0
109 147 0
111 148 0
109 147 0
108 146 0
108 147 0
105 145 0
106 145 0
113 149 0
110 148 0
110 148 0
106 145 0
106 145 0
103 144 0
111 148 0
107 146 0
107 146 0
105 145 0
110 147 0
107 146 0
106 145 0
111 148 0
113 150 0
107 146 0
110 148 0
113 149 0
106 145 0
103 144 0
108 146 0
107 146 0
106 146 0
105 145 0
108 146 0
112 149 0
104 144 0
107 146 0
110 148 0
109 147 0
105 145 0
104 144 0
108 146 0
108 146 0
106 145 0
105 145 0
108 147 0
108 147 0
110 148 0
113 150 0
107 146 0
109 147 0
115 151 0
110 147 0
104 144 0
103 144 0
107 146 0
108 146 0
109 147 0
106 145 0
108 147 0
108 147 0
111 148 0
109 147 0
109 147 0
107 146 0
110 148 0
107 146 0
103 144 0
112 149 0
107 146 0
113 150 0
106 146 0
110 148 0
107 146 0
110 148 0
108 146 0
109 147 0
107 146 0
109 147 0
108 147 0
111 148 0
108 147 0
109 147 0
107 146 0
108 146 0
106 145 0
110 148 0
112 149 0
108 147 0
108 147 0
110 148 0
112 149 0
113 149 0
106 145 0
108 147 0
105 145 0
111 148 0
109 147 0
106 145 0
111 149 0
108 147 0
109 147 0
108 147 0
106 145 0
106 145 0
106 145 0
111 148 0
113 149 0
112 149 0
107 146 0
109 147 0
109 147 0
109 147 0
108 147 0
105 145 0
109 147 0
112 149 0
112 149 0
108 147 0
107 146 0
110 148 0
107 146 0
105 145 0
108 147 0
110 148 0
106 145 0
110 147 0
104 144 0
108 146 0
104 144 0
115 151 0
107 146 0
110 148 0
106 145 0
105 145 0
109 147 0
109 147 0
106 146 0
112 149 0
110 148 0
111 148 0
112 149 0
107 146 0
111 148 0
105 145 0
107 146 0
108 146 0
106 145 0
109 147 0
105 145 0
106 146 0
109 147 0
106 145 0
105 145 0
109 147 0
106 145 0
104 144 0
108 146 0
107 146 0
109 147 0
112 149 0
109 147 0
106 145 0
110 148 0
115 151 0
106 145 0
107 146 0
105 145 0
105 145 0
106 145 0
104 144 0
109 147 0
107 146 0
107 146 0
106 145 0
110 148 0
104 144 0
109 147 0
108 147 0
109 147 0
105 145 0
106 145 0
105 145 0
107 146 0
107 146 0
107 146 0
108 146 0
107 146 0
104 144 0
107 146 0
108 146 0
110 148 0
105 144 0
110 148 0
108 147 0
107 146 0
107 146 0
104 144 0
109 147 0
107 146 0
107 146 0
106 145 0
108 146 0
105 144 0
104 144 0
108 147 0
108 146 0
107 146 0
106 145 0
107 146 0
106 145 0
108 146 0
108 147 0
108 147 0
109 147 0
105 145 0
108 147 0
112 149 0
105 145 0
109 147 0
107 146 0
112 149 0
105 145 0
114 150 0
107 146 0
103 144 0
110 148 0
107 146 0
110 148 0
110 148 0
106 146 0
107 146 0
109 147 0
109 147 0
109 147 0
108 147 0
110 148 0
109 147 0
108 147 0
107 146 0
109 147 0
109 147 0
110 148 0
106 146 0
107 146 0
106 145 0
108 146 0
110 148 0
111 148 0
107 146 0
110 148 0
106 145 0
105 145 0
110 148 0
110 148 0
107 146 0
111 149 0
110 147 0
110 148 0
111 148 0
106 145 0
106 145 0
112 149 0
106 146 0
110 148 0
109 147 0
111 148 0
105 145 0
108 146 0
105 145 0
106 145 0
105 145 0
107 146 0
105 144 0
110 148 0
105 145 0
108 146 0
109 147 0
108 147 0
110 148 0
105 145 0
110 148 0
106 145 0
106 145 0
105 145 0
107 146 0
108 147 0
109 147 0
106 145 0
107 146 0
111 148 0
109 147 0
110 148 0
109 147 0
107 146 0
110 148 0
106 145 0
112 149 0
105 145 0
108 146 0
108 146 0
109 147 0
106 145 0
105 145 0
108 146 0
110 148 0
110 148 0
107 146 0
106 145 0
108 147 0
106 145 0
106 145 0
111 148 0
109 147 0
107 146 0
111 149 0
110 148 0
111 148 0
105 145 0
107 146 0
108 146 0
107 146 0
109 147 0
109 147 0
111 148 0
109 147 0
109 147 0
108 147 0
108 147 0
108 146 0
107 146 0
107 146 0
106 146 0
107 146 0
105 145 0
106 145 0
110 147 0
108 146 0
107 146 0
105 145 0
107 146 0
112 149 0
107 146 0
109 147 0
107 146 0
108 147 0
107 146 0
109 147 0
109 147 0
111 149 0
108 146 0
104 144 0
108 146 0
110 148 0
108 147 0
107 146 0
110 148 0
110 148 0
105 145 0
111 148 0
106 146 0
111 148 0
105 145 0
105 145 0
110 147 0
107 146 0
109 147 0
112 149 0
110 148 0
109 147 0
108 146 0
109 147 0
106 145 0
107 146 0
109 147 0
109 147 0
105 145 0
106 145 0
107 146 0
108 146 0
108 146 0
111 149 0
110 148 0
110 148 0
108 146 0
104 144 0
106 145 0
105 144 0
111 148 0
110 148 0
106 145 0
107 146 0
109 147 0
105 145 0
107 146 0
112 149 0
105 145 0
107 146 0
112 149 0
107 146 0
113 150 0
107 146 0
108 146 0
107 146 0
111 148 0
109 147 0
106 145 0
106 145 0
106 146 0
109 147 0
109 147 0
111 148 0
111 148 0
109 147 0
104 144 0
106 145 0
108 147 0
106 145 0
107 146 0
111 148 0
106 146 0
111 148 0
108 146 0
106 146 0
107 146 0
106 145 0
108 146 0
106 145 0
110 147 0
109 147 0
106 145 0
106 145 0
107 146 0
105 145 0
113 150 0
112 149 0
110 147 0
110 148 0
108 146 0
110 148 0
111 148 0
107 146 0
105 145 0
109 147 0
108 147 0
109 147 0
106 145 0
111 148 0
103 144 0
106 145 0
106 146 0
105 145 0
107 146 0
112 149 0
111 148 0
107 146 0
106 146 0
108 146 0
113 149 0
107 146 0
113 150 0
109 147 0
108 147 0
108 147 0
108 146 0
109 147 0
106 145 0
110 148 0
106 145 0
107 146 0
112 149 0
108 146 0
109 147 0
112 149 0
111 148 0
111 148 0
108 146 0
109 147 0
111 149 0
111 149 0
109 147 0
110 148 0
110 148 0
109 147 0
114 150 0
106 145 0
107 146 0
110 147 0
110 148 0
107 146 0
108 147 0
109 147 0
113 149 0
109 147 0
105 145 0
109 147 0
111 148 0
106 145 0
107 146 0
108 147 0
112 149 0
108 147 0
108 147 0
107 146 0
110 148 0
106 146 0
110 148 0
111 148 0
111 149 0
109 147 0
105 145 0
112 149 0
107 146 0
116 151 0
111 148 0
110 148 0
109 147 0
108 147 0
109 147 0
108 146 0
105 145 0
110 148 0
114 150 0
107 146 0
106 145 0
109 147 0
110 148 0
111 148 0
111 148 0
110 148 0
108 147 0
106 145 0
107 146 0
109 147 0
106 145 0
114 150 0
108 147 0
108 146 0
111 148 0
109 147 0
111 148 0
109 147 0
108 147 0
110 148 0
110 148 0
107 146 0
108 146 0
106 145 0
106 145 0
107 146 0
105 145 0
106 146 0
106 145 0
105 145 0
106 145 0
110 147 0
108 146 0
111 148 0
110 148 0
105 145 0
108 147 0
109 147 0
106 145 0
111 148 0
105 145 0
104 144 0
107 146 0
108 147 0
110 148 0
107 146 0
108 147 0
110 148 0
105 145 0
107 146 0
110 148 0
109 147 0
112 149 0
104 144 0
107 146 0
108 146 0
104 144 0
111 149 0
113 149 0
105 145 0
103 144 0
108 147 0
108 146 0
108 146 0
109 147 0
107 146 0
107 146 0
105 145 0
114 150 0
108 146 0
108 147 0
108 147 0
109 147 0
107 146 0
105 145 0
107 146 0
109 147 0
106 146 0
112 149 0
110 148 0
107 146 0
105 144 0
107 146 0
108 147 0
110 148 0
106 146 0
107 146 0
110 148 0
108 146 0
107 146 0
110 147 0
108 146 0
106 145 0
105 145 0
112 149 0
106 145 0
109 147 0
111 148 0
111 149 0
107 146 0
107 146 0
109 147 0
108 147 0
108 147 0
113 150 0
109 147 0
114 150 0
109 147 0
106 145 0
111 148 0
110 148 0
106 145 0
108 147 0
106 145 0
111 148 0
107 146 0
106 145 0
110 148 0
108 147 0
111 148 0
104 144 0
106 145 0
105 145 0
110 148 0
110 148 0
106 145 0
108 146 0
108 146 0
107 146 0
107 146 0
107 146 0
110 148 0
109 147 0
107 146 0
110 148 0
108 147 0
107 146 0
107 146 0
110 148 0
104 144 0
110 147 0
106 145 0
111 148 0
108 147 0
108 146 0
108 146 0
104 144 0
111 148 0
109 147 0
112 149 0
109 147 0
106 145 0
108 147 0
108 146 0
107 146 0
106 145 0
109 147 0
109 147 0
107 146 0
105 145 0
106 145 0
107 146 0
108 147 0
104 144 0
107 146 0
106 145 0
105 145 0
106 145 0
107 146 0
110 147 0
108 147 0
106 145 0
112 149 0
107 146 0
109 147 0
108 146 0
109 147 0
106 146 0
110 148 0
108 146 0
109 147 0
107 146 0
108 147 0
107 146 0
112 149 0
105 145 0
109 147 0
109 147 0
107 146 0
113 150 0
109 147 0
104 144 0
103 143 0
109 147 0
106 145 0
105 145 0
111 149 0
108 147 0
108 146 0
105 145 0
109 147 0
105 144 0
106 146 0
110 148 0
107 146 0
109 147 0
104 144 0
108 146 0
107 146 0
108 147 0
104 144 0
108 147 0
104 144 0
107 146 0
106 145 0
108 146 0
104 144 0
108 146 0
105 145 0
107 146 0
108 146 0
111 148 0
110 147 0
107 146 0
110 148 0
106 145 0
108 147 0
107 146 0
105 145 0
106 145 0
109 147 0
108 147 0
107 146 0
108 146 0
106 145 0
111 148 0
107 146 0
109 147 0
107 146 0
111 148 0
107 146 0
110 148 0
108 147 0
107 146 0
106 145 0
108 146 0
108 147 0
109 147 0
109 147 0
112 149 0
107 146 0
111 148 0
106 145 0
106 145 0
106 145 0
107 146 0
108 147 0
110 148 0
109 147 0
105 145 0
103 144 0
105 145 0
107 146 0
103 144 0
109 147 0
106 145 0
113 149 0
109 147 0
113 149 0
107 146 0
104 144 0
105 145 0
103 144 0
108 146 0
109 147 0
110 148 0
105 145 0
109 147 0
110 148 0
109 147 0
108 146 0
109 147 0
109 147 0
103 144 0
109 147 0
107 146 0
106 145 0
108 147 0
108 146 0
110 148 0
116 151 0
106 146 0
111 148 0
108 146 0
105 145 0
107 146 0
107 146 0
104 144 0
108 146 0
113 150 0
110 148 0
106 145 0
112 149 0
105 145 0
113 150 0
105 145 0
106 145 0
112 149 0
106 145 0
104 144 0
109 147 0
112 149 0
108 147 0
109 147 0
107 146 0
109 147 0
109 147 0
107 146 0
108 147 0
114 150 0
110 148 0
108 146 0
113 149 0
109 147 0
107 146 0
105 145 0
108 147 0
111 148 0
106 145 0
109 147 0
112 149 0
108 147 0
107 146 0
108 147 0
108 147 0
109 147 0
108 147 0
106 146 0
109 147 0
106 145 0
109 147 0
106 145 0
113 149 0
106 145 0
106 146 0
107 146 0
110 148 0
106 146 0
107 146 0
109 147 0
106 145 0
109 147 0
112 149 0
108 147 0
109 147 0
111 148 0
109 147 0
111 148 0
108 146 0
109 147 0
109 147 0
113 149 0
109 147 0
109 147 0
108 147 0
106 145 0
107 146 0
109 147 0
107 146 0
103 144 0
111 148 0
106 145 0
107 146 0
111 148 0
107 146 0
109 147 0
108 146 0
109 147 0
107 146 0
111 148 0
111 148 0
109 147 0
110 147 0
106 145 0
103 144 0
111 149 0
111 148 0
111 148 0
108 146 0
106 146 0
105 145 0
105 144 0
111 148 0
109 147 0
111 149 0
110 148 0
109 147 0
110 147 0
109 147 0
107 146 0
107 146 0
103 144 0
108 147 0
105 145 0
112 149 0
107 146 0
109 147 0
109 147 0
107 146 0
107 146 0
107 146 0
111 148 0
109 147 0
107 146 0
106 145 0
111 148 0
105 145 0
105 145 0
107 146 0
110 148 0
106 145 0
107 146 0
110 148 0
104 144 0
108 147 0
106 145 0
106 145 0
108 147 0
108 147 0
109 147 0
109 147 0
114 150 0
107 146 0
108 147 0
108 147 0
111 148 0
108 147 0
106 145 0
106 145 0
108 147 0
109 147 0
108 147 0
105 144 0
110 148 0
107 146 0
107 146 0
106 145 0
108 146 0
109 147 0
105 144 0
109 147 0
109 147 0
109 147 0
107 146 0
110 148 0
105 145 0
109 147 0
115 151 0
110 148 0
108 146 0
108 147 0
107 146 0
106 145 0
106 145 0
109 147 0
105 145 0
105 145 0
109 147 0
108 147 0
108 147 0
109 147 0
106 145 0
107 146 0
107 146 0
109 147 0
112 149 0
110 148 0
111 149 0
110 148 0
105 145 0
107 146 0
107 146 0
105 145 0
108 146 0
105 145 0
107 146 0
111 148 0
112 149 0
107 146 0
105 144 0
107 146 0
105 145 0
108 146 0
110 148 0
109 147 0
109 147 0
114 150 0
109 147 0
105 145 0
109 147 0
106 145 0
106 146 0
109 147 0
113 149 0
107 146 0
109 147 0
109 147 0
108 147 0
106 145 0
110 148 0
107 146 0
108 146 0
110 148 0
113 149 0
107 146 0
107 146 0
106 145 0
112 149 0
109 147 0
107 146 0
106 145 0
108 146 0
112 149 0
106 145 0
110 147 0
107 146 0
105 145 0
104 144 0
109 147 0
105 145 0
105 145 0
109 147 0
110 148 0
105 145 0
107 146 0
105 145 0
107 146 0
108 147 0
109 147 0
106 145 0
107 146 0
106 145 0
113 149 0
104 144 0
109 147 0
109 147 0
109 147 0
108 146 0
113 149 0
110 148 0
110 147 0
107 146 0
110 148 0
109 147 0
110 147 0
106 145 0
106 145 0
112 149 0
110 148 0
106 145 0
109 147 0
107 146 0
108 146 0
105 145 0
105 145 0
108 147 0
105 145 0
111 149 0
113 150 0
110 148 0
104 144 0
114 150 0
103 144 0
108 147 0
109 147 0
108 146 0
109 147 0
106 145 0
110 148 0
108 146 0
106 145 0
104 144 0
106 145 0
110 148 0
110 148 0
107 146 0
108 146 0
109 147 0
108 147 0
108 147 0
107 146 0
113 150 0
106 145 0
106 145 0
108 146 0
112 149 0
110 148 0
110 148 0
113 150 0
106 145 0
110 148 0
108 146 0
106 145 0
111 148 0
111 149 0
111 148 0
105 145 0
112 149 0
107 146 0
110 148 0
108 147 0
108 146 0
105 145 0
108 147 0
108 147 0
112 149 0
109 147 0
107 146 0
107 146 0
106 145 0
109 147 0
106 146 0
111 148 0
105 145 0
102 143 0
105 145 0
108 147 0
109 147 0
106 145 0
105 145 0
110 147 0
109 147 0
111 148 0
109 147 0
108 146 0
107 146 0
111 148 0
111 148 0
107 146 0
111 149 0
107 146 0
105 145 0
113 150 0
108 146 0
108 146 0
106 145 0
105 145 0
107 146 0
112 149 0
106 145 0
108 147 0
109 147 0
106 145 0
107 146 0
107 146 0
107 146 0
109 147 0
105 145 0
108 147 0
108 147 0
108 147 0
106 146 0
103 144 0
106 145 0
104 144 0
108 147 0
110 148 0
105 145 0
113 150 0
107 146 0
107 146 0
105 145 0
107 146 0
108 147 0
105 145 0
106 145 0
107 146 0
110 148 0
106 145 0
110 148 0
110 148 0
108 147 0
111 148 0
105 145 0
110 148 0
107 146 0
111 148 0
107 146 0
107 146 0
109 147 0
107 146 0
108 146 0
109 147 0
105 145 0
112 149 0
112 149 0
110 148 0
110 148 0
109 147 0
110 148 0
107 146 0
108 146 0
111 148 0
108 147 0
111 149 0
109 147 0
108 147 0
107 146 0
110 148 0
106 145 0
108 147 0
109 147 0
106 145 0
109 147 0
108 146 0
108 147 0
110 148 0
109 147 0
108 146 0
109 147 0
109 147 0
110 148 0
109 147 0
107 146 0
110 148 0
112 149 0
111 148 0
108 146 0
111 148 0
110 148 0
109 147 0
108 146 0
110 148 0
110 148 0
109 147 0
103 144 0
111 148 0
106 145 0
106 146 0
113 150 0
108 146 0
105 145 0
107 146 0
106 146 0
105 145 0
114 150 0
107 146 0
107 146 0
105 145 0
107 146 0
109 147 0
109 147 0
107 146 0
109 147 0
112 149 0
109 147 0
109 147 0
107 146 0
108 147 0
105 145 0
108 147 0
110 148 0
106 145 0
105 145 0
110 148 0
112 149 0
106 145 0
112 149 0
108 146 0
109 147 0
107 146 0
109 147 0
104 144 0
106 145 0
113 150 0
107 146 0
106 145 0
110 148 0
110 148 0
111 148 0
107 146 0
107 146 0
112 149 0
106 146 0
106 145 0
107 146 0
111 148 0
110 148 0
113 149 0
112 149 0
108 147 0
108 146 0
112 149 0
105 145 0
108 146 0
111 148 0
111 149 0
106 145 0
108 147 0
111 148 0
109 147 0
103 144 0
108 147 0
105 144 0
111 149 0
107 146 0
106 145 0
110 148 0
107 146 0
109 147 0
109 147 0
110 148 0
107 146 0
112 149 0
110 148 0
110 148 0
112 149 0
106 146 0
105 145 0
110 148 0
106 145 0
106 145 0
107 146 0
105 144 0
108 146 0
105 145 0
106 145 0
108 147 0
111 149 0
110 148 0
106 145 0
103 144 0
106 145 0
108 147 0
105 145 0
108 146 0
105 145 0
107 146 0
107 146 0
112 149 0
106 146 0
103 144 0
109 147 0
106 146 0
111 148 0
105 145 0
107 146 0
109 147 0
108 146 0
105 145 0
109 147 0
110 148 0
109 147 0
109 147 0
106 145 0
106 145 0
110 148 0
110 147 0
108 146 0
107 146 0
106 145 0
106 145 0
113 149 0
107 146 0
107 146 0
107 146 0
110 148 0
104 144 0
108 147 0
109 147 0
105 145 0
106 145 0
106 146 0
109 147 0
109 147 0
107 146 0
111 148 0
107 146 0
106 145 0
110 148 0
107 146 0
107 146 0
113 150 0
105 145 0
108 147 0
106 145 0
109 147 0
109 147 0
105 145 0
107 146 0
106 145 0
104 144 0
108 146 0
108 146 0
111 149 0
107 146 0
110 148 0
106 146 0
108 146 0
107 146 0
105 144 0
108 147 0
108 146 0
109 147 0
109 147 0
111 149 0
107 146 0
111 148 0
105 145 0
112 149 0
107 146 0
107 146 0
105 145 0
107 146 0
105 145 0
106 145 0
108 146 0
111 148 0
108 147 0
108 147 0
108 147 0
109 147 0
107 146 0
109 147 0
106 146 0
105 145 0
105 145 0
107 146 0
107 146 0
106 146 0
107 146 0
109 147 0
113 149 0
109 147 0
106 145 0
107 146 0
107 146 0
107 146 0
107 146 0
107 146 0
108 147 0
105 145 0
115 151 0
107 146 0
110 148 0
110 147 0
105 145 0
107 146 0
107 146 0
104 144 0
112 149 0
109 147 0
111 148 0
109 147 0
105 145 0
109 147 0
106 146 0
109 147 0
104 144 0
110 148 0
107 146 0
108 146 0
111 148 0
106 145 0
106 145 0
109 147 0
107 146 0
108 147 0
108 146 0
107 146 0
105 145 0
104 144 0
107 146 0
112 149 0
113 150 0
106 145 0
107 146 0
109 147 0
111 148 0
105 145 0
103 144 0
107 146 0
110 148 0
108 146 0
107 146 0
111 148 0
113 149 0
105 145 0
107 146 0
105 145 0
109 147 0
110 148 0
109 147 0
110 147 0
106 146 0
109 147 0
113 149 0
109 147 0
109 147 0
113 150 0
111 149 0
111 148 0
106 145 0
107 146 0
109 147 0
110 148 0
105 145 0
106 145 0
110 147 0
112 149 0
109 147 0
112 149 0
105 144 0
107 146 0
112 149 0
111 148 0
105 144 0
107 146 0
106 145 0
104 144 0
108 147 0
104 144 0
108 146 0
113 150 0
108 146 0
108 146 0
106 146 0
108 146 0
107 146 0
107 146 0
110 148 0
107 146 0
106 145 0
109 147 0
106 145 0
110 148 0
108 146 0
106 145 0
107 146 0
108 147 0
111 148 0
107 146 0
106 145 0
111 148 0
113 149 0
107 146 0
107 146 0
110 147 0
105 145 0
107 146 0
108 147 0
106 145 0
116 151 0
110 148 0
106 145 0
109 147 0
108 147 0
103 144 0
111 149 0
107 146 0
107 146 0
111 148 0
108 146 0
108 147 0
109 147 0
107 146 0
110 148 0
107 146 0
108 147 0
110 148 0
106 145 0
111 148 0
107 146 0
112 149 0
108 146 0
110 148 0
109 147 0
113 149 0
107 146 0
106 145 0
109 147 0
108 147 0
111 148 0
107 146 0
108 146 0
109 147 0
107 146 0
110 148 0
105 145 0
108 147 0
107 146 0
104 144 0
112 149 0
108 147 0
110 148 0
108 147 0
104 144 0
109 147 0
111 148 0
107 146 0
107 146 0
106 145 0
107 146 0
111 148 0
108 147 0
105 145 0
107 146 0
110 148 0
107 146 0
105 145 0
107 146 0
109 147 0
107 146 0
107 146 0
110 148 0
112 149 0
108 146 0
109 147 0
109 147 0
108 147 0
108 146 0
111 148 0
114 150 0
110 148 0
105 145 0
109 147 0
107 146 0
109 147 0
109 147 0
106 145 0
107 146 0
111 148 0
110 147 0
105 145 0
107 146 0
110 148 0
116 152 0
109 147 0
108 147 0
108 146 0
111 148 0
108 147 0
110 148 0
110 148 0
104 144 0
106 145 0
108 146 0
107 146 0
108 147 0
107 146 0
111 148 0
112 149 0
108 146 0
109 147 0
109 147 0
107 146 0
105 144 0
110 148 0
114 150 0
107 146 0
109 147 0
110 148 0
105 145 0
111 148 0
106 145 0
104 144 0
108 147 0
109 147 0
108 146 0
108 147 0
108 146 0
108 146 0
108 146 0
108 147 0
109 147 0
113 149 0
112 149 0
106 145 0
109 147 0
110 148 0
108 146 0
111 149 0
111 148 0
112 149 0
108 147 0
109 147 0
109 147 0
112 149 0
109 147 0
109 147 0
108 146 0
107 146 0
106 145 0
110 148 0
108 147 0
104 144 0
110 148 0
108 146 0
109 147 0
109 147 0
109 147 0
109 147 0
107 146 0
107 146 0
110 148 0
109 147 0
105 145 0
110 148 0
104 144 0
111 149 0
110 148 0
108 146 0
113 150 0
107 146 0
108 147 0
107 146 0
109 147 0
106 145 0
110 148 0
106 146 0
109 147 0
105 145 0
108 147 0
110 148 0
107 146 0
108 146 0
106 145 0
109 147 0
110 148 0
111 149 0
111 148 0
112 149 0
110 148 0
105 145 0
109 147 0
108 146 0
108 147 0
106 145 0
109 147 0
107 146 0
104 144 0
110 148 0
106 145 0
110 148 0
110 148 0
108 147 0
105 145 0
105 145 0
111 148 0
108 147 0
109 147 0
106 145 0
108 146 0
111 149 0
108 147 0
106 145 0
110 148 0
110 148 0
109 147 0
107 146 0
107 146 0
106 145 0
106 145 0
109 147 0
104 144 0
107 146 0
105 145 0
105 145 0
110 148 0
110 147 0
110 148 0
106 145 0
110 148 0
108 146 0
108 147 0
110 147 0
108 147 0
109 147 0
111 148 0
107 146 0
107 146 0
105 145 0
112 149 0
106 146 0
109 147 0
106 145 0
109 147 0
106 146 0
106 145 0
109 147 0
105 145 0
103 143 0
110 148 0
108 146 0
110 148 0
108 147 0
109 147 0
108 146 0
110 148 0
106 146 0
107 146 0
105 145 0
111 148 0
107 146 0
104 144 0
107 146 0
108 146 0
110 148 0
104 144 0
111 148 0
105 145 0
109 147 0
112 149 0
112 149 0
104 144 0
105 145 0
108 147 0
107 146 0
107 146 0
106 146 0
111 148 0
109 147 0
107 146 0
109 147 0
107 146 0
106 145 0
110 148 0
108 147 0
107 146 0
112 149 0
104 144 0
103 144 0
110 148 0
105 145 0
105 145 0
113 150 0
109 147 0
107 146 0
107 146 0
110 148 0
108 146 0
110 148 0
106 145 0
108 146 0
110 148 0
105 144 0
108 146 0
110 147 0
109 147 0
108 146 0
104 144 0
112 149 0
105 145 0
111 148 0
107 146 0
105 145 0
109 147 0
110 148 0
109 147 0
110 148 0
105 144 0
110 148 0
108 147 0
106 145 0
108 146 0
109 147 0
106 145 0
109 147 0
111 148 0
107 146 0
107 146 0
108 147 0
107 146 0
105 145 0
109 147 0
110 148 0
112 149 0
112 149 0
107 146 0
105 145 0
108 147 0
108 146 0
110 148 0
106 146 0
104 144 0
107 146 0
104 144 0
106 146 0
106 146 0
105 145 0
106 145 0
104 144 0
108 147 0
107 146 0
105 144 0
107 146 0
105 145 0
107 146 0
111 148 0
106 145 0
106 145 0
110 147 0
110 148 0
111 148 0
105 145 0
112 149 0
106 146 0
110 148 0
109 147 0
105 145 0
106 145 0
110 148 0
107 146 0
105 145 0
106 146 0
109 147 0
109 147 0
109 147 0
104 144 0
107 146 0
106 146 0
107 146 0
107 146 0
110 148 0
105 145 0
111 148 0
110 148 0
109 147 0
108 147 0
107 146 0
105 145 0
107 146 0
106 146 0
107 146 0
109 147 0
109 147 0
109 147 0
109 147 0
110 147 0
108 146 0
106 146 0
105 145 0
104 144 0
107 146 0
115 151 0
106 145 0
105 145 0
107 146 0
118 153 0
112 149 0
107 146 0
111 148 0
104 144 0
110 148 0
113 149 0
109 147 0
109 147 0
108 146 0
106 145 0
109 147 0
111 149 0
111 148 0
107 146 0
110 147 0
107 146 0
109 147 0
106 145 0
106 145 0
106 145 0
107 146 0
107 146 0
111 148 0
107 146 0
105 145 0
107 146 0
111 148 0
106 146 0
113 149 0
105 145 0
112 149 0
110 148 0
109 147 0
108 147 0
110 148 0
103 143 0
105 145 0
109 147 0
106 146 0
105 145 0
108 147 0
106 146 0
108 146 0
108 147 0
104 144 0
107 146 0
111 148 0
104 144 0
110 148 0
111 148 0
109 147 0
107 146 0
110 148 0
113 149 0
105 145 0
113 149 0
109 147 0
109 147 0
110 148 0
112 149 0
109 147 0
110 148 0
109 147 0
109 147 0
108 147 0
105 145 0
106 145 0
110 148 0
109 147 0
106 145 0
112 149 0
104 144 0
110 148 0
111 148 0
111 148 0
106 145 0
107 146 0
116 151 0
109 147 0
110 148 0
111 148 0
111 148 0
110 148 0
109 147 0
111 148 0
106 145 0
108 146 0
108 147 0
112 149 0
106 145 0
106 145 0
106 145 0
111 148 0
114 150 0
106 145 0
108 146 0
108 146 0
109 147 0
108 147 0
108 146 0
109 147 0
112 149 0
108 146 0
110 148 0
113 149 0
108 147 0
107 146 0
107 146 0
105 145 0
116 151 0
107 146 0
107 146 0
108 147 0
105 145 0
106 146 0
112 149 0
106 145 0
107 146 0
107 146 0
110 148 0
110 148 0
106 145 0
110 148 0
108 147 0
111 148 0
110 148 0
112 149 0
109 147 0
106 145 0
108 146 0
106 145 0
108 147 0
110 148 0
111 148 0
108 147 0
106 146 0
110 148 0
111 148 0
107 146 0
109 147 0
111 148 0
105 145 0
106 146 0
113 149 0
103 143 0
107 146 0
108 147 0
107 146 0
108 146 0
111 148 0
104 144 0
109 147 0
106 145 0
108 146 0
104 144 0
109 147 0
106 145 0
107 146 0
108 147 0
106 145 0
104 144 0
108 147 0
110 147 0
106 145 0
106 145 0
108 147 0
113 149 0
104 144 0
107 146 0
106 146 0
106 145 0
108 147 0
113 149 0
108 146 0
111 148 0
106 145 0
108 146 0
107 146 0
108 147 0
111 148 0
107 146 0
109 147 0
110 148 0
103 144 0
107 146 0
106 145 0
108 147 0
108 146 0
106 145 0
105 145 0
109 147 0
107 146 0
107 146 0
106 145 0
109 147 0
106 145 0
110 147 0
108 146 0
106 145 0
106 145 0
108 147 0
109 147 0
111 148 0
110 148 0
110 147 0
104 144 0
106 146 0
106 145 0
106 145 0
112 149 0
112 149 0
108 146 0
109 147 0
103 144 0
108 146 0
105 145 0
107 146 0
106 145 0
105 144 0
108 147 0
115 150 0
109 147 0
112 149 0
107 146 0
108 147 0
108 147 0
109 147 0
109 147 0
107 146 0
107 146 0
109 147 0
106 145 0
108 147 0
107 146 0
110 148 0
106 145 0
113 149 0
111 148 0
105 145 0
110 148 0
112 149 0
107 146 0
106 145 0
107 146 0
111 149 0
109 147 0
109 147 0
109 147 0
109 147 0
105 145 0
110 148 0
108 147 0
108 146 0
109 147 0
109 147 0
108 146 0
107 146 0
111 148 0
110 148 0
108 146 0
106 146 0
112 149 0
105 145 0
110 148 0
109 147 0
109 147 0
108 146 0
107 146 0
114 150 0
108 146 0
108 147 0
107 146 0
109 147 0
109 147 0
108 147 0
112 149 0
107 146 0
110 148 0
106 145 0
110 148 0
106 145 0
109 147 0
107 146 0
106 145 0
106 145 0
109 147 0
104 144 0
105 145 0
105 145 0
110 147 0
107 146 0
106 145 0
109 147 0
110 148 0
113 149 0
109 147 0
104 144 0
110 148 0
106 145 0
108 147 0
106 145 0
104 144 0
105 144 0
107 146 0
108 146 0
111 148 0
112 149 0
109 147 0
109 147 0
110 148 0
108 146 0
106 145 0
107 146 0
114 150 0
105 145 0
109 147 0
108 147 0
105 145 0
109 147 0
105 145 0
106 145 0
107 146 0
108 146 0
107 146 0
107 146 0
106 145 0
107 146 0
107 146 0
107 146 0
105 145 0
106 145 0
109 147 0
111 148 0
108 146 0
107 146 0
112 149 0
112 149 0
109 147 0
108 147 0
103 143 0
110 147 0
109 147 0
105 145 0
107 146 0
107 146 0
107 146 0
107 146 0
107 146 0
107 146 0
108 147 0
109 147 0
115 150 0
104 144 0
104 144 0
108 147 0
105 145 0
107 146 0
110 148 0
108 146 0
104 144 0
108 146 0
108 146 0
107 146 0
107 146 0
106 145 0
109 147 0
110 148 0
105 144 0
107 146 0
106 145 0
109 147 0
110 148 0
107 146 0
106 146 0
106 145 0
111 149 0
111 148 0
109 147 0
109 147 0
114 150 0
105 145 0
105 145 0
105 145 0
110 147 0
109 147 0
108 147 0
109 147 0
108 146 0
105 145 0
108 147 0
108 147 0
111 148 0
109 147 0
112 149 0
105 145 0
107 146 0
108 147 0
105 145 0
111 148 0
111 149 0
107 146 0
108 146 0
111 148 0
108 146 0
110 147 0
111 148 0
111 148 0
107 146 0
108 147 0
110 148 0
111 149 0
108 146 0
109 147 0
107 146 0
105 144 0
105 145 0
108 146 0
107 146 0
108 147 0
108 147 0
108 147 0
106 145 0
110 147 0
110 148 0
107 146 0
106 145 0
111 148 0
107 146 0
105 145 0
108 146 0
106 145 0
105 145 0
109 147 0
107 146 0
108 147 0
106 145 0
108 147 0
109 147 0
106 146 0
109 147 0
106 145 0
106 145 0
108 147 0
111 148 0
113 149 0
105 145 0
111 149 0
107 146 0
109 147 0
106 145 0
106 145 0
112 149 0
107 146 0
108 147 0
111 148 0
107 146 0
106 145 0
107 146 0
106 145 0
110 148 0
110 148 0
112 149 0
108 146 0
107 146 0
109 147 0
109 147 0
107 146 0
107 146 0
108 147 0
111 148 0
105 145 0
112 149 0
104 144 0
107 146 0
106 145 0
109 147 0
110 148 0
105 144 0
111 148 0
108 147 0
110 148 0
106 146 0
107 146 0
105 145 0
111 148 0
110 148 0
108 146 0
112 149 0
108 146 0
109 147 0
108 146 0
112 149 0
108 146 0
107 146 0
109 147 0
108 146 0
113 150 0
105 145 0
108 146 0
105 145 0
107 146 0
112 149 0
107 146 0
110 148 0
110 148 0
106 145 0
106 145 0
108 146 0
111 148 0
108 147 0
107 146 0
111 148 0
108 147 0
110 148 0
109 147 0
105 145 0
113 150 0
114 150 0
111 148 0
105 145 0
109 147 0
106 145 0
108 147 0
109 147 0
115 151 0
108 147 0
108 146 0
112 149 0
111 148 0
106 145 0
113 149 0
107 146 0
107 146 0
110 148 0
106 145 0
113 149 0
108 147 0
110 148 0
106 146 0
111 148 0
112 149 0
107 146 0
110 148 0
112 149 0
104 144 0
105 145 0
108 147 0
111 148 0
109 147 0
107 146 0
109 147 0
110 147 0
108 146 0
108 146 0
107 146 0
106 146 0
110 147 0
105 145 0
111 148 0
108 146 0
107 146 0
113 150 0
109 147 0
109 147 0
107 146 0
107 146 0
106 145 0
111 148 0
104 144 0
106 145 0
106 145 0
111 148 0
108 147 0
113 149 0
109 147 0
107 146 0
110 147 0
104 144 0
107 146 0
107 146 0
106 145 0
107 146 0
106 145 0
110 148 0
106 146 0
111 149 0
105 145 0
105 145 0
114 150 0
106 145 0
111 148 0
107 146 0
108 147 0
107 146 0
106 145 0
108 147 0
107 146 0
107 146 0
109 147 0
108 146 0
108 147 0
107 146 0
108 146 0
105 145 0
110 148 0
108 147 0
108 147 0
108 147 0
110 147 0
105 145 0
106 145 0
107 146 0
107 146 0
107 146 0
106 145 0
111 148 0
108 146 0
105 144 0
104 144 0
109 147 0
104 144 0
108 147 0
105 145 0
109 147 0
107 146 0
109 147 0
104 144 0
106 145 0
108 147 0
107 146 0
112 149 0
108 146 0
107 146 0
105 145 0
106 145 0
113 150 0
110 148 0
106 145 0
104 144 0
108 147 0
108 147 0
110 148 0
105 145 0
106 145 0
109 147 0
106 145 0
105 145 0
113 149 0
110 148 0
106 145 0
107 146 0
109 147 0
105 145 0
104 144 0
107 146 0
110 148 0
105 145 0
105 145 0
106 145 0
109 147 0
106 145 0
106 145 0
109 147 0
106 145 0
110 148 0
107 146 0
107 146 0
106 146 0
106 145 0
111 148 0
108 147 0
107 146 0
113 150 0
104 144 0
108 146 0
107 146 0
105 144 0
107 146 0
108 147 0
109 147 0
108 146 0
111 148 0
106 145 0
103 144 0
106 145 0
106 145 0
105 145 0
106 145 0
107 146 0
108 146 0
105 145 0
106 145 0
109 147 0
108 146 0
109 147 0
107 146 0
110 147 0
110 148 0
107 146 0
108 147 0
105 145 0
110 148 0
106 145 0
105 145 0
106 145 0
107 146 0
108 147 0
107 146 0
108 146 0
109 147 0
109 147 0
110 148 0
110 148 0
112 149 0
106 145 0
109 147 0
107 146 0
108 146 0
106 145 0
107 146 0
112 149 0
106 145 0
107 146 0
108 146 0
111 148 0
108 146 0
109 147 0
107 146 0
105 145 0
108 147 0
109 147 0
108 146 0
111 148 0
110 147 0
109 147 0
105 145 0
114 150 0
106 145 0
113 150 0
108 146 0
111 148 0
105 145 0
110 148 0
105 144 0
110 148 0
105 145 0
106 145 0
107 146 0
108 146 0
109 147 0
108 147 0
109 147 0
112 149 0
106 145 0
110 148 0
107 146 0
107 146 0
106 145 0
111 148 0
109 147 0
106 145 0
104 144 0
105 145 0
110 148 0
109 147 0
112 149 0
110 148 0
108 146 0
104 144 0
106 145 0
107 146 0
107 146 0
110 148 0
112 149 0
111 148 0
105 145 0
110 148 0
107 146 0
110 148 0
110 148 0
113 149 0
107 146 0
110 148 0
106 145 0
109 147 0
110 148 0
111 148 0
105 145 0
108 146 0
108 146 0
110 148 0
109 147 0
106 146 0
108 146 0
109 147 0
110 148 0
107 146 0
104 144 0
112 149 0
111 149 0
107 146 0
109 147 0
107 146 0
109 147 0
108 147 0
112 149 0
108 146 0
104 144 0
106 146 0
112 149 0
109 147 0
105 145 0
111 148 0
106 145 0
108 146 0
108 147 0
110 148 0
107 146 0
113 150 0
109 147 0
109 147 0
107 146 0
109 147 0
111 148 0
109 147 0
104 144 0
108 147 0
107 146 0
106 146 0
108 147 0
106 145 0
110 147 0
106 146 0
104 144 0
107 146 0
106 145 0
106 145 0
111 148 0
108 146 0
117 152 0
107 146 0
108 146 0
109 147 0
111 148 0
106 146 0
110 148 0
109 147 0
107 146 0
106 145 0
108 147 0
111 148 0
107 146 0
110 148 0
110 148 0
105 145 0
108 147 0
106 145 0
107 146 0
112 149 0
109 147 0
104 144 0
106 146 0
112 149 0
111 148 0
108 147 0
108 146 0
109 147 0
107 146 0
108 147 0
110 148 0
110 148 0
112 149 0
110 148 0
107 146 0
110 148 0
111 148 0
107 146 0
106 145 0
109 147 0
113 149 0
113 150 0
107 146 0
105 145 0
105 145 0
110 148 0
107 146 0
109 147 0
113 150 0
108 146 0
108 147 0
108 146 0
107 146 0
104 144 0
108 146 0
108 147 0
111 148 0
107 146 0
109 147 0
107 146 0
110 148 0
106 145 0
109 147 0
109 147 0
112 149 0
107 146 0
109 147 0
106 145 0
110 148 0
110 148 0
106 145 0
107 146 0
110 148 0
108 146 0
110 148 0
103 144 0
108 147 0
110 148 0
109 147 0
107 146 0
110 148 0
110 148 0
112 149 0
106 146 0
112 149 0
112 149 0
109 147 0
108 146 0
115 151 0
113 149 0
108 146 0
108 146 0
114 150 0
105 145 0
108 147 0
108 146 0
109 147 0
106 146 0
109 147 0
110 148 0
106 146 0
108 146 0
107 146 0
107 146 0
108 146 0
108 146 0
105 145 0
106 145 0
106 145 0
105 144 0
106 145 0
107 146 0
106 146 0
106 145 0
111 148 0
106 145 0
106 145 0
107 146 0
112 149 0
113 149 0
107 146 0
107 146 0
108 147 0
111 148 0
111 148 0
110 147 0
107 146 0
112 149 0
106 145 0
111 148 0
110 148 0
110 148 0
110 148 0
106 145 0
104 144 0
106 145 0
112 149 0
111 148 0
107 146 0
103 144 0
107 146 0
109 147 0
107 146 0
108 146 0
108 147 0
111 148 0
104 144 0
108 147 0
112 149 0
115 150 0
107 146 0
107 146 0
107 146 0
109 147 0
109 147 0
107 146 0
106 145 0
109 147 0
106 145 0
113 150 0
106 145 0
107 146 0
108 147 0
105 145 0
104 144 0
108 146 0
106 145 0
107 146 0
104 144 0
108 147 0
111 148 0
106 146 0
107 146 0
109 147 0
108 146 0
109 147 0
106 145 0
108 147 0
107 146 0
107 146 0
109 147 0
111 148 0
109 147 0
108 146 0
103 143 0
106 145 0
106 145 0
108 146 0
109 147 0
109 147 0
107 146 0
109 147 0
107 146 0
109 147 0
108 146 0
106 145 0
104 144 0
109 147 0
107 146 0
108 146 0
109 147 0
107 146 0
113 149 0
104 144 0
107 146 0
108 147 0
106 146 0
110 148 0
104 144 0
107 146 0
107 146 0
107 146 0
105 145 0
108 146 0
104 144 0
104 144 0
109 147 0
109 147 0
110 147 0
109 147 0
107 146 0
111 148 0
109 147 0
106 145 0
109 147 0
107 146 0
108 147 0
108 146 0
109 147 0
109 147 0
110 148 0
112 149 0
109 147 0
103 144 0
107 146 0
108 146 0
106 145 0
105 145 0
107 146 0
113 149 0
108 147 0
107 146 0
107 146 0
111 149 0
104 144 0
107 146 0
109 147 0
107 146 0
109 147 0
108 147 0
108 146 0
109 147 0
105 145 0
109 147 0
107 146 0
108 146 0
106 145 0
107 146 0
106 145 0
107 146 0
107 146 0
107 146 0
105 145 0
110 148 0
105 145 0
106 146 0
111 148 0
109 147 0
107 146 0
109 147 0
108 147 0
104 144 0
110 147 0
106 145 0
108 146 0
109 147 0
111 148 0
107 146 0
112 149 0
106 145 0
109 147 0
111 148 0
106 145 0
105 145 0
113 149 0
111 148 0
113 149 0
110 147 0
107 146 0
110 147 0
108 146 0
104 144 0
110 148 0
106 145 0
107 146 0
104 144 0
104 144 0
107 146 0
106 145 0
109 147 0
108 146 0
105 145 0
109 147 0
108 146 0
109 147 0
109 147 0
109 147 0
109 147 0
114 150 0
108 147 0
109 147 0
107 146 0
106 146 0
111 148 0
107 146 0
108 146 0
109 147 0
109 147 0
106 146 0
110 148 0
107 146 0
105 145 0
107 146 0
107 146 0
109 147 0
109 147 0
112 149 0
107 146 0
108 147 0
111 148 0
110 148 0
111 148 0
114 150 0
112 149 0
109 147 0
106 145 0
111 148 0
109 147 0
108 147 0
112 149 0
115 151 0
104 144 0
108 146 0
106 145 0
105 145 0
109 147 0
107 146 0
110 147 0
105 145 0
111 148 0
105 145 0
105 145 0
108 146 0
109 147 0
107 146 0
112 149 0
112 149 0
109 147 0
108 147 0
107 146 0
109 147 0
108 146 0
110 148 0
108 147 0
112 149 0
107 146 0
108 147 0
106 145 0
114 150 0
108 147 0
110 148 0
115 151 0
105 145 0
111 148 0
106 145 0
107 146 0
113 150 0
111 148 0
110 148 0
108 146 0
108 147 0
111 148 0
107 146 0
109 147 0
107 146 0
106 145 0
106 145 0
113 150 0
107 146 0
110 147 0
108 146 0
108 147 0
106 145 0
109 147 0
107 146 0
109 147 0
106 145 0
110 147 0
108 147 0
108 146 0
107 146 0
108 147 0
107 146 0
109 147 0
108 147 0
107 146 0
108 146 0
103 144 0
108 147 0
106 145 0
107 146 0
111 148 0
105 144 0
106 146 0
112 149 0
108 146 0
110 148 0
108 146 0
112 149 0
106 145 0
110 148 0
103 144 0
108 146 0
108 146 0
108 146 0
111 148 0
109 147 0
106 146 0
112 149 0
110 148 0
109 147 0
112 149 0
110 148 0
106 146 0
106 145 0
106 145 0
110 148 0
109 147 0
108 146 0
108 147 0
110 148 0
110 148 0
109 147 0
109 147 0
106 145 0
107 146 0
107 146 0
108 146 0
104 144 0
109 147 0
109 147 0
107 146 0
110 148 0
106 145 0
109 147 0
107 146 0
109 147 0
106 145 0
106 145 0
110 148 0
108 146 0
110 148 0
107 146 0
113 150 0
110 148 0
110 148 0
105 145 0
108 147 0
110 148 0
108 147 0
106 145 0
108 147 0
111 148 0
110 148 0
108 147 0
115 151 0
108 146 0
108 146 0
105 144 0
104 144 0
106 145 0
107 146 0
111 148 0
104 144 0
106 146 0
108 146 0
106 145 0
109 147 0
107 146 0
105 145 0
105 145 0
110 147 0
107 146 0
107 146 0
110 148 0
112 149 0
107 146 0
107 146 0
109 147 0
108 146 0
109 147 0
108 146 0
109 147 0
111 148 0
108 147 0
105 145 0
109 147 0
108 146 0
110 148 0
107 146 0
111 148 0
114 150 0
108 146 0
109 147 0
110 148 0
111 148 0
112 149 0
108 146 0
106 145 0
108 146 0
110 148 0
104 144 0
111 149 0
105 145 0
111 148 0
112 149 0
107 146 0
108 147 0
105 145 0
113 149 0
107 146 0
107 146 0
108 147 0
108 147 0
104 144 0
104 144 0
110 148 0
108 146 0
105 145 0
105 145 0
108 146 0
106 145 0
108 146 0
107 146 0
111 148 0
109 147 0
106 145 0
106 145 0
104 144 0
109 147 0
105 145 0
111 148 0
109 147 0
111 148 0
109 147 0
105 145 0
106 146 0
110 148 0
108 147 0
109 147 0
103 143 0
108 147 0
107 146 0
109 147 0
107 146 0
108 146 0
108 146 0
113 150 0
107 146 0
110 147 0
107 146 0
108 146 0
107 146 0
108 146 0
113 149 0
104 144 0
105 145 0
110 148 0
109 147 0
108 147 0
104 144 0
108 147 0
109 147 0
106 145 0
112 149 0
104 144 0
107 146 0
109 147 0
108 146 0
105 145 0
107 146 0
110 148 0
105 144 0
107 146 0
104 144 0
110 148 0
106 145 0
108 146 0
111 148 0
105 145 0
107 146 0
108 146 0
105 145 0
106 145 0
108 147 0
107 146 0
106 145 0
108 147 0
107 146 0
108 146 0
112 149 0
105 145 0
111 148 0
107 146 0
110 148 0
104 144 0
105 145 0
109 147 0
106 145 0
104 144 0
107 146 0
109 147 0
106 146 0
108 147 0
105 145 0
112 149 0
107 146 0
110 148 0
110 148 0
107 146 0
106 145 0
110 148 0
106 145 0
107 146 0
109 147 0
112 149 0
110 148 0
107 146 0
107 146 0
109 147 0
108 146 0
107 146 0
112 149 0
104 144 0
106 145 0
106 145 0
106 145 0
113 149 0
103 143 0
105 145 0
110 148 0
107 146 0
108 146 0
108 146 0
109 147 0
107 146 0
106 145 0
108 146 0
106 145 0
107 146 0
107 146 0
107 146 0
108 146 0
112 149 0
108 147 0
106 145 0
108 147 0
110 148 0
107 146 0
104 144 0
111 149 0
111 148 0
110 147 0
106 145 0
105 145 0
108 147 0
107 146 0
110 148 0
109 147 0
105 145 0
106 146 0
105 145 0
110 148 0
106 145 0
107 146 0
111 148 0
109 147 0
105 145 0
108 147 0
112 149 0
106 145 0
109 147 0
110 148 0
107 146 0
111 148 0
109 147 0
106 145 0
109 147 0
112 149 0
105 145 0
106 146 0
105 145 0
108 147 0
108 147 0
104 144 0
107 146 0
106 145 0
107 146 0
109 147 0
106 145 0
108 147 0
108 147 0
106 145 0
110 148 0
105 145 0
107 146 0
110 147 0
112 149 0
106 146 0
107 146 0
106 146 0
105 145 0
103 144 0
107 146 0
107 146 0
109 147 0
106 145 0
110 148 0
109 147 0
105 145 0
111 148 0
109 147 0
107 146 0
112 149 0
110 148 0
109 147 0
109 147 0
106 145 0
113 150 0
108 146 0
108 147 0
107 146 0
108 147 0
108 147 0
107 146 0
105 145 0
107 146 0
109 147 0
107 146 0
110 147 0
109 147 0
109 147 0
110 148 0
107 146 0
109 147 0
108 147 0
107 146 0
110 148 0
106 145 0
111 149 0
107 146 0
107 146 0
110 148 0
109 147 0
108 147 0
107 146 0
106 146 0
111 149 0
105 145 0
106 145 0
105 145 0
109 147 0
108 147 0
105 144 0
106 145 0
110 148 0
107 146 0
107 146 0
107 146 0
107 146 0
107 146 0
112 149 0
109 147 0
107 146 0
106 145 0
111 149 0
109 147 0
107 146 0
109 147 0
113 149 0
106 145 0
106 145 0
110 148 0
105 145 0
108 147 0
109 147 0
108 146 0
109 147 0
109 147 0
111 148 0
105 145 0
109 147 0
108 146 0
107 146 0
107 146 0
108 147 0
109 147 0
110 147 0
110 148 0
105 145 0
108 146 0
109 147 0
107 146 0
111 148 0
109 147 0
110 148 0
112 149 0
106 145 0
112 149 0
108 147 0
109 147 0
107 146 0
105 145 0
106 145 0
110 148 0
106 145 0
107 146 0
114 150 0
107 146 0
106 145 0
108 146 0
108 147 0
108 146 0
114 150 0
107 146 0
107 146 0
114 150 0
109 147 0
112 149 0
111 148 0
107 146 0
108 146 0
111 148 0
108 146 0
108 147 0
106 146 0
106 145 0
108 147 0
110 148 0
107 146 0
109 147 0
108 146 0
110 148 0
106 145 0
113 149 0
106 145 0
109 147 0
106 146 0
109 147 0
113 149 0
112 149 0
110 148 0
106 145 0
108 146 0
104 144 0
107 146 0
111 148 0
111 148 0
108 147 0
108 146 0
107 146 0
111 148 0
104 144 0
107 146 0
108 147 0
111 148 0
106 145 0
108 146 0
109 147 0
104 144 0
110 148 0
108 147 0
109 147 0
111 148 0
105 145 0
114 150 0
105 145 0
112 149 0
110 148 0
107 146 0
109 147 0
109 147 0
106 145 0
109 147 0
107 146 0
108 146 0
105 145 0
107 146 0
109 147 0
109 147 0
107 146 0
110 147 0
107 146 0
107 146 0
111 148 0
112 149 0
107 146 0
108 147 0
111 148 0
110 148 0
107 146 0
111 148 0
112 149 0
111 148 0
108 147 0
114 150 0
104 144 0
105 144 0
112 149 0
108 146 0
107 146 0
111 148 0
117 152 0
107 146 0
110 148 0
112 149 0
109 147 0
109 147 0
107 146 0
107 146 0
108 147 0
108 147 0
108 146 0
107 146 0
107 146 0
107 146 0
108 147 0
107 146 0
110 148 0
106 145 0
107 146 0
110 148 0
107 146 0
107 146 0
111 148 0
110 148 0
109 147 0
107 146 0
106 145 0
108 146 0
108 146 0
107 146 0
109 147 0
110 148 0
107 146 0
104 144 0
110 148 0
109 147 0
108 147 0
109 147 0
104 144 0
106 145 0
107 146 0
108 147 0
105 145 0
106 145 0
105 145 0
109 147 0
106 145 0
109 147 0
109 147 0
111 148 0
110 148 0
111 148 0
107 146 0
107 146 0
109 147 0
110 148 0
105 145 0
106 145 0
107 146 0
105 145 0
108 147 0
107 146 0
107 146 0
111 149 0
107 146 0
105 145 0
109 147 0
109 147 0
109 147 0
108 146 0
109 147 0
107 146 0
110 148 0
113 149 0
110 148 0
109 147 0
110 148 0
110 148 0
107 146 0
106 146 0
108 147 0
112 149 0
112 149 0
109 147 0
105 145 0
106 145 0
106 146 0
108 146 0
108 146 0
105 145 0
107 146 0
111 148 0
108 147 0
109 147 0
110 148 0
107 146 0
110 147 0
107 146 0
110 148 0
112 149 0
112 149 0
109 147 0
111 148 0
110 148 0
106 145 0
105 145 0
106 145 0
109 147 0
109 147 0
109 147 0
106 145 0
106 145 0
109 147 0
110 148 0
109 147 0
107 146 0
105 145 0
106 146 0
106 145 0
108 147 0
106 145 0
110 148 0
110 148 0
109 147 0
109 147 0
109 147 0
108 147 0
110 148 0
108 146 0
108 146 0
107 146 0
108 147 0
113 150 0
105 145 0
108 146 0
107 146 0
106 145 0
108 146 0
110 148 0
114 150 0
107 146 0
112 149 0
102 143 0
105 145 0
108 147 0
110 147 0
107 146 0
110 148 0
104 144 0
111 148 0
110 148 0
107 146 0
109 147 0
108 147 0
110 147 0
111 148 0
108 147 0
104 144 0
108 147 0
109 147 0
112 149 0
108 147 0
106 145 0
112 149 0
105 145 0
107 146 0
108 146 0
105 145 0
110 148 0
109 147 0
109 147 0
107 146 0
105 145 0
107 146 0
111 149 0
107 146 0
108 146 0
108 146 0
112 149 0
105 145 0
108 147 0
111 148 0
111 148 0
105 145 0
108 147 0
114 150 0
106 145 0
108 147 0
110 148 0
104 144 0
110 148 0
110 148 0
108 147 0
107 146 0
106 145 0
107 146 0
109 147 0
111 149 0
108 146 0
110 148 0
109 147 0
108 146 0
106 145 0
109 147 0
109 147 0
108 147 0
109 147 0
109 147 0
109 147 0
108 147 0
107 146 0
108 147 0
108 146 0
107 146 0
107 146 0
105 144 0
105 145 0
106 145 0
113 149 0
105 145 0
105 145 0
111 149 0
114 150 0
108 146 0
105 145 0
106 145 0
109 147 0
106 145 0
108 146 0
104 144 0
107 146 0
105 145 0
109 147 0
106 145 0
111 148 0
106 146 0
109 147 0
105 145 0
108 146 0
110 148 0
111 148 0
110 148 0
111 149 0
108 147 0
109 147 0
112 149 0
111 148 0
106 145 0
108 147 0
107 146 0
113 150 0
104 144 0
111 148 0
109 147 0
111 149 0
103 143 0
108 147 0
111 148 0
104 144 0
104 144 0
113 150 0
113 150 0
105 145 0
109 147 0
107 146 0
110 148 0
113 150 0
106 145 0
108 146 0
105 145 0
110 148 0
110 148 0
110 147 0
104 144 0
109 147 0
110 148 0
109 147 0
108 147 0
109 147 0
108 147 0
107 146 0
112 149 0
110 148 0
110 148 0
110 148 0
104 144 0
110 147 0
110 148 0
108 147 0
109 147 0
109 147 0
107 146 0
106 145 0
109 147 0
107 146 0
107 146 0
111 148 0
109 147 0
108 146 0
103 143 0
110 147 0
109 147 0
107 146 0
112 149 0
108 146 0
106 145 0
105 145 0
109 147 0
108 146 0
109 147 0
105 145 0
107 146 0
104 144 0
106 145 0
107 146 0
103 144 0
107 146 0
107 146 0
110 148 0
107 146 0
110 148 0
110 148 0
108 146 0
106 145 0
106 145 0
112 149 0
109 147 0
108 146 0
109 147 0
110 148 0
107 146 0
109 147 0
108 146 0
112 149 0
107 146 0
108 146 0
107 146 0
111 148 0
113 150 0
108 146 0
109 147 0
107 146 0
106 145 0
103 144 0
108 146 0
107 146 0
107 146 0
107 146 0
108 146 0
104 144 0
108 146 0
109 147 0
106 145 0
108 147 0
107 146 0
113 149 0
112 149 0
105 145 0
108 146 0
108 146 0
109 147 0
104 144 0
111 149 0
113 149 0
110 148 0
107 146 0
113 149 0
112 149 0
108 147 0
106 145 0
113 150 0
108 146 0
108 147 0
109 147 0
108 147 0
110 147 0
106 145 0
107 146 0
106 145 0
112 149 0
109 147 0
110 148 0
108 147 0
107 146 0
104 144 0
108 146 0
112 149 0
108 146 0
106 146 0
108 146 0
105 145 0
109 147 0
107 146 0
109 147 0
108 147 0
113 150 0
107 146 0
109 147 0
103 144 0
107 146 0
105 145 0
113 149 0
107 146 0
110 148 0
109 147 0
109 147 0
107 146 0
108 147 0
105 145 0
110 148 0
112 149 0
111 149 0
109 147 0
105 145 0
111 149 0
106 146 0
105 145 0
111 148 0
108 146 0
106 145 0
106 146 0
107 146 0
109 147 0
108 146 0
110 148 0
109 147 0
109 147 0
107 146 0
109 147 0
107 146 0
109 147 0
106 145 0
105 145 0
110 148 0
107 146 0
109 147 0
112 149 0
106 145 0
109 147 0
106 146 0
107 146 0
112 149 0
105 144 0
105 145 0
107 146 0
111 148 0
105 145 0
112 149 0
109 147 0
107 146 0
107 146 0
111 148 0
109 147 0
110 148 0
106 145 0
108 146 0
109 147 0
107 146 0
106 146 0
113 150 0
110 148 0
107 146 0
109 147 0
109 147 0
108 146 0
111 148 0
109 147 0
107 146 0
107 146 0
107 146 0
104 144 0
108 146 0
107 146 0
108 147 0
108 146 0
108 147 0
108 147 0
108 146 0
105 145 0
104 144 0
106 145 0
110 148 0
106 145 0
107 146 0
106 145 0
105 145 0
111 148 0
103 144 0
105 145 0
106 145 0
111 148 0
110 148 0
108 147 0
109 147 0
111 148 0
107 146 0
110 148 0
108 147 0
104 144 0
109 147 0
109 147 0
107 146 0
107 146 0
109 147 0
109 147 0
110 148 0
111 148 0
110 148 0
108 147 0
109 147 0
107 146 0
109 147 0
108 147 0
107 146 0
105 145 0
109 147 0
108 147 0
107 146 0
109 147 0
106 145 0
106 145 0
106 145 0
105 145 0
110 147 0
108 146 0
110 148 0
109 147 0
107 146 0
105 145 0
108 147 0
106 145 0
109 147 0
105 145 0
107 146 0
104 144 0
109 147 0
110 148 0
107 146 0
108 147 0
113 150 0
108 147 0
106 145 0
105 145 0
111 148 0
105 145 0
109 147 0
109 147 0
106 145 0
105 145 0
107 146 0
111 148 0
116 151 0
106 146 0
109 147 0
107 146 0
108 146 0
106 145 0
106 146 0
106 146 0
111 148 0
106 145 0
109 147 0
106 146 0
111 148 0
110 148 0
112 149 0
106 145 0
108 147 0
104 144 0
109 147 0
110 148 0
108 146 0
109 147 0
105 145 0
107 146 0
106 145 0
106 145 0
106 145 0
109 147 0
104 144 0
110 147 0
110 148 0
105 145 0
107 146 0
109 147 0
110 147 0
108 147 0
104 144 0
108 147 0
106 145 0
108 147 0
106 145 0
107 146 0
105 145 0
108 147 0
105 145 0
109 147 0
107 146 0
105 145 0
105 144 0
110 148 0
105 145 0
108 146 0
107 146 0
106 145 0
105 145 0
104 144 0
107 146 0
110 148 0
108 147 0
104 144 0
106 145 0
113 150 0
107 146 0
111 148 0
106 145 0
107 146 0
111 148 0
105 145 0
106 145 0
111 148 0
109 147 0
108 147 0
108 147 0
106 145 0
106 146 0
108 146 0
107 146 0
108 147 0
106 145 0
106 146 0
108 146 0
108 147 0
111 148 0
110 148 0
112 149 0
111 149 0
104 144 0
111 148 0
111 148 0
107 146 0
105 145 0
106 145 0
108 146 0
112 149 0
105 145 0
112 149 0
107 146 0
107 146 0
108 147 0
110 148 0
107 146 0
105 145 0
106 145 0
107 146 0
107 146 0
106 145 0
111 148 0
112 149 0
113 149 0
108 146 0
107 146 0
106 145 0
107 146 0
106 145 0
107 146 0
107 146 0
106 145 0
107 146 0
107 146 0
112 149 0
110 148 0
111 148 0
116 151 0
107 146 0
105 145 0
107 146 0
108 146 0
110 148 0
104 144 0
109 147 0
112 149 0
110 148 0
106 146 0
106 145 0
110 148 0
108 146 0
106 145 0
108 147 0
113 149 0
106 145 0
108 147 0
109 147 0
105 144 0
110 148 0
111 148 0
109 147 0
104 144 0
111 148 0
106 145 0
107 146 0
107 146 0
112 149 0
106 145 0
106 145 0
106 145 0
107 146 0
109 147 0
109 147 0
110 148 0
107 146 0
111 149 0
110 148 0
105 145 0
106 145 0
107 146 0
109 147 0
107 146 0
111 148 0
105 144 0
113 150 0
109 147 0
107 146 0
109 147 0
110 148 0
107 146 0
107 146 0
106 145 0
108 147 0
107 146 0
109 147 0
107 146 0
110 148 0
107 146 0
107 146 0
105 145 0
107 146 0
109 147 0
107 146 0
107 146 0
109 147 0
106 146 0
115 151 0
113 149 0
107 146 0
108 146 0
110 148 0
107 146 0
105 145 0
109 147 0
107 146 0
111 149 0
112 149 0
107 146 0
109 147 0
108 146 0
109 147 0
108 146 0
112 149 0
105 145 0
108 146 0
106 145 0
108 147 0
111 148 0
108 147 0
107 146 0
111 148 0
108 146 0
112 149 0
109 147 0
115 150 0
110 147 0
105 145 0
110 148 0
108 146 0
108 146 0
105 145 0
108 147 0
113 150 0
109 147 0
112 149 0
109 147 0
105 145 0
109 147 0
113 149 0
107 146 0
105 145 0
107 146 0
106 145 0
108 147 0
109 147 0
113 149 0
109 147 0
113 149 0
108 146 0
105 145 0
112 149 0
109 147 0
107 146 0
111 148 0
106 145 0
108 147 0
110 148 0
105 145 0
111 148 0
105 144 0
114 150 0
107 146 0
109 147 0
111 148 0
108 146 0
113 150 0
109 147 0
110 148 0
109 147 0
109 147 0
108 147 0
107 146 0
112 149 0
109 147 0
110 148 0
106 145 0
106 145 0
109 147 0
109 147 0
107 146 0
105 145 0
110 148 0
112 149 0
108 146 0
109 147 0
105 145 0
110 148 0
107 146 0
113 149 0
108 146 0
109 147 0
106 146 0
110 148 0
106 146 0
110 148 0
110 148 0
108 147 0
107 146 0
104 144 0
107 146 0
109 147 0
106 145 0
108 147 0
104 144 0
104 144 0
110 148 0
105 145 0
104 144 0
105 145 0
108 147 0
107 146 0
109 147 0
106 145 0
108 147 0
105 145 0
109 147 0
104 144 0
108 146 0
106 145 0
109 147 0
107 146 0
107 146 0
104 144 0
107 146 0
106 145 0
111 149 0
106 145 0
107 146 0
107 146 0
106 146 0
107 146 0
110 148 0
107 146 0
109 147 0
108 146 0
107 146 0
107 146 0
110 148 0
108 147 0
114 150 0
114 150 0
108 147 0
110 148 0
109 147 0
111 148 0
108 147 0
111 148 0
107 146 0
111 148 0
109 147 0
106 145 0
106 146 0
109 147 0
108 147 0
110 148 0
109 147 0
105 145 0
109 147 0
110 148 0
107 146 0
114 150 0
111 148 0
107 146 0
111 148 0
110 147 0
106 145 0
104 144 0
108 146 0
110 148 0
108 146 0
104 144 0
108 147 0
108 147 0
106 146 0
109 147 0
107 146 0
107 146 0
109 147 0
109 147 0
109 147 0
105 145 0
107 146 0
104 144 0
111 148 0
108 146 0
105 145 0
109 147 0
108 147 0
107 146 0
105 145 0
109 147 0
106 145 0
106 146 0
110 148 0
109 147 0
109 147 0
104 144 0
106 145 0
109 147 0
112 149 0
112 149 0
107 146 0
110 147 0
108 146 0
111 148 0
105 145 0
103 143 0
106 145 0
107 146 0
104 144 0
107 146 0
108 146 0
111 148 0
106 145 0
106 145 0
111 148 0
106 145 0
105 145 0
107 146 0
106 145 0
112 149 0
110 148 0
107 146 0
110 148 0
103 144 0
106 145 0
106 145 0
105 145 0
106 145 0
109 147 0
112 149 0
108 147 0
108 146 0
106 145 0
108 147 0
107 146 0
108 146 0
107 146 0
111 148 0
112 149 0
111 148 0
105 145 0
109 147 0
108 147 0
104 144 0
107 146 0
108 147 0
108 147 0
108 146 0
108 147 0
106 146 0
108 147 0
111 148 0
108 146 0
111 148 0
108 146 0
112 149 0
108 146 0
110 147 0
107 146 0
107 146 0
108 147 0
110 148 0
110 148 0
107 146 0
108 146 0
106 145 0
111 148 0
107 146 0
108 147 0
108 147 0
106 145 0
109 147 0
105 145 0
111 148 0
113 149 0
109 147 0
111 149 0
111 148 0
111 148 0
111 148 0
108 146 0
106 145 0
112 149 0
109 147 0
109 147 0
105 145 0
109 147 0
103 144 0
108 147 0
106 145 0
114 150 0
107 146 0
106 145 0
105 145 0
108 147 0
105 145 0
107 146 0
106 145 0
106 145 0
109 147 0
108 146 0
106 145 0
107 146 0
110 148 0
107 146 0
109 147 0
112 149 0
111 148 0
106 145 0
112 149 0
107 146 0
104 144 0
108 146 0
108 146 0
113 149 0
110 148 0
111 148 0
106 145 0
109 147 0
107 146 0
107 146 0
110 148 0
110 148 0
107 146 0
110 148 0
107 146 0
108 147 0
104 144 0
111 148 0
108 147 0
109 147 0
109 147 0
107 146 0
108 146 0
103 144 0
106 145 0
110 148 0
109 147 0
109 147 0
109 147 0
108 146 0
108 147 0
109 147 0
113 149 0
107 146 0
108 147 0
106 145 0
110 148 0
107 146 0
105 145 0
108 146 0
108 146 0
112 149 0
111 148 0
107 146 0
109 147 0
111 148 0
107 146 0
113 149 0
107 146 0
106 145 0
108 146 0
108 146 0
105 145 0
112 149 0
105 145 0
105 145 0
105 145 0
107 146 0
109 147 0
108 146 0
109 147 0
113 150 0
105 145 0
114 150 0
108 147 0
113 149 0
112 149 0
107 146 0
107 146 0
108 147 0
110 148 0
109 147 0
112 149 0
106 145 0
107 146 0
106 145 0
108 147 0
114 150 0
107 146 0
104 144 0
109 147 0
104 144 0
104 144 0
108 147 0
106 145 0
104 144 0
111 148 0
111 148 0
107 146 0
109 147 0
106 146 0
109 147 0
107 146 0
111 148 0
107 146 0
105 145 0
107 146 0
109 147 0
107 146 0
113 150 0
109 147 0
109 147 0
111 148 0
109 147 0
108 146 0
107 146 0
108 147 0
109 147 0
113 150 0
109 147 0
109 147 0
108 147 0
115 151 0
110 148 0
105 145 0
106 145 0
106 145 0
107 146 0
109 147 0
108 146 0
107 146 0
107 146 0
109 147 0
112 149 0
107 146 0
114 150 0
110 148 0
104 144 0
107 146 0
108 147 0
110 148 0
112 149 0
110 148 0
109 147 0
110 148 0
110 148 0
107 146 0
111 149 0
105 145 0
104 144 0
106 146 0
108 146 0
110 148 0
111 148 0
108 147 0
112 149 0
108 147 0
106 145 0
106 145 0
110 148 0
109 147 0
108 147 0
108 146 0
110 148 0
105 145 0
108 146 0
107 146 0
110 148 0
108 146 0
109 147 0
108 146 0
107 146 0
106 145 0
106 145 0
111 148 0
110 148 0
110 148 0
105 144 0
110 148 0
108 147 0
110 148 0
108 147 0
108 147 0
105 144 0
112 149 0
103 143 0
110 148 0
108 147 0
106 146 0
104 144 0
110 148 0
108 146 0
107 146 0
110 147 0
106 145 0
103 144 0
105 145 0
112 149 0
105 145 0
106 145 0
107 146 0
108 147 0
107 146 0
106 145 0
106 145 0
105 145 0
112 149 0
103 144 0
109 147 0
108 146 0
110 148 0
111 148 0
111 148 0
104 144 0
113 150 0
106 145 0
107 146 0
105 145 0
109 147 0
107 146 0
105 145 0
105 145 0
110 148 0
108 146 0
106 145 0
104 144 0
109 147 0
106 145 0
105 144 0
107 146 0
105 145 0
109 147 0
106 145 0
108 146 0
109 147 0
113 149 0
105 144 0
111 148 0
105 145 0
108 146 0
107 146 0
105 144 0
110 148 0
108 147 0
111 148 0
105 144 0
108 146 0
108 146 0
107 146 0
107 146 0
110 148 0
109 147 0
103 144 0
112 149 0
105 145 0
106 145 0
109 147 0
104 144 0
106 146 0
108 146 0
108 147 0
108 147 0
105 145 0
110 148 0
105 145 0
110 147 0
108 146 0
107 146 0
111 148 0
107 146 0
110 148 0
107 146 0
108 147 0
109 147 0
108 147 0
110 148 0
109 147 0
106 145 0
110 148 0
112 149 0
103 143 0
111 148 0
110 148 0
112 149 0
107 146 0
113 150 0
114 150 0
109 147 0
112 149 0
108 146 0
107 146 0
109 147 0
108 146 0
106 145 0
111 148 0
108 146 0
107 146 0
107 146 0
106 146 0
110 148 0
112 149 0
107 146 0
108 147 0
112 149 0
105 145 0
109 147 0
108 147 0
108 146 0
107 146 0
107 146 0
106 145 0
106 146 0
112 149 0
108 146 0
108 146 0
107 146 0
109 147 0
107 146 0
108 146 0
104 144 0
107 146 0
110 148 0
104 144 0
107 146 0
105 145 0
111 148 0
105 145 0
107 146 0
108 147 0
108 146 0
109 147 0
110 148 0
108 147 0
107 146 0
110 148 0
107 146 0
107 146 0
107 146 0
106 145 0
111 148 0
106 146 0
105 145 0
112 149 0
106 145 0
110 148 0
105 145 0
110 148 0
103 144 0
110 148 0
107 146 0
104 144 0
106 145 0
109 147 0
106 146 0
106 145 0
107 146 0
107 146 0
107 146 0
107 146 0
105 145 0
104 144 0
105 145 0
108 146 0
111 148 0
108 146 0
107 146 0
112 149 0
109 147 0
108 146 0
106 145 0
106 145 0
107 146 0
105 145 0
109 147 0
106 145 0
108 146 0
111 148 0
107 146 0
109 147 0
113 150 0
105 144 0
113 149 0
109 147 0
103 144 0
108 146 0
107 146 0
106 146 0
105 144 0
109 147 0
108 147 0
110 148 0
109 147 0
110 148 0
112 149 0
108 147 0
111 148 0
109 147 0
110 148 0
111 148 0
109 147 0
106 145 0
108 147 0
112 149 0
109 147 0
107 146 0
110 148 0
112 149 0
104 144 0
105 145 0
105 144 0
109 147 0
108 147 0
105 145 0
110 148 0
107 146 0
111 148 0
108 147 0
107 146 0
107 146 0
104 144 0
107 146 0
107 146 0
107 146 0
111 148 0
106 145 0
104 144 0
112 149 0
110 148 0
106 145 0
110 148 0
103 144 0
108 146 0
110 148 0
107 146 0
109 147 0
109 147 0
104 144 0
109 147 0
108 146 0
111 148 0
109 147 0
106 145 0
112 149 0
111 148 0
105 145 0
107 146 0
105 145 0
106 146 0
108 146 0
109 147 0
105 145 0
107 146 0
105 145 0
111 148 0
105 145 0
107 146 0
106 145 0
108 147 0
107 146 0
108 146 0
104 144 0
109 147 0
105 145 0
112 149 0
110 148 0
112 149 0
108 147 0
107 146 0
110 148 0
106 145 0
107 146 0
104 144 0
107 146 0
116 151 0
106 145 0
109 147 0
110 147 0
107 146 0
111 148 0
109 147 0
108 147 0
109 147 0
108 147 0
111 148 0
108 147 0
111 148 0
108 147 0
105 145 0
114 150 0
109 147 0
107 146 0
106 145 0
110 148 0
110 147 0
108 146 0
105 145 0
108 147 0
106 145 0
107 146 0
110 148 0
105 145 0
113 149 0
109 147 0
108 146 0
112 149 0
105 145 0
107 146 0
106 145 0
110 148 0
109 147 0
109 147 0
107 146 0
115 151 0
107 146 0
107 146 0
110 148 0
109 147 0
108 146 0
109 147 0
108 147 0
115 150 0
110 148 0
108 146 0
107 146 0
112 149 0
106 145 0
109 147 0
106 145 0
109 147 0
106 146 0
108 146 0
106 145 0
107 146 0
108 147 0
107 146 0
108 146 0
106 145 0
111 148 0
109 147 0
111 148 0
108 146 0
106 145 0
108 146 0
105 145 0
107 146 0
109 147 0
108 146 0
107 146 0
105 144 0
108 147 0
109 147 0
107 146 0
110 148 0
113 150 0
107 146 0
106 145 0
106 145 0
109 147 0
107 146 0
110 147 0
105 145 0
111 148 0
106 145 0
107 146 0
107 146 0
111 148 0
106 145 0
105 145 0
105 145 0
112 149 0
115 150 0
109 147 0
110 148 0
110 148 0
108 147 0
110 148 0
107 146 0
111 149 0
111 148 0
107 146 0
106 145 0
106 145 0
109 147 0
109 147 0
107 146 0
107 146 0
107 146 0
105 145 0
113 150 0
108 146 0
106 145 0
112 149 0
111 148 0
106 146 0
106 145 0
109 147 0
111 148 0
104 144 0
107 146 0
105 145 0
103 144 0
108 146 0
103 144 0
106 146 0
105 145 0
104 144 0
107 146 0
106 145 0
104 144 0
109 147 0
109 147 0
107 146 0
107 146 0
105 145 0
110 148 0
106 145 0
109 147 0
108 147 0
105 145 0
107 146 0
106 145 0
113 149 0
108 147 0
108 147 0
107 146 0
106 145 0
109 147 0
111 148 0
108 146 0
105 145 0
110 148 0
108 147 0
107 146 0
112 149 0
107 146 0
108 147 0
111 148 0
110 148 0
107 146 0
106 146 0
111 148 0
109 147 0
105 145 0
107 146 0
107 146 0
104 144 0
110 148 0
109 147 0
105 145 0
109 147 0
105 145 0
107 146 0
105 145 0
109 147 0
107 146 0
106 145 0
105 144 0
107 146 0
107 146 0
105 145 0
108 147 0
106 145 0
108 147 0
107 146 0
107 146 0
107 146 0
105 145 0
108 146 0
110 148 0
111 148 0
105 145 0
109 147 0
104 144 0
107 146 0
106 145 0
105 145 0
108 147 0
108 147 0
111 148 0
107 146 0
108 146 0
110 148 0
106 145 0
110 148 0
107 146 0
107 146 0
104 144 0
108 146 0
106 145 0
108 147 0
105 145 0
106 146 0
106 146 0
107 146 0
106 145 0
108 146 0
108 146 0
107 146 0
110 148 0
104 144 0
108 146 0
112 149 0
106 145 0
106 145 0
109 147 0
106 145 0
111 149 0
105 145 0
109 147 0
108 146 0
105 145 0
110 147 0
109 147 0
104 144 0
109 147 0
107 146 0
105 145 0
106 145 0
110 148 0
111 148 0
107 146 0
110 148 0
108 146 0
108 147 0
106 145 0
107 146 0
108 146 0
109 147 0
114 150 0
109 147 0
110 148 0
106 145 0
109 147 0
104 144 0
108 146 0
110 148 0
106 145 0
105 145 0
108 147 0
107 146 0
112 149 0
113 149 0
107 146 0
108 147 0
105 145 0
107 146 0
108 146 0
107 146 0
105 145 0
111 148 0
105 145 0
105 145 0
109 147 0
109 147 0
107 146 0
107 146 0
113 150 0
108 146 0
107 146 0
108 146 0
108 146 0
109 147 0
109 147 0
111 148 0
107 146 0
110 148 0
105 144 0
107 146 0
110 148 0
107 146 0
112 149 0
110 148 0
108 147 0
106 145 0
109 147 0
110 147 0
107 146 0
105 145 0
106 145 0
107 146 0
112 149 0
105 145 0
110 148 0
107 146 0
105 145 0
108 147 0
110 147 0
108 147 0
108 147 0
106 145 0
104 144 0
110 148 0
108 146 0
112 149 0
109 147 0
109 147 0
107 146 0
105 145 0
109 147 0
107 146 0
106 145 0
107 146 0
111 149 0
109 147 0
107 146 0
109 147 0
107 146 0
107 146 0
107 146 0
108 147 0
112 149 0
105 145 0
107 146 0
108 147 0
107 146 0
111 148 0
106 145 0
114 150 0
114 150 0
109 147 0
111 149 0
107 146 0
110 148 0
106 145 0
105 145 0
108 147 0
108 146 0
108 147 0
112 149 0
106 146 0
110 148 0
106 145 0
111 148 0
107 146 0
108 147 0
108 146 0
109 147 0
108 147 0
109 147 0
110 148 0
108 146 0
107 146 0
112 149 0
108 147 0
110 148 0
109 147 0
108 146 0
107 146 0
105 145 0
105 145 0
115 150 0
111 149 0
110 148 0
107 146 0
109 147 0
105 145 0
109 147 0
108 146 0
112 149 0
108 146 0
111 148 0
110 148 0
105 145 0
105 145 0
111 148 0
109 147 0
110 148 0
108 147 0
111 148 0
110 148 0
106 145 0
109 147 0
106 145 0
112 149 0
113 149 0
107 146 0
106 146 0
113 149 0
110 148 0
107 146 0
111 149 0
109 147 0
106 145 0
104 144 0
108 147 0
107 146 0
110 148 0
110 148 0
109 147 0
110 148 0
107 146 0
108 147 0
108 147 0
114 150 0
105 145 0
112 149 0
110 148 0
109 147 0
112 149 0
107 146 0
106 145 0
107 146 0
109 147 0
109 147 0
111 148 0
109 147 0
115 150 0
106 145 0
109 147 0
109 147 0
111 148 0
109 147 0
110 147 0
108 146 0
106 145 0
106 145 0
106 145 0
107 146 0
106 145 0
107 146 0
110 148 0
114 150 0
108 147 0
108 147 0
111 148 0
108 146 0
107 146 0
113 149 0
109 147 0
106 146 0
109 147 0
105 145 0
110 148 0
106 145 0
110 148 0
105 145 0
105 145 0
109 147 0
108 146 0
111 149 0
109 147 0
108 147 0
105 145 0
109 147 0
112 149 0
105 145 0
110 148 0
107 146 0
110 148 0
112 149 0
108 147 0
112 149 0
107 146 0
108 147 0
104 144 0
104 144 0
105 145 0
107 146 0
106 145 0
106 145 0
106 145 0
106 145 0
103 144 0
107 146 0
105 145 0
106 145 0
106 146 0
108 146 0
107 146 0
107 146 0
105 145 0
108 147 0
105 145 0
106 146 0
111 148 0
106 145 0
108 147 0
106 145 0
110 148 0
106 145 0
104 144 0
109 147 0
111 149 0
108 147 0
112 149 0
105 144 0
111 148 0
106 145 0
109 147 0
105 144 0
105 145 0
107 146 0
110 147 0
109 147 0
110 148 0
107 146 0
105 145 0
108 147 0
105 145 0
109 147 0
111 148 0
112 149 0
108 147 0
110 148 0
108 146 0
107 146 0
106 145 0
106 145 0
105 145 0
103 144 0
109 147 0
113 150 0
111 148 0
105 145 0
107 146 0
106 146 0
109 147 0
110 147 0
108 147 0
107 146 0
107 146 0
105 144 0
107 146 0
109 147 0
109 147 0
107 146 0
106 146 0
108 146 0
106 145 0
108 146 0
106 145 0
110 148 0
107 146 0
109 147 0
103 144 0
105 145 0
108 147 0
106 145 0
107 146 0
107 146 0
104 144 0
107 146 0
108 147 0
110 148 0
108 147 0
104 144 0
111 149 0
111 148 0
107 146 0
107 146 0
107 146 0
107 146 0
104 144 0
106 145 0
110 148 0
106 146 0
105 145 0
104 144 0
110 148 0
108 146 0
104 144 0
107 146 0
108 147 0
109 147 0
105 145 0
104 144 0
105 145 0
103 144 0
107 146 0
114 150 0
110 148 0
111 148 0
107 146 0
107 146 0
113 150 0
109 147 0
108 147 0
107 146 0
107 146 0
107 146 0
105 145 0
110 148 0
110 148 0
109 147 0
107 146 0
106 145 0
107 146 0
112 149 0
107 146 0
105 145 0
105 145 0
107 146 0
106 146 0
106 146 0
109 147 0
109 147 0
108 146 0
107 146 0
106 145 0
107 146 0
109 147 0
105 145 0
109 147 0
107 146 0
108 146 0
108 146 0
111 148 0
107 146 0
109 147 0
107 146 0
108 146 0
108 147 0
108 147 0
104 144 0
107 146 0
106 145 0
108 147 0
107 146 0
108 146 0
105 144 0
109 147 0
107 146 0
104 144 0
112 149 0
109 147 0
108 146 0
107 146 0
108 146 0
111 148 0
105 145 0
110 148 0
106 145 0
111 148 0
104 144 0
110 148 0
106 145 0
109 147 0
110 148 0
108 147 0
107 146 0
105 145 0
109 147 0
107 146 0
109 147 0
110 148 0
113 150 0
105 145 0
107 146 0
111 149 0
108 146 0
106 146 0
108 147 0
105 145 0
108 146 0
106 145 0
110 148 0
107 146 0
110 148 0
109 147 0
106 145 0
109 147 0
111 149 0
108 147 0
108 146 0
107 146 0
111 148 0
108 147 0
106 145 0
112 149 0
107 146 0
109 147 0
106 146 0
105 145 0
108 146 0
105 145 0
111 148 0
108 146 0
107 146 0
108 146 0
110 147 0
106 146 0
107 146 0
107 146 0
107 146 0
109 147 0
110 148 0
107 146 0
109 147 0
105 145 0
104 144 0
109 147 0
109 147 0
106 146 0
107 146 0
107 146 0
107 146 0
111 148 0
105 145 0
111 148 0
106 145 0
107 146 0
111 148 0
110 148 0
106 145 0
108 147 0
109 147 0
109 147 0
110 148 0
108 146 0
110 148 0
106 146 0
108 147 0
110 148 0
106 145 0
106 145 0
106 145 0
111 149 0
113 150 0
108 147 0
106 146 0
104 144 0
109 147 0
109 147 0
106 146 0
110 148 0
109 147 0
107 146 0
115 150 0
108 146 0
107 146 0
109 147 0
112 149 0
109 147 0
108 146 0
107 146 0
109 147 0
110 147 0
107 146 0
110 148 0
112 149 0
103 144 0
109 147 0
108 147 0
109 147 0
106 146 0
109 147 0
106 146 0
107 146 0
110 147 0
106 146 0
114 150 0
104 144 0
110 148 0
113 149 0
108 147 0
105 145 0
108 147 0
107 146 0
110 148 0
106 145 0
107 146 0
111 148 0
110 148 0
107 146 0
111 148 0
107 146 0
106 145 0
108 147 0
113 150 0
106 145 0
113 149 0
107 146 0
112 149 0
109 147 0
105 145 0
108 147 0
108 147 0
106 145 0
107 146 0
106 145 0
109 147 0
107 146 0
107 146 0
108 147 0
110 148 0
102 143 0
109 147 0
109 147 0
104 144 0
109 147 0
106 145 0
107 146 0
104 144 0
114 150 0
105 145 0
109 147 0
109 147 0
111 148 0
110 148 0
111 148 0
111 148 0
108 147 0
109 147 0
109 147 0
114 150 0
106 145 0
111 148 0
112 149 0
108 147 0
108 147 0
106 145 0
108 146 0
110 148 0
111 148 0
104 144 0
103 143 0
108 147 0
107 146 0
107 146 0
106 145 0
109 147 0
107 146 0
108 146 0
105 145 0
113 149 0
103 144 0
110 148 0
106 145 0
106 145 0
109 147 0
106 145 0
110 148 0
110 148 0
105 144 0
105 145 0
108 146 0
108 147 0
107 146 0
112 149 0
109 147 0
108 147 0
109 147 0
110 148 0
114 150 0
112 149 0
107 146 0
107 146 0
108 146 0
107 146 0
109 147 0
103 144 0
111 149 0
111 148 0
106 146 0
109 147 0
110 148 0
110 148 0
107 146 0
109 147 0
110 148 0
112 149 0
105 145 0
107 146 0
109 147 0
107 146 0
106 145 0
105 145 0
111 149 0
109 147 0
110 148 0
107 146 0
105 145 0
106 145 0
111 148 0
105 145 0
108 147 0
108 146 0
106 146 0
107 146 0
109 147 0
106 145 0
108 147 0
109 147 0
104 144 0
107 146 0
108 147 0
109 147 0
111 148 0
112 149 0
108 146 0
110 147 0
107 146 0
109 147 0
112 149 0
107 146 0
110 148 0
105 145 0
107 146 0
107 146 0
105 145 0
110 148 0
107 146 0
110 148 0
109 147 0
106 145 0
106 145 0
105 144 0
108 146 0
109 147 0
105 145 0
106 146 0
107 146 0
106 145 0
106 145 0
108 146 0
110 148 0
107 146 0
107 146 0
112 149 0
106 145 0
109 147 0
110 148 0
108 146 0
109 147 0
110 147 0
108 147 0
106 145 0
109 147 0
107 146 0
107 146 0
106 146 0
108 147 0
108 147 0
110 148 0
107 146 0
109 147 0
113 149 0
107 146 0
110 148 0
107 146 0
105 144 0
109 147 0
107 146 0
106 145 0
110 148 0
107 146 0
107 146 0
108 146 0
107 146 0
104 144 0
107 146 0
107 146 0
107 146 0
108 147 0
109 147 0
107 146 0
108 146 0
110 148 0
110 148 0
104 144 0
108 146 0
111 148 0
105 145 0
104 144 0
109 147 0
107 146 0
107 146 0
110 148 0
103 143 0
107 146 0
111 148 0
108 146 0
105 144 0
105 145 0
107 146 0
108 146 0
107 146 0
108 147 0
107 146 0
109 147 0
107 146 0
108 146 0
108 146 0
107 146 0
107 146 0
106 145 0
112 149 0
106 145 0
109 147 0
105 145 0
109 147 0
109 147 0
108 146 0
108 147 0
105 145 0
107 146 0
106 145 0
110 148 0
108 146 0
110 148 0
109 147 0
108 147 0
112 149 0
108 147 0
106 145 0
104 144 0
108 147 0
108 146 0
107 146 0
110 148 0
106 145 0
107 146 0
108 147 0
106 145 0
114 150 0
106 145 0
106 146 0
105 145 0
110 148 0
104 144 0
112 149 0
104 144 0
111 148 0
108 147 0
108 146 0
109 147 0
110 148 0
105 144 0
106 145 0
109 147 0
108 147 0
108 146 0
107 146 0
110 148 0
111 148 0
112 149 0
112 149 0
108 147 0
108 146 0
112 149 0
107 146 0
110 147 0
108 147 0
104 144 0
106 145 0
108 147 0
107 146 0
107 146 0
110 148 0
112 149 0
109 147 0
110 147 0
108 146 0
111 148 0
106 146 0
107 146 0
107 146 0
107 146 0
105 145 0
114 150 0
108 147 0
106 145 0
107 146 0
105 145 0
110 147 0
107 146 0
105 144 0
109 147 0
105 145 0
105 145 0
111 148 0
112 149 0
110 148 0
106 145 0
111 149 0
107 146 0
110 148 0
110 148 0
106 145 0
107 146 0
109 147 0
108 147 0
110 147 0
110 148 0
107 146 0
104 144 0
106 146 0
106 145 0
109 147 0
110 148 0
105 145 0
106 145 0
109 147 0
108 146 0
106 145 0
107 146 0
108 146 0
111 148 0
105 145 0
111 148 0
109 147 0
105 145 0
106 145 0
108 147 0
105 145 0
105 145 0
110 148 0
107 146 0
111 148 0
108 146 0
106 145 0
112 149 0
109 147 0
110 147 0
110 148 0
105 144 0
109 147 0
106 145 0
107 146 0
107 146 0
106 146 0
110 148 0
111 148 0
107 146 0
108 146 0
105 145 0
108 147 0
107 146 0
105 145 0
110 148 0
108 146 0
110 148 0
104 144 0
108 146 0
108 146 0
108 146 0
105 145 0
111 148 0
109 147 0
108 146 0
110 147 0
104 144 0
106 145 0
107 146 0
104 144 0
110 147 0
108 146 0
110 148 0
108 147 0
109 147 0
113 149 0
109 147 0
109 147 0
107 146 0
108 146 0
107 146 0
111 148 0
108 147 0
111 148 0
105 145 0
108 146 0
108 146 0
112 149 0
108 147 0
112 149 0
105 145 0
106 145 0
107 146 0
107 146 0
106 145 0
111 148 0
107 146 0
108 146 0
106 145 0
107 146 0
106 146 0
109 147 0
108 147 0
109 147 0
110 148 0
106 145 0
112 149 0
108 146 0
112 149 0
108 147 0
110 148 0
110 148 0
109 147 0
105 145 0
105 144 0
107 146 0
111 148 0
108 147 0
108 146 0
108 146 0
105 145 0
107 146 0
108 146 0
107 146 0
104 144 0
107 146 0
110 148 0
107 146 0
109 147 0
105 145 0
109 147 0
106 145 0
107 146 0
110 148 0
109 147 0
110 147 0
106 145 0
107 146 0
108 147 0
105 145 0
106 145 0
110 148 0
107 146 0
111 148 0
107 146 0
109 147 0
107 146 0
108 146 0
113 149 0
106 145 0
108 147 0
108 146 0
110 147 0
107 146 0
104 144 0
109 147 0
107 146 0
106 145 0
109 147 0
112 149 0
118 153 0
106 146 0
112 149 0
112 149 0
112 149 0
113 149 0
109 147 0
109 147 0
111 149 0
110 148 0
107 146 0
106 145 0
109 147 0
106 145 0
109 147 0
107 146 0
109 147 0
106 145 0
108 146 0
111 148 0
106 145 0
106 145 0
111 148 0
111 148 0
109 147 0
104 144 0
107 146 0
108 147 0
106 146 0
112 149 0
107 146 0
108 147 0
105 145 0
110 148 0
105 145 0
110 147 0
109 147 0
103 144 0
104 144 0
108 147 0
109 147 0
105 144 0
109 147 0
106 146 0
110 148 0
109 147 0
106 145 0
109 147 0
108 146 0
104 144 0
105 145 0
105 145 0
107 146 0
107 146 0
106 145 0
109 147 0
109 147 0
108 147 0
106 145 0
107 146 0
107 146 0
109 147 0
109 147 0
108 147 0
108 146 0
106 145 0
106 145 0
108 146 0
110 148 0
107 146 0
108 146 0
110 148 0
110 148 0
107 146 0
112 149 0
107 146 0
104 144 0
108 147 0
107 146 0
109 147 0
107 146 0
105 145 0
110 148 0
107 146 0
107 146 0
110 148 0
108 147 0
107 146 0
108 146 0
109 147 0
107 146 0
111 148 0
105 145 0
107 146 0
106 145 0
105 145 0
107 146 0
110 148 0
107 146 0
108 146 0
105 145 0
109 147 0
108 146 0
107 146 0
109 147 0
109 147 0
109 147 0
107 146 0
108 147 0
107 146 0
109 147 0
107 146 0
106 145 0
108 146 0
106 145 0
111 148 0
111 148 0
109 147 0
109 147 0
107 146 0
103 144 0
106 145 0
106 146 0
114 150 0
108 146 0
108 147 0
107 146 0
109 147 0
109 147 0
108 147 0
107 146 0
114 150 0
107 146 0
109 147 0
111 148 0
108 147 0
107 146 0
109 147 0
108 146 0
109 147 0
112 149 0
107 146 0
110 147 0
108 146 0
107 146 0
104 144 0
111 148 0
107 146 0
107 146 0
110 148 0
108 146 0
112 149 0
106 145 0
107 146 0
110 148 0
105 145 0
109 147 0
109 147 0
109 147 0
110 148 0
106 145 0
108 147 0
110 147 0
108 146 0
110 148 0
108 147 0
110 148 0
109 147 0
109 147 0
105 144 0
109 147 0
109 147 0
109 147 0
111 148 0
106 145 0
105 145 0
105 145 0
108 146 0
110 148 0
110 148 0
106 145 0
108 147 0
108 147 0
106 146 0
106 145 0
108 146 0
106 145 0
105 145 0
110 148 0
106 145 0
111 149 0
111 148 0
105 145 0
107 146 0
106 146 0
106 145 0
110 148 0
107 146 0
109 147 0
106 146 0
108 146 0
110 148 0
112 149 0
106 145 0
108 147 0
108 147 0
109 147 0
103 143 0
110 148 0
109 147 0
107 146 0
109 147 0
107 146 0
108 146 0
110 147 0
109 147 0
109 147 0
107 146 0
114 150 0
105 145 0
111 148 0
105 144 0
115 151 0
111 148 0
107 146 0
107 146 0
109 147 0
107 146 0
110 148 0
111 148 0
107 146 0
106 145 0
107 146 0
111 148 0
112 149 0
111 148 0
105 144 0
111 149 0
109 147 0
105 145 0
107 146 0
111 148 0
106 146 0
103 144 0
105 145 0
108 147 0
106 145 0
105 145 0
109 147 0
112 149 0
109 147 0
105 145 0
110 147 0
108 147 0
109 147 0
104 144 0
106 145 0
108 147 0
109 147 0
110 148 0
107 146 0
108 147 0
107 146 0
106 145 0
108 146 0
107 146 0
105 145 0
110 147 0
111 148 0
107 146 0
107 146 0
108 146 0
110 148 0
106 145 0
108 147 0
109 147 0
111 148 0
106 146 0
108 147 0
108 146 0
110 148 0
105 145 0
106 146 0
112 149 0
105 145 0
108 146 0
109 147 0
109 147 0
104 144 0
109 147 0
106 145 0
110 148 0
106 145 0
110 148 0
106 145 0
111 148 0
107 146 0
109 147 0
110 148 0
107 146 0
111 148 0
109 147 0
109 147 0
110 148 0
109 147 0
108 146 0
114 150 0
111 148 0
108 147 0
107 146 0
108 147 0
106 145 0
110 148 0
106 145 0
104 144 0
109 147 0
107 146 0
108 147 0
106 145 0
112 149 0
110 148 0
110 148 0
109 147 0
106 145 0
108 146 0
109 147 0
106 146 0
108 146 0
108 146 0
110 148 0
108 147 0
110 148 0
107 146 0
108 147 0
107 146 0
109 147 0
104 144 0
106 145 0
108 147 0
104 144 0
106 145 0
109 147 0
109 147 0
107 146 0
108 146 0
113 149 0
113 149 0
111 148 0
111 148 0
111 149 0
109 147 0
106 145 0
109 147 0
113 150 0
106 145 0
105 145 0
107 146 0
107 146 0
106 145 0
104 144 0
107 146 0
107 146 0
106 145 0
110 148 0
109 147 0
107 146 0
109 147 0
109 147 0
109 147 0
104 144 0
106 145 0
108 146 0
109 147 0
108 147 0
108 147 0
111 148 0
110 148 0
106 145 0
105 145 0
107 146 0
108 147 0
106 145 0
109 147 0
107 146 0
114 150 0
109 147 0
110 148 0
111 148 0
108 146 0
110 148 0
108 147 0
111 148 0
109 147 0
109 147 0
109 147 0
114 150 0
108 146 0
112 149 0
105 145 0
106 145 0
104 144 0
110 148 0
112 149 0
106 145 0
106 146 0
105 145 0
111 148 0
107 146 0
108 146 0
107 146 0
111 148 0
109 147 0
107 146 0
111 148 0
110 148 0
111 148 0
109 147 0
110 148 0
107 146 0
109 147 0
109 147 0
113 150 0
115 151 0
109 147 0
113 150 0
108 146 0
108 147 0
108 146 0
105 145 0
104 144 0
107 146 0
109 147 0
107 146 0
107 146 0
105 145 0
106 145 0
109 147 0
110 148 0
108 146 0
106 145 0
107 146 0
108 147 0
106 145 0
106 146 0
104 144 0
107 146 0
106 146 0
109 147 0
106 145 0
107 146 0
106 145 0
108 147 0
107 146 0
109 147 0
110 147 0
106 145 0
109 147 0
110 147 0
109 147 0
114 150 0
106 145 0
109 147 0
106 145 0
111 148 0
105 145 0
108 146 0
105 145 0
109 147 0
107 146 0
114 150 0
108 146 0
109 147 0
110 148 0
110 148 0
107 146 0
111 148 0
108 146 0
107 146 0
109 147 0
106 146 0
106 146 0
106 145 0
108 147 0
109 147 0
105 145 0
106 146 0
111 148 0
107 146 0
107 146 0
113 149 0
110 148 0
107 146 0
110 148 0
110 148 0
110 148 0
106 145 0
107 146 0
112 149 0
106 145 0
105 145 0
112 149 0
110 148 0
107 146 0
111 148 0
107 146 0
106 145 0
105 145 0
109 147 0
108 147 0
111 148 0
107 146 0
110 148 0
105 145 0
105 145 0
106 145 0
110 147 0
108 146 0
109 147 0
110 148 0
105 145 0
107 146 0
108 147 0
105 145 0
107 146 0
107 146 0
109 147 0
108 147 0
108 146 0
108 147 0
110 148 0
108 146 0
106 145 0
110 147 0
111 148 0
109 147 0
111 148 0
109 147 0
109 147 0
108 147 0
108 147 0
110 148 0
111 148 0
108 146 0
108 146 0
110 148 0
106 145 0
106 145 0
110 148 0
109 147 0
109 147 0
107 146 0
111 148 0
106 145 0
106 145 0
106 145 0
105 145 0
111 148 0
109 147 0
106 145 0
107 146 0
110 148 0
105 145 0
108 146 0
113 150 0
109 147 0
106 146 0
107 146 0
106 145 0
112 149 0
104 144 0
105 145 0
107 146 0
107 146 0
108 146 0
105 145 0
106 145 0
110 148 0
109 147 0
103 144 0
106 145 0
109 147 0
107 146 0
108 147 0
104 144 0
106 145 0
109 147 0
107 146 0
108 146 0
107 146 0
107 146 0
110 148 0
111 148 0
105 145 0
110 148 0
105 144 0
105 145 0
108 146 0
113 150 0
107 146 0
107 146 0
106 145 0
106 146 0
109 147 0
109 147 0
105 145 0
104 144 0
105 145 0
109 147 0
108 147 0
107 146 0
106 146 0
109 147 0
112 149 0
108 147 0
108 146 0
109 147 0
110 147 0
113 150 0
109 147 0
108 146 0
106 145 0
108 147 0
107 146 0
108 146 0
112 149 0
107 146 0
106 146 0
106 145 0
105 145 0
112 149 0
109 147 0
107 146 0
106 146 0
107 146 0
105 144 0
107 146 0
105 145 0
109 147 0
108 147 0
108 147 0
106 146 0
110 148 0
110 148 0
106 145 0
105 145 0
110 148 0
110 148 0
103 144 0
107 146 0
109 147 0
108 146 0
109 147 0
108 146 0
112 149 0
112 149 0
106 145 0
109 147 0
109 147 0
107 146 0
106 146 0
106 145 0
111 148 0
104 144 0
112 149 0
109 147 0
105 145 0
106 145 0
110 148 0
107 146 0
109 147 0
107 146 0
111 148 0
108 146 0
114 150 0
112 149 0
106 145 0
107 146 0
108 146 0
112 149 0
109 147 0
114 150 0
109 147 0
108 147 0
104 144 0
109 147 0
104 144 0
107 146 0
108 146 0
109 147 0
109 147 0
108 147 0
111 148 0
112 149 0
110 148 0
109 147 0
105 145 0
111 148 0
107 146 0
109 147 0
108 147 0
106 145 0
107 146 0
107 146 0
111 148 0
110 148 0
108 146 0
112 149 0
111 149 0
110 148 0
108 147 0
106 146 0
111 148 0
107 146 0
106 145 0
107 146 0
106 145 0
110 148 0
106 145 0
106 145 0
107 146 0
107 146 0
108 147 0
111 149 0
105 145 0
106 145 0
103 144 0
109 147 0
109 147 0
107 146 0
111 148 0
112 149 0
111 148 0
112 149 0
107 146 0
110 148 0
116 151 0
110 148 0
109 147 0
111 149 0
107 146 0
109 147 0
106 145 0
112 149 0
110 148 0
111 148 0
106 145 0
111 148 0
108 147 0
112 149 0
105 145 0
106 145 0
107 146 0
111 148 0
108 146 0
109 147 0
106 145 0
109 147 0
107 146 0
108 146 0
108 147 0
104 144 0
105 145 0
111 148 0
110 148 0
108 147 0
108 146 0
109 147 0
107 146 0
109 147 0
113 149 0
106 145 0
111 148 0
104 144 0
110 148 0
109 147 0
107 146 0
106 145 0
110 148 0
106 146 0
105 145 0
107 146 0
109 147 0
105 145 0
115 151 0
108 146 0
108 147 0
107 146 0
110 148 0
110 148 0
109 147 0
107 146 0
107 146 0
111 148 0
111 148 0
115 151 0
105 145 0
105 145 0
107 146 0
105 145 0
106 145 0
104 144 0
107 146 0
107 146 0
110 148 0
107 146 0
110 147 0
115 151 0
109 147 0
109 147 0
108 147 0
108 147 0
109 147 0
114 150 0
112 149 0
108 146 0
107 146 0
107 146 0
106 145 0
109 147 0
106 146 0
106 145 0
106 146 0
108 147 0
110 147 0
106 145 0
111 149 0
105 145 0
106 146 0
106 145 0
108 147 0
109 147 0
105 145 0
107 146 0
105 145 0
108 147 0
108 146 0
108 147 0
109 147 0
109 147 0
107 146 0
113 149 0
111 148 0
106 145 0
107 146 0
107 146 0
110 148 0
107 146 0
109 147 0
107 146 0
107 146 0
110 148 0
111 148 0
105 145 0
108 147 0
111 148 0
112 149 0
106 145 0
109 147 0
105 145 0
108 147 0
107 146 0
106 145 0
106 145 0
108 146 0
110 148 0
105 145 0
108 146 0
109 147 0
107 146 0
109 147 0
108 147 0
106 145 0
108 146 0
107 146 0
108 146 0
110 148 0
110 148 0
111 148 0
109 147 0
105 145 0
106 146 0
113 150 0
108 146 0
109 147 0
109 147 0
109 147 0
109 147 0
105 145 0
107 146 0
106 145 0
109 147 0
108 146 0
106 145 0
108 147 0
107 146 0
106 145 0
105 145 0
110 147 0
106 145 0
108 146 0
111 148 0
106 146 0
109 147 0
105 145 0
105 145 0
110 148 0
106 145 0
109 147 0
109 147 0
105 145 0
111 148 0
107 146 0
108 147 0
105 145 0
106 145 0
108 147 0
109 147 0
108 147 0
106 145 0
109 147 0
105 145 0
106 145 0
105 144 0
105 145 0
107 146 0
105 145 0
105 145 0
111 148 0
106 146 0
110 148 0
103 144 0
109 147 0
107 146 0
108 147 0
111 148 0
108 147 0
108 147 0
105 145 0
112 149 0
104 144 0
110 148 0
104 144 0
107 146 0
110 148 0
104 144 0
107 146 0
109 147 0
114 150 0
110 148 0
109 147 0
112 149 0
107 146 0
109 147 0
105 144 0
105 145 0
106 145 0
106 145 0
106 145 0
108 146 0
105 145 0
108 147 0
106 145 0
108 147 0
105 145 0
109 147 0
107 146 0
106 145 0
107 146 0
111 148 0
108 147 0
111 149 0
104 144 0
111 148 0
107 146 0
107 146 0
106 146 0
109 147 0
106 145 0
110 148 0
111 148 0
108 147 0
109 147 0
106 146 0
106 145 0
107 146 0
105 145 0
110 147 0
107 146 0
104 144 0
108 146 0
105 145 0
110 148 0
105 145 0
107 146 0
112 149 0
110 148 0
105 145 0
110 148 0
110 148 0
110 148 0
107 146 0
107 146 0
106 145 0
105 145 0
108 147 0
104 144 0
110 147 0
111 148 0
108 147 0
108 146 0
114 150 0
113 149 0
104 144 0
108 146 0
106 145 0
105 145 0
106 145 0
108 147 0
110 148 0
107 146 0
107 146 0
107 146 0
109 147 0
110 148 0
114 150 0
106 145 0
109 147 0
106 146 0
109 147 0
108 147 0
112 149 0
113 150 0
108 147 0
106 145 0
104 144 0
104 144 0
106 145 0
105 145 0
113 149 0
106 145 0
108 146 0
105 145 0
107 146 0
114 150 0
107 146 0
105 145 0
106 145 0
105 145 0
106 145 0
107 146 0
111 148 0
107 146 0
113 150 0
108 147 0
107 146 0
108 146 0
105 145 0
109 147 0
108 146 0
106 146 0
110 148 0
107 146 0
112 149 0
110 148 0
108 146 0
109 147 0
109 147 0
110 147 0
109 147 0
113 149 0
107 146 0
107 146 0
110 148 0
105 145 0
107 146 0
108 146 0
107 146 0
109 147 0
109 147 0
111 148 0
107 146 0
106 145 0
112 149 0
113 149 0
109 147 0
109 147 0
112 149 0
108 147 0
107 146 0
107 146 0
108 146 0
111 149 0
110 148 0
110 148 0
108 146 0
105 145 0
104 144 0
112 149 0
106 146 0
106 145 0
104 144 0
107 146 0
108 146 0
108 147 0
107 146 0
107 146 0
105 145 0
113 149 0
109 147 0
108 146 0
110 148 0
109 147 0
110 148 0
104 144 0
109 147 0
110 148 0
106 145 0
107 146 0
108 147 0
113 149 0
111 148 0
110 148 0
105 145 0
108 146 0
107 146 0
105 145 0
110 148 0
109 147 0
109 147 0
111 148 0
105 145 0
104 144 0
108 147 0
113 149 0
108 146 0
112 149 0
113 150 0
109 147 0
112 149 0
110 148 0
108 147 0
109 147 0
111 148 0
107 146 0
109 147 0
108 147 0
105 145 0
104 144 0
109 147 0
105 145 0
110 148 0
107 146 0
105 145 0
105 145 0
109 147 0
110 147 0
107 146 0
114 150 0
108 146 0
107 146 0
109 147 0
112 149 0
108 146 0
108 147 0
114 150 0
107 146 0
108 147 0
109 147 0
105 145 0
109 147 0
113 149 0
106 146 0
105 145 0
111 149 0
112 149 0
106 146 0
105 145 0
109 147 0
109 147 0
110 148 0
108 147 0
110 148 0
110 148 0
111 148 0
107 146 0
107 146 0
111 148 0
108 146 0
108 146 0
106 145 0
108 147 0
106 145 0
108 147 0
108 146 0
112 149 0
109 147 0
110 148 0
113 150 0
108 146 0
110 148 0
110 148 0
108 147 0
107 146 0
107 146 0
110 148 0
108 146 0
106 145 0
109 147 0
109 147 0
107 146 0
110 148 0
107 146 0
105 145 0
106 145 0
114 150 0
107 146 0
107 146 0
109 147 0
109 147 0
109 147 0
108 146 0
112 149 0
111 148 0
110 148 0
110 148 0
105 145 0
105 145 0
107 146 0
109 147 0
105 144 0
106 145 0
111 148 0
108 146 0
108 147 0
105 145 0
104 144 0
106 146 0
108 146 0
110 148 0
112 149 0
106 145 0
105 145 0
109 147 0
109 147 0
111 148 0
108 146 0
109 147 0
108 146 0
112 149 0
104 144 0
108 147 0
112 149 0
104 144 0
106 145 0
107 146 0
106 145 0
107 146 0
107 146 0
106 145 0
104 144 0
111 148 0
109 147 0
107 146 0
106 145 0
109 147 0
109 147 0
105 145 0
108 146 0
108 147 0
108 146 0
111 148 0
109 147 0
109 147 0
111 148 0
109 147 0
106 146 0
108 147 0
108 146 0
105 145 0
111 148 0
108 147 0
104 144 0
107 146 0
108 146 0
107 146 0
109 147 0
105 145 0
107 146 0
108 146 0
107 146 0
107 146 0
106 145 0
107 146 0
107 146 0
105 145 0
109 147 0
107 146 0
110 148 0
108 147 0
107 146 0
113 149 0
106 145 0
105 145 0
112 149 0
110 148 0
104 144 0
106 145 0
109 147 0
108 147 0
109 147 0
106 145 0
111 148 0
108 147 0
107 146 0
108 147 0
109 147 0
107 146 0
104 144 0
109 147 0
111 149 0
109 147 0
110 148 0
105 145 0
106 145 0
110 148 0
106 145 0
111 148 0
107 146 0
106 145 0
106 145 0
111 148 0
109 147 0
110 148 0
104 144 0
108 147 0
104 144 0
106 145 0
107 146 0
113 150 0
107 146 0
103 144 0
109 147 0
111 148 0
112 149 0
109 147 0
108 147 0
110 148 0
108 147 0
105 145 0
111 148 0
111 148 0
112 149 0
110 148 0
109 147 0
109 147 0
107 146 0
107 146 0
110 148 0
107 146 0
108 146 0
109 147 0
109 147 0
110 148 0
108 147 0
108 146 0
110 148 0
107 146 0
107 146 0
109 147 0
109 147 0
105 144 0
110 147 0
106 145 0
109 147 0
108 147 0
113 150 0
110 148 0
106 145 0
109 147 0
107 146 0
111 148 0
106 145 0
107 146 0
108 146 0
108 146 0
109 147 0
108 146 0
106 145 0
110 148 0
107 146 0
112 149 0
108 147 0
108 146 0
109 147 0
107 146 0
109 147 0
111 148 0
106 145 0
110 148 0
108 147 0
105 145 0
108 146 0
108 146 0
105 145 0
110 147 0
105 145 0
111 148 0
107 146 0
108 147 0
107 146 0
111 149 0
107 146 0
103 144 0
111 148 0
109 147 0
109 147 0
107 146 0
105 145 0
106 145 0
107 146 0
105 145 0
108 147 0
109 147 0
110 147 0
106 146 0
106 145 0
114 150 0
106 145 0
110 147 0
109 147 0
111 149 0
109 147 0
108 147 0
106 145 0
109 147 0
108 146 0
108 146 0
108 147 0
107 146 0
108 147 0
106 145 0
111 148 0
111 148 0
107 146 0
109 147 0
109 147 0
109 147 0
107 146 0
108 146 0
110 148 0
107 146 0
107 146 0
112 149 0
108 146 0
114 150 0
110 148 0
109 147 0
112 149 0
108 146 0
107 146 0
106 145 0
109 147 0
107 146 0
110 148 0
108 147 0
105 145 0
104 144 0
107 146 0
107 146 0
109 147 0
106 145 0
107 146 0
110 148 0
107 146 0
110 147 0
110 148 0
105 145 0
109 147 0
105 145 0
107 146 0
108 146 0
113 150 0
111 148 0
107 146 0
106 145 0
110 148 0
106 145 0
107 146 0
107 146 0
104 144 0
107 146 0
108 146 0
106 145 0
106 145 0
110 148 0
105 145 0
109 147 0
109 147 0
105 144 0
107 146 0
110 147 0
107 146 0
109 147 0
108 147 0
112 149 0
108 146 0
108 147 0
111 148 0
108 147 0
109 147 0
111 148 0
108 147 0
112 149 0
105 145 0
112 149 0
108 147 0
108 146 0
109 147 0
112 149 0
106 145 0
109 147 0
104 144 0
106 145 0
110 147 0
111 148 0
109 147 0
109 147 0
115 151 0
108 147 0
106 145 0
107 146 0
110 148 0
103 144 0
109 147 0
108 146 0
111 148 0
109 147 0
108 146 0
106 145 0
111 148 0
109 147 0
105 145 0
111 149 0
108 146 0
110 148 0
104 144 0
111 149 0
108 146 0
108 146 0
106 145 0
110 148 0
109 147 0
104 144 0
109 147 0
105 145 0
109 147 0
109 147 0
107 146 0
106 146 0
109 147 0
111 149 0
108 147 0
107 146 0
106 145 0
109 147 0
111 148 0
110 148 0
107 146 0
110 148 0
108 146 0
106 145 0
110 148 0
106 146 0
106 145 0
108 146 0
104 144 0
108 146 0
111 149 0
104 144 0
107 146 0
104 144 0
111 148 0
112 149 0
109 147 0
107 146 0
110 148 0
105 145 0
108 146 0
106 145 0
109 147 0
109 147 0
111 148 0
110 148 0
107 146 0
111 148 0
111 148 0
105 145 0
106 146 0
106 145 0
112 149 0
110 147 0
108 147 0
108 146 0
107 146 0
104 144 0
103 143 0
105 144 0
107 146 0
109 147 0
105 145 0
110 148 0
108 146 0
106 145 0
107 146 0
110 148 0
109 147 0
109 147 0
105 145 0
107 146 0
106 145 0
109 147 0
111 148 0
105 145 0
108 146 0
106 145 0
106 146 0
108 146 0
113 149 0
108 147 0
111 149 0
109 147 0
111 148 0
107 146 0
109 147 0
105 144 0
109 147 0
105 145 0
105 144 0
109 147 0
107 146 0
106 145 0
108 146 0
109 147 0
109 147 0
108 146 0
106 145 0
106 145 0
111 148 0
111 149 0
108 146 0
109 147 0
106 145 0
108 146 0
104 144 0
105 144 0
109 147 0
108 146 0
110 147 0
106 145 0
105 145 0
108 147 0
107 146 0
105 145 0
106 146 0
105 145 0
107 146 0
104 144 0
106 146 0
105 145 0
106 145 0
111 148 0
108 147 0
106 145 0
110 148 0
108 147 0
104 144 0
106 145 0
107 146 0
110 148 0
107 146 0
108 146 0
105 145 0
104 144 0
111 149 0
107 146 0
110 148 0
108 146 0
108 147 0
107 146 0
106 146 0
107 146 0
110 148 0
109 147 0
109 147 0
104 144 0
106 145 0
111 148 0
112 149 0
108 146 0
107 146 0
110 148 0
106 145 0
106 145 0
109 147 0
108 147 0
109 147 0
110 148 0
114 150 0
111 148 0
107 146 0
106 145 0
111 148 0
106 146 0
109 147 0
105 145 0
104 144 0
105 145 0
104 144 0
104 144 0
108 146 0
108 147 0
106 146 0
108 146 0
110 148 0
106 146 0
108 147 0
110 148 0
109 147 0
109 147 0
110 147 0
105 145 0
108 147 0
105 145 0
108 147 0
108 147 0
106 145 0
107 146 0
102 143 0
106 145 0
108 147 0
108 147 0
106 146 0
106 146 0
103 144 0
105 145 0
112 149 0
106 146 0
105 145 0
107 146 0
112 149 0
108 147 0
108 146 0
115 151 0
110 148 0
114 150 0
109 147 0
109 147 0
105 145 0
109 147 0
111 148 0
108 146 0
104 144 0
108 146 0
108 146 0
107 146 0
107 146 0
109 147 0
108 147 0
106 145 0
109 147 0
108 146 0
105 145 0
110 148 0
107 146 0
107 146 0
107 146 0
106 146 0
107 146 0
112 149 0
112 149 0
110 148 0
107 146 0
104 144 0
103 144 0
107 146 0
111 148 0
114 150 0
106 146 0
107 146 0
105 145 0
105 145 0
109 147 0
109 147 0
109 147 0
110 147 0
107 146 0
112 149 0
107 146 0
110 148 0
110 148 0
110 148 0
109 147 0
104 144 0
109 147 0
112 149 0
112 149 0
106 146 0
105 144 0
109 147 0
106 145 0
109 147 0
110 148 0
112 149 0
109 147 0
108 146 0
106 145 0
112 149 0
105 145 0
111 148 0
106 145 0
107 146 0
109 147 0
108 147 0
109 147 0
107 146 0
107 146 0
110 148 0
111 148 0
111 148 0
108 146 0
108 147 0
105 145 0
107 146 0
108 146 0
107 146 0
107 146 0
106 146 0
108 146 0
106 146 0
113 149 0
105 144 0
113 149 0
108 146 0
107 146 0
107 146 0
107 146 0
105 145 0
107 146 0
109 147 0
110 148 0
105 145 0
108 147 0
111 148 0
108 147 0
111 148 0
108 147 0
107 146 0
112 149 0
107 146 0
112 149 0
110 148 0
107 146 0
106 145 0
107 146 0
105 144 0
106 145 0
107 146 0
107 146 0
107 146 0
106 145 0
108 147 0
105 145 0
109 147 0
106 145 0
108 147 0
104 144 0
107 146 0
110 148 0
109 147 0
106 145 0
110 147 0
109 147 0
107 146 0
109 147 0
110 148 0
108 147 0
109 147 0
111 148 0
105 144 0
112 149 0
111 149 0
109 147 0
107 146 0
104 144 0
108 147 0
112 149 0
109 147 0
106 145 0
110 148 0
107 146 0
110 148 0
107 146 0
109 147 0
106 146 0
108 147 0
107 146 0
109 147 0
109 147 0
108 147 0
108 147 0
111 149 0
110 148 0
109 147 0
107 146 0
106 145 0
110 148 0
109 147 0
105 145 0
107 146 0
107 146 0
106 145 0
109 147 0
107 146 0
105 145 0
107 146 0
107 146 0
108 146 0
108 146 0
108 146 0
112 149 0
108 147 0
108 147 0
108 147 0
112 149 0
114 150 0
109 147 0
106 145 0
106 145 0
108 146 0
108 147 0
107 146 0
110 147 0
105 145 0
111 148 0
111 148 0
105 145 0
109 147 0
108 146 0
113 150 0
107 146 0
113 150 0
104 144 0
107 146 0
107 146 0
108 147 0
111 149 0
113 149 0
108 147 0
107 146 0
107 146 0
108 147 0
107 146 0
110 148 0
112 149 0
111 148 0
110 148 0
105 144 0
109 147 0
108 147 0
113 149 0
110 148 0
109 147 0
111 148 0
112 149 0
106 145 0
108 146 0
108 146 0
108 146 0
105 145 0
108 146 0
105 145 0
110 148 0
107 146 0
108 147 0
109 147 0
107 146 0
108 147 0
110 148 0
108 146 0
107 146 0
107 146 0
118 153 0
111 148 0
111 148 0
109 147 0
110 148 0
113 149 0
112 149 0
111 148 0
116 151 0
107 146 0
109 147 0
109 147 0
108 147 0
110 148 0
110 148 0
104 144 0
106 145 0
109 147 0
108 146 0
107 146 0
112 149 0
110 148 0
114 150 0
108 146 0
109 147 0
111 148 0
110 147 0
110 148 0
110 148 0
107 146 0
107 146 0
107 146 0
111 148 0
109 147 0
111 148 0
108 147 0
109 147 0
105 145 0
106 145 0
110 148 0
104 144 0
106 145 0
104 144 0
108 147 0
107 146 0
105 145 0
106 145 0
105 145 0
110 148 0
111 148 0
111 149 0
109 147 0
104 144 0
107 146 0
106 146 0
106 145 0
107 146 0
108 147 0
107 146 0
106 145 0
107 146 0
108 147 0
106 146 0
108 147 0
106 146 0
105 145 0
110 147 0
106 145 0
106 145 0
104 144 0
106 145 0
114 150 0
106 145 0
107 146 0
105 145 0
109 147 0
108 147 0
108 147 0
106 145 0
104 144 0
107 146 0
104 144 0
110 148 0
109 147 0
108 146 0
113 149 0
108 147 0
109 147 0
106 145 0
105 145 0
109 147 0
110 148 0
105 145 0
106 145 0
106 145 0
109 147 0
110 148 0
110 147 0
105 145 0
109 147 0
108 146 0
106 145 0
111 148 0
107 146 0
110 148 0
106 146 0
106 145 0
112 149 0
106 145 0
106 145 0
106 146 0
106 145 0
108 147 0
109 147 0
110 148 0
110 148 0
108 147 0
110 148 0
104 144 0
107 146 0
106 145 0
110 148 0
109 147 0
103 144 0
104 144 0
107 146 0
105 145 0
108 147 0
106 146 0
105 145 0
110 148 0
106 145 0
107 146 0
107 146 0
105 145 0
107 146 0
106 145 0
109 147 0
108 147 0
108 147 0
106 145 0
106 146 0
107 146 0
108 146 0
106 145 0
108 146 0
109 147 0
106 145 0
108 146 0
112 149 0
107 146 0
106 145 0
110 148 0
105 145 0
112 149 0
104 144 0
113 149 0
106 146 0
107 146 0
106 146 0
109 147 0
107 146 0
104 144 0
109 147 0
112 149 0
106 145 0
108 146 0
112 149 0
108 146 0
111 148 0
107 146 0
108 147 0
107 146 0
109 147 0
110 148 0
110 148 0
111 148 0
105 145 0
110 148 0
104 144 0
110 148 0
107 146 0
107 146 0
109 147 0
108 146 0
104 144 0
107 146 0
108 147 0
110 148 0
109 147 0
111 148 0
108 146 0
105 144 0
110 147 0
104 144 0
107 146 0
106 145 0
105 145 0
108 146 0
108 147 0
105 145 0
106 145 0
108 146 0
106 146 0
110 148 0
108 147 0
112 149 0
107 146 0
109 147 0
109 147 0
108 147 0
111 148 0
104 144 0
105 145 0
108 147 0
107 146 0
106 145 0
107 146 0
109 147 0
106 145 0
110 148 0
108 146 0
111 148 0
109 147 0
106 145 0
104 144 0
108 146 0
112 149 0
105 145 0
106 145 0
108 147 0
109 147 0
108 146 0
104 144 0
109 147 0
106 146 0
111 148 0
108 146 0
106 145 0
109 147 0
107 146 0
108 146 0
105 145 0
108 146 0
109 147 0
107 146 0
110 148 0
111 148 0
110 148 0
103 143 0
105 145 0
109 147 0
106 146 0
110 148 0
104 144 0
109 147 0
106 146 0
106 146 0
114 150 0
107 146 0
109 147 0
108 147 0
106 145 0
112 149 0
108 146 0
107 146 0
109 147 0
114 150 0
105 144 0
108 147 0
108 147 0
108 147 0
106 145 0
106 145 0
108 147 0
108 147 0
112 149 0
106 145 0
105 145 0
107 146 0
108 147 0
110 148 0
111 148 0
111 148 0
109 147 0
109 147 0
106 145 0
106 145 0
109 147 0
111 149 0
108 147 0
111 148 0
108 146 0
109 147 0
110 148 0
109 147 0
111 148 0
110 148 0
110 148 0
106 145 0
110 148 0
106 146 0
112 149 0
110 147 0
110 148 0
108 146 0
107 146 0
106 145 0
107 146 0
105 145 0
107 146 0
110 148 0
105 145 0
104 144 0
109 147 0
107 146 0
108 147 0
108 146 0
110 148 0
111 148 0
107 146 0
109 147 0
110 148 0
111 148 0
108 146 0
109 147 0
111 148 0
109 147 0
109 147 0
109 147 0
106 145 0
109 147 0
108 147 0
108 147 0
106 145 0
108 146 0
107 146 0
106 146 0
110 147 0
112 149 0
116 151 0
113 149 0
112 149 0
109 147 0
114 150 0
107 146 0
107 146 0
108 147 0
104 144 0
109 147 0
110 147 0
108 146 0
111 148 0
107 146 0
106 145 0
106 145 0
108 147 0
105 145 0
107 146 0
111 148 0
107 146 0
111 148 0
108 147 0
109 147 0
108 147 0
110 148 0
108 146 0
103 143 0
104 144 0
113 149 0
108 146 0
105 145 0
107 146 0
106 145 0
112 149 0
108 147 0
109 147 0
109 147 0
109 147 0
107 146 0
109 147 0
109 147 0
106 145 0
110 148 0
109 147 0
108 146 0
112 149 0
107 146 0
107 146 0
109 147 0
104 144 0
106 145 0
106 146 0
109 147 0
108 147 0
107 146 0
108 146 0
107 146 0
106 146 0
109 147 0
108 146 0
109 147 0
105 144 0
109 147 0
107 146 0
115 150 0
109 147 0
109 147 0
107 146 0
108 146 0
110 148 0
109 147 0
107 146 0
108 146 0
108 147 0
107 146 0
110 148 0
111 148 0
109 147 0
106 145 0
110 148 0
108 147 0
105 145 0
107 146 0
113 150 0
106 145 0
110 148 0
106 145 0
112 149 0
106 145 0
112 149 0
110 148 0
112 149 0
107 146 0
110 148 0
112 149 0
112 149 0
106 145 0
110 148 0
108 147 0
106 146 0
112 149 0
103 144 0
109 147 0
109 147 0
106 145 0
108 146 0
106 145 0
107 146 0
109 147 0
111 148 0
109 147 0
108 147 0
104 144 0
106 145 0
111 148 0
108 146 0
110 148 0
112 149 0
108 146 0
106 145 0
107 146 0
109 147 0
106 145 0
110 148 0
112 149 0
107 146 0
112 149 0
108 146 0
111 148 0
106 145 0
105 145 0
107 146 0
104 144 0
109 147 0
106 146 0
108 146 0
106 146 0
107 146 0
106 145 0
104 144 0
110 148 0
107 146 0
105 145 0
108 147 0
106 145 0
107 146 0
103 143 0
107 146 0
108 146 0
107 146 0
109 147 0
107 146 0
105 145 0
108 147 0
105 145 0
105 145 0
107 146 0
109 147 0
108 147 0
108 147 0
106 145 0
105 144 0
106 145 0
107 146 0
113 150 0
109 147 0
108 146 0
104 144 0
108 147 0
107 146 0
108 146 0
106 145 0
104 144 0
106 145 0
103 144 0
109 147 0
109 147 0
111 149 0
108 146 0
110 148 0
107 146 0
111 149 0
107 146 0
109 147 0
108 147 0
109 147 0
105 145 0
106 145 0
106 145 0
105 145 0
106 146 0
110 147 0
106 145 0
105 145 0
103 144 0
108 147 0
110 148 0
110 148 0
110 148 0
108 146 0
107 146 0
113 149 0
105 145 0
104 144 0
108 147 0
110 148 0
108 147 0
108 147 0
111 148 0
105 145 0
107 146 0
110 147 0
106 146 0
107 146 0
107 146 0
112 149 0
108 146 0
106 146 0
107 146 0
108 147 0
107 146 0
107 146 0
110 148 0
107 146 0
109 147 0
109 147 0
107 146 0
111 148 0
106 145 0
108 147 0
108 146 0
111 149 0
110 148 0
109 147 0
106 145 0
108 146 0
109 147 0
109 147 0
107 146 0
110 148 0
107 146 0
108 147 0
111 148 0
111 148 0
109 147 0
107 146 0
107 146 0
108 146 0
105 145 0
105 145 0
108 147 0
108 147 0
106 145 0
108 147 0
109 147 0
109 147 0
109 147 0
108 147 0
108 147 0
105 145 0
109 147 0
106 145 0
103 144 0
110 148 0
106 146 0
107 146 0
106 145 0
107 146 0
109 147 0
104 144 0
109 147 0
109 147 0
105 145 0
106 146 0
107 146 0
105 144 0
108 147 0
106 145 0
109 147 0
109 147 0
109 147 0
113 149 0
106 145 0
108 146 0
103 144 0
107 146 0
105 145 0
112 149 0
106 145 0
109 147 0
105 145 0
111 149 0
108 146 0
110 147 0
107 146 0
111 148 0
107 146 0
107 146 0
109 147 0
110 147 0
109 147 0
107 146 0
106 145 0
108 146 0
110 148 0
108 147 0
107 146 0
104 144 0
107 146 0
106 145 0
109 147 0
107 146 0
107 146 0
112 149 0
106 145 0
108 147 0
106 145 0
106 145 0
108 147 0
107 146 0
113 149 0
108 147 0
105 145 0
105 145 0
107 146 0
109 147 0
110 148 0
108 147 0
107 146 0
104 144 0
109 147 0
113 149 0
112 149 0
106 146 0
106 146 0
107 146 0
110 148 0
106 145 0
108 146 0
111 148 0
107 146 0
104 144 0
105 145 0
110 148 0
107 146 0
107 146 0
108 146 0
110 148 0
107 146 0
109 147 0
108 147 0
112 149 0
110 147 0
108 147 0
109 147 0
107 146 0
105 145 0
106 145 0
108 146 0
109 147 0
107 146 0
108 146 0
105 144 0
109 147 0
111 148 0
107 146 0
107 146 0
109 147 0
114 150 0
112 149 0
110 148 0
106 145 0
107 146 0
106 145 0
107 146 0
109 147 0
108 146 0
105 145 0
109 147 0
107 146 0
111 148 0
105 145 0
106 145 0
107 146 0
104 144 0
110 148 0
111 148 0
108 147 0
106 146 0
106 145 0
109 147 0
109 147 0
105 144 0
108 146 0
109 147 0
109 147 0
106 145 0
105 145 0
110 148 0
106 145 0
107 146 0
111 148 0
112 149 0
109 147 0
109 147 0
108 146 0
105 145 0
109 147 0
108 147 0
109 147 0
109 147 0
110 148 0
106 145 0
108 147 0
106 146 0
110 148 0
106 145 0
111 148 0
109 147 0
111 149 0
109 147 0
106 145 0
106 146 0
106 145 0
107 146 0
110 148 0
107 146 0
108 147 0
105 145 0
109 147 0
109 147 0
107 146 0
111 148 0
105 145 0
108 147 0
111 149 0
110 148 0
112 149 0
110 148 0
111 149 0
111 148 0
110 148 0
106 145 0
110 148 0
112 149 0
112 149 0
108 146 0
105 145 0
110 148 0
107 146 0
105 145 0
110 148 0
103 143 0
111 148 0
108 146 0
109 147 0
108 147 0
106 145 0
110 147 0
106 145 0
106 146 0
108 147 0
113 150 0
112 149 0
106 145 0
106 145 0
111 148 0
110 148 0
110 147 0
108 146 0
107 146 0
112 149 0
108 147 0
108 147 0
110 148 0
109 147 0
109 147 0
107 146 0
109 147 0
111 149 0
111 148 0
109 147 0
110 148 0
105 145 0
108 146 0
105 145 0
106 145 0
110 148 0
108 146 0
107 146 0
108 146 0
108 146 0
104 144 0
108 146 0
106 146 0
110 147 0
107 146 0
105 145 0
107 146 0
107 146 0
106 145 0
109 147 0
108 146 0
108 146 0
107 146 0
104 144 0
106 145 0
108 146 0
106 145 0
107 146 0
108 146 0
106 146 0
105 145 0
110 148 0
105 145 0
109 147 0
105 145 0
107 146 0
111 148 0
108 147 0
106 145 0
105 145 0
108 146 0
110 147 0
108 146 0
110 148 0
110 148 0
104 144 0
108 147 0
105 145 0
109 147 0
109 147 0
108 147 0
107 146 0
107 146 0
107 146 0
109 147 0
109 147 0
106 145 0
104 144 0
109 147 0
109 147 0
112 149 0
109 147 0
110 147 0
107 146 0
111 148 0
110 148 0
108 146 0
109 147 0
110 148 0
108 147 0
109 147 0
108 146 0
108 147 0
106 145 0
106 145 0
107 146 0
109 147 0
110 148 0
105 145 0
108 147 0
109 147 0
109 147 0
106 145 0
110 148 0
106 145 0
112 149 0
107 146 0
107 146 0
106 146 0
107 146 0
108 147 0
106 145 0
106 145 0
107 146 0
110 148 0
108 147 0
105 145 0
111 148 0
107 146 0
107 146 0
106 146 0
109 147 0
108 147 0
108 147 0
109 147 0
111 148 0
114 150 0
112 149 0
107 146 0
110 148 0
107 146 0
109 147 0
107 146 0
108 146 0
109 147 0
107 146 0
109 147 0
109 147 0
110 148 0
105 145 0
108 146 0
107 146 0
112 149 0
107 146 0
112 149 0
104 144 0
105 145 0
111 148 0
104 144 0
110 148 0
109 147 0
107 146 0
106 145 0
108 147 0
107 146 0
108 147 0
111 148 0
106 146 0
108 146 0
111 148 0
105 145 0
107 146 0
106 145 0
107 146 0
106 146 0
110 148 0
105 145 0
105 145 0
107 146 0
105 145 0
106 145 0
106 145 0
106 145 0
107 146 0
107 146 0
107 146 0
108 146 0
110 148 0
110 148 0
109 147 0
107 146 0
106 145 0
112 149 0
106 145 0
109 147 0
109 147 0
110 147 0
108 147 0
107 146 0
110 147 0
109 147 0
110 148 0
106 145 0
109 147 0
108 147 0
110 148 0
105 145 0
106 145 0
109 147 0
111 148 0
107 146 0
108 146 0
104 144 0
105 145 0
108 147 0
110 148 0
105 145 0
107 146 0
104 144 0
108 147 0
112 149 0
110 147 0
108 147 0
109 147 0
107 146 0
107 146 0
105 145 0
108 146 0
106 145 0
108 147 0
109 147 0
109 147 0
110 147 0
107 146 0
109 147 0
106 145 0
108 146 0
105 145 0
107 146 0
111 149 0
108 147 0
105 145 0
106 145 0
111 148 0
109 147 0
105 145 0
107 146 0
111 149 0
109 147 0
109 147 0
109 147 0
110 148 0
111 148 0
110 148 0
106 145 0
105 145 0
108 147 0
113 150 0
107 146 0
105 145 0
107 146 0
113 149 0
110 148 0
105 145 0
106 145 0
104 144 0
108 146 0
114 150 0
110 148 0
106 145 0
106 145 0
108 147 0
105 145 0
108 147 0
109 147 0
104 144 0
106 145 0
106 145 0
110 148 0
107 146 0
110 148 0
108 146 0
110 148 0
104 144 0
106 145 0
110 148 0
110 147 0
107 146 0
107 146 0
108 147 0
108 146 0
106 145 0
107 146 0
105 144 0
106 145 0
108 147 0
109 147 0
109 147 0
107 146 0
109 147 0
107 146 0
106 145 0
111 148 0
105 145 0
105 145 0
109 147 0
108 146 0
108 146 0
108 147 0
106 145 0
106 145 0
106 146 0
114 150 0
107 146 0
105 145 0
107 146 0
108 147 0
107 146 0
108 146 0
111 148 0
107 146 0
107 146 0
110 148 0
110 147 0
109 147 0
111 149 0
105 145 0
112 149 0
110 147 0
109 147 0
107 146 0
105 145 0
108 146 0
109 147 0
109 147 0
106 145 0
106 145 0
108 147 0
108 147 0
112 149 0
106 145 0
109 147 0
109 147 0
109 147 0
106 145 0
114 150 0
109 147 0
106 146 0
107 146 0
105 145 0
110 148 0
108 146 0
109 147 0
106 145 0
110 148 0
108 147 0
105 145 0
109 147 0
107 146 0
108 147 0
108 146 0
106 145 0
106 146 0
106 145 0
110 148 0
109 147 0
107 146 0
109 147 0
111 148 0
112 149 0
106 146 0
107 146 0
109 147 0
108 146 0
106 145 0
106 145 0
107 146 0
108 147 0
109 147 0
108 146 0
105 145 0
109 147 0
105 145 0
108 146 0
105 145 0
106 145 0
110 148 0
111 148 0
108 146 0
112 149 0
111 148 0
110 148 0
109 147 0
106 145 0
107 146 0
107 146 0
105 145 0
104 144 0
108 146 0
109 147 0
109 147 0
110 148 0
105 145 0
104 144 0
107 146 0
108 146 0
106 145 0
109 147 0
109 147 0
107 146 0
109 147 0
113 149 0
108 146 0
106 145 0
109 147 0
108 147 0
107 146 0
113 149 0
112 149 0
105 145 0
111 148 0
106 145 0
109 147 0
109 147 0
109 147 0
113 150 0
103 144 0
112 149 0
109 147 0
108 147 0
111 149 0
107 146 0
107 146 0
105 145 0
107 146 0
108 147 0
109 147 0
107 146 0
105 144 0
109 147 0
110 148 0
110 148 0
110 148 0
105 145 0
107 146 0
112 149 0
107 146 0
108 147 0
109 147 0
105 145 0
112 149 0
109 147 0
108 146 0
109 147 0
105 145 0
104 144 0
106 146 0
107 146 0
106 145 0
106 145 0
108 147 0
110 147 0
107 146 0
111 148 0
108 146 0
107 146 0
107 146 0
109 147 0
109 147 0
108 146 0
109 147 0
104 144 0
109 147 0
104 144 0
105 145 0
109 147 0
108 146 0
109 147 0
107 146 0
112 149 0
110 148 0
114 150 0
106 145 0
109 147 0
108 146 0
107 146 0
107 146 0
109 147 0
106 145 0
111 148 0
109 147 0
106 145 0
107 146 0
111 148 0
108 147 0
107 146 0
108 147 0
107 146 0
104 144 0
111 149 0
106 146 0
111 148 0
105 145 0
109 147 0
110 148 0
110 147 0
108 146 0
111 148 0
108 147 0
109 147 0
105 144 0
107 146 0
109 147 0
105 145 0
109 147 0
105 144 0
105 145 0
108 147 0
104 144 0
106 145 0
104 144 0
112 149 0
109 147 0
110 148 0
107 146 0
104 144 0
106 145 0
109 147 0
106 145 0
105 145 0
110 148 0
105 145 0
109 147 0
105 145 0
102 143 0
105 145 0
105 144 0
107 146 0
104 144 0
106 145 0
107 146 0
110 148 0
108 146 0
108 147 0
107 146 0
104 144 0
105 145 0
108 146 0
107 146 0
105 145 0
111 148 0
108 146 0
111 148 0
108 146 0
109 147 0
106 145 0
105 145 0
104 144 0
106 145 0
108 146 0
104 144 0
106 145 0
112 149 0
107 146 0
105 145 0
110 148 0
105 145 0
103 144 0
112 149 0
112 149 0
111 148 0
107 146 0
113 149 0
108 146 0
105 145 0
106 145 0
112 149 0
107 146 0
108 146 0
107 146 0
108 147 0
111 148 0
108 147 0
109 147 0
107 146 0
108 146 0
108 146 0
108 147 0
106 145 0
109 147 0
107 146 0
109 147 0
105 144 0
108 147 0
109 147 0
112 149 0
105 145 0
107 146 0
107 146 0
104 144 0
110 148 0
106 145 0
110 148 0
107 146 0
108 146 0
108 147 0
106 145 0
110 148 0
106 145 0
110 148 0
113 150 0
105 145 0
108 146 0
106 145 0
104 144 0
110 148 0
110 148 0
106 146 0
105 144 0
107 146 0
112 149 0
104 144 0
107 146 0
107 146 0
113 149 0
109 147 0
109 147 0
109 147 0
109 147 0
110 147 0
108 146 0
106 145 0
115 151 0
105 145 0
108 147 0
103 144 0
109 147 0
110 147 0
107 146 0
105 145 0
110 147 0
106 145 0
115 151 0
110 148 0
108 147 0
107 146 0
108 147 0
108 147 0
106 145 0
107 146 0
108 146 0
105 145 0
107 146 0
110 148 0
110 148 0
104 144 0
109 147 0
112 149 0
110 148 0
108 146 0
106 145 0
109 147 0
108 146 0
110 148 0
106 145 0
111 149 0
111 148 0
110 147 0
107 146 0
106 145 0
107 146 0
103 143 0
106 146 0
108 147 0
102 143 0
109 147 0
106 145 0
105 145 0
108 146 0
106 145 0
114 150 0
106 145 0
111 148 0
106 145 0
107 146 0
111 148 0
110 148 0
108 146 0
111 148 0
108 147 0
113 149 0
108 146 0
106 145 0
107 146 0
109 147 0
105 145 0
112 149 0
109 147 0
114 150 0
113 150 0
107 146 0
105 145 0
109 147 0
106 145 0
112 149 0
107 146 0
108 146 0
106 145 0
109 147 0
104 144 0
109 147 0
106 145 0
106 145 0
107 146 0
106 146 0
106 145 0
107 146 0
108 147 0
110 148 0
110 148 0
105 145 0
106 145 0
108 146 0
108 146 0
105 144 0
107 146 0
114 150 0
110 148 0
109 147 0
108 146 0
108 146 0
109 147 0
103 144 0
111 149 0
108 147 0
107 146 0
110 148 0
110 148 0
108 147 0
108 147 0
106 146 0
110 147 0
110 148 0
111 148 0
113 150 0
107 146 0
109 147 0
108 146 0
107 146 0
110 148 0
112 149 0
108 147 0
113 149 0
110 148 0
112 149 0
106 145 0
104 144 0
112 149 0
107 146 0
114 150 0
108 146 0
110 148 0
107 146 0
107 146 0
105 145 0
105 145 0
109 147 0
110 147 0
112 149 0
106 145 0
108 147 0
107 146 0
109 147 0
108 147 0
106 145 0
106 145 0
106 145 0
109 147 0
108 146 0
108 147 0
107 146 0
107 146 0
107 146 0
110 147 0
109 147 0
110 148 0
109 147 0
109 147 0
110 147 0
107 146 0
109 147 0
105 145 0
106 145 0
109 147 0
105 145 0
111 149 0
105 145 0
110 148 0
108 146 0
114 150 0
112 149 0
109 147 0
107 146 0
107 146 0
112 149 0
107 146 0
106 145 0
111 148 0
106 145 0
109 147 0
106 145 0
110 148 0
107 146 0
108 147 0
107 146 0
107 146 0
107 146 0
109 147 0
106 145 0
107 146 0
108 146 0
116 151 0
105 145 0
108 146 0
108 146 0
108 146 0
104 144 0
111 148 0
109 147 0
112 149 0
112 149 0
110 147 0
107 146 0
108 147 0
104 144 0
108 146 0
109 147 0
107 146 0
108 146 0
107 146 0
107 146 0
109 147 0
108 147 0
107 146 0
105 145 0
107 146 0
109 147 0
109 147 0
106 145 0
105 145 0
107 146 0
108 146 0
106 145 0
106 145 0
108 146 0
106 145 0
107 146 0
111 148 0
107 146 0
108 146 0
104 144 0
107 146 0
106 145 0
108 147 0
107 146 0
105 145 0
113 149 0
109 147 0
112 149 0
107 146 0
105 145 0
105 145 0
109 147 0
107 146 0
112 149 0
104 144 0
108 147 0
111 148 0
108 147 0
106 145 0
111 148 0
108 146 0
108 147 0
107 146 0
106 145 0
107 146 0
107 146 0
105 145 0
107 146 0
106 145 0
107 146 0
110 147 0
105 145 0
107 146 0
104 144 0
108 146 0
111 148 0
106 145 0
107 146 0
109 147 0
109 147 0
107 146 0
107 146 0
108 147 0
105 145 0
109 147 0
107 146 0
106 145 0
105 145 0
108 146 0
106 146 0
106 145 0
108 146 0
111 148 0
110 147 0
110 148 0
104 144 0
105 145 0
107 146 0
106 145 0
109 147 0
109 147 0
109 147 0
108 146 0
107 146 0
107 146 0
107 146 0
107 146 0
106 145 0
108 146 0
111 148 0
105 145 0
107 146 0
110 148 0
111 148 0
107 146 0
108 146 0
107 146 0
107 146 0
111 148 0
107 146 0
106 145 0
110 148 0
106 145 0
107 146 0
111 148 0
108 146 0
114 150 0
115 151 0
107 146 0
107 146 0
109 147 0
107 146 0
108 147 0
104 144 0
111 148 0
109 147 0
108 146 0
110 148 0
106 145 0
110 148 0
106 145 0
108 146 0
107 146 0
112 149 0
106 145 0
107 146 0
109 147 0
107 146 0
103 144 0
105 145 0
105 144 0
105 145 0
108 147 0
110 148 0
108 146 0
112 149 0
112 149 0
107 146 0
108 146 0
112 149 0
113 150 0
104 144 0
105 145 0
104 144 0
108 147 0
112 149 0
106 145 0
107 146 0
107 146 0
106 145 0
107 146 0
105 145 0
109 147 0
109 147 0
107 146 0
107 146 0
105 145 0
108 147 0
108 147 0
108 147 0
104 144 0
105 145 0
107 146 0
106 145 0
107 146 0
107 146 0
109 147 0
105 144 0
113 150 0
106 145 0
108 147 0
106 145 0
111 149 0
108 147 0
109 147 0
108 146 0
109 147 0
112 149 0
110 148 0
111 148 0
109 147 0
106 145 0
107 146 0
112 149 0
104 144 0
109 147 0
106 145 0
108 147 0
111 148 0
106 145 0
105 145 0
110 148 0
105 145 0
108 146 0
111 148 0
112 149 0
106 145 0
109 147 0
104 144 0
109 147 0
109 147 0
106 145 0
111 148 0
110 148 0
112 149 0
111 148 0
104 144 0
103 144 0
108 147 0
109 147 0
104 144 0
105 145 0
106 145 0
107 146 0
106 145 0
106 145 0
107 146 0
108 147 0
108 147 0
107 146 0
106 145 0
109 147 0
106 145 0
108 147 0
110 148 0
106 146 0
110 148 0
111 149 0
104 144 0
106 145 0
109 147 0
106 145 0
110 148 0
108 147 0
109 147 0
108 146 0
108 146 0
112 149 0
104 144 0
104 144 0
106 146 0
108 147 0
110 148 0
110 148 0
106 145 0
108 147 0
106 146 0
104 144 0
107 146 0
111 148 0
106 145 0
109 147 0
110 148 0
108 147 0
105 145 0
110 148 0
109 147 0
108 147 0
106 145 0
111 148 0
106 145 0
106 145 0
107 146 0
107 146 0
110 148 0
106 145 0
107 146 0
111 148 0
107 146 0
108 147 0
108 146 0
111 148 0
108 146 0
105 145 0
109 147 0
106 146 0
109 147 0
105 145 0
109 147 0
108 147 0
108 147 0
108 147 0
110 147 0
114 150 0
109 147 0
107 146 0
106 145 0
107 146 0
105 145 0
111 148 0
108 146 0
109 147 0
113 149 0
107 146 0
104 144 0
111 149 0
109 147 0
109 147 0
110 148 0
105 144 0
111 149 0
107 146 0
108 147 0
106 145 0
110 148 0
105 145 0
108 147 0
108 146 0
114 150 0
108 147 0
106 146 0
112 149 0
107 146 0
111 148 0
109 147 0
105 145 0
113 149 0
114 150 0
108 147 0
105 145 0
116 151 0
111 148 0
113 149 0
107 146 0
112 149 0
108 146 0
107 146 0
110 148 0
105 145 0
104 144 0
104 144 0
113 149 0
107 146 0
107 146 0
106 145 0
108 147 0
107 146 0
109 147 0
109 147 0
108 147 0
110 148 0
107 146 0
106 146 0
106 145 0
112 149 0
109 147 0
111 148 0
107 146 0
106 145 0
106 145 0
106 145 0
109 147 0
113 149 0
107 146 0
106 145 0
108 147 0
107 146 0
112 149 0
108 147 0
109 147 0
106 145 0
111 148 0
111 148 0
109 147 0
107 146 0
104 144 0
109 147 0
109 147 0
107 146 0
106 145 0
111 148 0
106 145 0
111 148 0
110 148 0
109 147 0
107 146 0
111 148 0
113 150 0
104 144 0
110 148 0
108 147 0
106 145 0
109 147 0
107 146 0
106 145 0
108 147 0
108 147 0
109 147 0
110 148 0
107 146 0
107 146 0
107 146 0
110 148 0
109 147 0
105 145 0
108 147 0
106 146 0
111 148 0
108 146 0
108 147 0
106 145 0
112 149 0
104 144 0
110 148 0
106 145 0
105 145 0
107 146 0
107 146 0
109 147 0
109 147 0
108 146 0
109 147 0
112 149 0
107 146 0
108 146 0
105 145 0
105 145 0
108 146 0
109 147 0
108 147 0
105 145 0
105 145 0
105 145 0
109 147 0
105 145 0
107 146 0
107 146 0
108 146 0
108 147 0
104 144 0
108 147 0
103 143 0
106 145 0
105 145 0
107 146 0
115 151 0
107 146 0
107 146 0
108 147 0
108 146 0
109 147 0
107 146 0
108 147 0
108 146 0
105 145 0
104 144 0
107 146 0
109 147 0
107 146 0
108 146 0
105 145 0
113 150 0
106 145 0
104 144 0
106 145 0
106 145 0
105 145 0
106 145 0
109 147 0
107 146 0
112 149 0
110 147 0
108 147 0
109 147 0
108 146 0
107 146 0
108 146 0
109 147 0
105 145 0
104 144 0
111 148 0
111 149 0
106 145 0
104 144 0
109 147 0
109 147 0
110 148 0
107 146 0
116 151 0
108 146 0
107 146 0
105 145 0
110 148 0
106 146 0
109 147 0
107 146 0
108 146 0
105 145 0
114 150 0
107 146 0
107 146 0
108 146 0
112 149 0
105 145 0
104 144 0
108 146 0
107 146 0
110 148 0
108 147 0
110 147 0
107 146 0
108 147 0
105 144 0
107 146 0
110 148 0
108 147 0
110 148 0
106 145 0
107 146 0
108 146 0
107 146 0
108 146 0
108 146 0
115 151 0
107 146 0
107 146 0
106 146 0
106 145 0
108 146 0
107 146 0
114 150 0
108 147 0
110 147 0
109 147 0
104 144 0
106 145 0
109 147 0
107 146 0
109 147 0
108 147 0
106 145 0
106 145 0
105 145 0
107 146 0
113 149 0
104 144 0
109 147 0
108 147 0
107 146 0
106 146 0
109 147 0
106 146 0
108 147 0
108 146 0
111 148 0
109 147 0
107 146 0
105 145 0
109 147 0
107 146 0
107 146 0
110 147 0
107 146 0
113 150 0
109 147 0
108 146 0
109 147 0
109 147 0
106 146 0
110 148 0
108 146 0
106 145 0
105 145 0
103 143 0
108 146 0
111 148 0
111 148 0
105 145 0
109 147 0
106 145 0
109 147 0
109 147 0
106 146 0
107 146 0
110 148 0
108 147 0
106 145 0
110 148 0
110 148 0
107 146 0
106 146 0
108 146 0
109 147 0
109 147 0
107 146 0
108 147 0
109 147 0
110 147 0
106 145 0
108 147 0
111 149 0
108 146 0
110 148 0
108 146 0
109 147 0
110 148 0
109 147 0
107 146 0
107 146 0
109 147 0
107 146 0
112 149 0
108 146 0
109 147 0
109 147 0
105 145 0
109 147 0
112 149 0
111 148 0
106 145 0
110 148 0
109 147 0
109 147 0
113 149 0
111 148 0
107 146 0
106 145 0
104 144 0
105 145 0
105 145 0
107 146 0
112 149 0
108 146 0
107 146 0
110 148 0
108 147 0
110 148 0
106 145 0
112 149 0
105 145 0
104 144 0
105 145 0
104 144 0
104 144 0
108 146 0
109 147 0
106 146 0
104 144 0
111 148 0
109 147 0
107 146 0
104 144 0
107 146 0
107 146 0
106 146 0
107 146 0
105 145 0
104 144 0
107 146 0
104 144 0
105 144 0
113 150 0
107 146 0
108 147 0
105 145 0
107 146 0
107 146 0
104 144 0
111 148 0
106 145 0
107 146 0
105 145 0
109 147 0
110 148 0
108 147 0
105 145 0
110 148 0
105 145 0
106 145 0
107 146 0
106 145 0
107 146 0
111 148 0
110 148 0
105 145 0
107 146 0
107 146 0
108 147 0
109 147 0
112 149 0
112 149 0
112 149 0
108 146 0
112 149 0
108 146 0
112 149 0
109 147 0
107 146 0
109 147 0
110 148 0
105 145 0
106 145 0
111 149 0
111 149 0
107 146 0
107 146 0
110 148 0
107 146 0
107 146 0
110 148 0
109 147 0
109 147 0
109 147 0
106 145 0
109 147 0
109 147 0
109 147 0
113 149 0
106 145 0
108 147 0
110 148 0
113 150 0
111 148 0
106 145 0
110 148 0
111 148 0
105 144 0
111 149 0
109 147 0
109 147 0
108 146 0
109 147 0
111 149 0
105 145 0
107 146 0
107 146 0
110 148 0
108 146 0
110 148 0
104 144 0
109 147 0
111 148 0
106 145 0
103 144 0
108 147 0
107 146 0
106 145 0
110 148 0
108 146 0
110 148 0
107 146 0
108 147 0
104 144 0
111 148 0
107 146 0
111 148 0
109 147 0
110 148 0
111 148 0
110 148 0
108 147 0
109 147 0
108 146 0
108 146 0
107 146 0
107 146 0
107 146 0
106 145 0
107 146 0
108 146 0
110 148 0
106 145 0
110 148 0
110 147 0
108 147 0
111 148 0
107 146 0
112 149 0
113 149 0
108 146 0
109 147 0
109 147 0
111 148 0
109 147 0
112 149 0
108 146 0
108 146 0
107 146 0
110 147 0
107 146 0
105 145 0
109 147 0
107 146 0
108 147 0
110 148 0
107 146 0
106 145 0
108 146 0
108 147 0
106 146 0
107 146 0
109 147 0
105 145 0
110 148 0
108 147 0
109 147 0
108 146 0
108 146 0
106 145 0
106 145 0
110 148 0
105 145 0
109 147 0
108 146 0
108 146 0
105 145 0
106 145 0
107 146 0
105 145 0
110 148 0
111 148 0
108 147 0
109 147 0
107 146 0
108 146 0
109 147 0
108 147 0
110 148 0
106 145 0
106 145 0
105 145 0
106 145 0
107 146 0
105 145 0
110 148 0
108 146 0
106 145 0
106 146 0
104 144 0
112 149 0
107 146 0
110 148 0
109 147 0
104 144 0
109 147 0
107 146 0
105 145 0
108 147 0
108 146 0
106 146 0
111 148 0
110 148 0
107 146 0
111 148 0
109 147 0
106 145 0
108 147 0
109 147 0
109 147 0
110 148 0
106 145 0
108 146 0
108 146 0
105 145 0
105 144 0
110 148 0
104 144 0
106 145 0
105 145 0
108 147 0
109 147 0
108 147 0
110 148 0
110 147 0
112 149 0
108 147 0
107 146 0
106 145 0
106 146 0
109 147 0
107 146 0
107 146 0
115 151 0
108 146 0
107 146 0
108 146 0
106 145 0
107 146 0
111 148 0
108 147 0
108 147 0
109 147 0
113 149 0
109 147 0
106 145 0
105 145 0
107 146 0
106 145 0
109 147 0
111 148 0
108 146 0
106 146 0
107 146 0
105 145 0
110 148 0
108 146 0
105 145 0
110 148 0
106 145 0
113 149 0
109 147 0
106 145 0
107 146 0
105 145 0
109 147 0
112 149 0
102 143 0
107 146 0
113 150 0
107 146 0
104 144 0
110 148 0
114 150 0
104 144 0
109 147 0
105 145 0
107 146 0
107 146 0
109 147 0
105 145 0
113 149 0
105 145 0
106 145 0
106 145 0
107 146 0
107 146 0
107 146 0
113 149 0
111 149 0
106 146 0
107 146 0
109 147 0
108 147 0
109 147 0
110 148 0
108 146 0
112 149 0
106 145 0
106 145 0
104 144 0
106 146 0
107 146 0
105 145 0
105 145 0
107 146 0
107 146 0
106 146 0
110 148 0
105 145 0
104 144 0
107 146 0
110 148 0
107 146 0
109 147 0
106 145 0
107 146 0
108 146 0
104 144 0
110 148 0
106 146 0
106 145 0
106 146 0
109 147 0
106 145 0
106 145 0
108 147 0
109 147 0
107 146 0
104 144 0
104 144 0
107 146 0
109 147 0
106 145 0
110 148 0
104 144 0
106 145 0
105 145 0
109 147 0
109 147 0
107 146 0
108 147 0
108 147 0
108 147 0
110 148 0
105 145 0
105 145 0
106 145 0
107 146 0
107 146 0
108 146 0
108 147 0
110 148 0
109 147 0
109 147 0
106 145 0
105 144 0
105 145 0
108 146 0
115 151 0
104 144 0
107 146 0
106 145 0
109 147 0
108 147 0
109 147 0
106 145 0
110 148 0
113 150 0
105 144 0
108 146 0
109 147 0
114 150 0
109 147 0
107 146 0
106 146 0
109 147 0
108 147 0
106 145 0
110 148 0
108 147 0
105 145 0
107 146 0
107 146 0
106 145 0
106 145 0
110 148 0
109 147 0
109 147 0
109 147 0
106 145 0
109 147 0
113 149 0
108 147 0
106 145 0
111 148 0
110 148 0
104 144 0
109 147 0
104 144 0
107 146 0
107 146 0
108 146 0
107 146 0
105 145 0
106 145 0
105 144 0
108 147 0
108 147 0
110 148 0
111 148 0
110 148 0
106 145 0
105 145 0
109 147 0
112 149 0
106 145 0
105 145 0
117 152 0
112 149 0
108 146 0
110 147 0
108 146 0
106 145 0
106 146 0
105 145 0
111 148 0
114 150 0
105 145 0
107 146 0
112 149 0
105 145 0
107 146 0
108 146 0
109 147 0
109 147 0
108 147 0
106 145 0
109 147 0
108 147 0
107 146 0
106 146 0
111 148 0
109 147 0
105 145 0
106 145 0
109 147 0
106 145 0
109 147 0
111 148 0
109 147 0
107 146 0
109 147 0
104 144 0
111 148 0
108 147 0
108 147 0
103 144 0
111 149 0
107 146 0
111 148 0
108 147 0
106 145 0
106 145 0
105 145 0
111 148 0
109 147 0
107 146 0
109 147 0
109 147 0
112 149 0
104 144 0
110 148 0
107 146 0
106 145 0
108 146 0
108 147 0
111 148 0
110 148 0
112 149 0
108 146 0
106 145 0
112 149 0
112 149 0
109 147 0
107 146 0
108 147 0
108 147 0
110 148 0
107 146 0
108 147 0
104 144 0
109 147 0
110 148 0
107 146 0
112 149 0
107 146 0
108 146 0
109 147 0
106 145 0
111 148 0
108 146 0
110 148 0
106 145 0
109 147 0
107 146 0
107 146 0
109 147 0
107 146 0
107 146 0
108 147 0
111 148 0
110 148 0
106 145 0
111 148 0
111 148 0
106 146 0
109 147 0
112 149 0
108 146 0
105 145 0
109 147 0
107 146 0
106 146 0
103 144 0
110 147 0
110 148 0
105 144 0
107 146 0
109 147 0
110 147 0
109 147 0
110 148 0
105 145 0
111 149 0
109 147 0
111 149 0
106 145 0
109 147 0
115 151 0
108 146 0
107 146 0
111 148 0
106 145 0
109 147 0
110 148 0
106 145 0
109 147 0
108 147 0
108 147 0
111 148 0
110 148 0
108 146 0
110 148 0
106 145 0
106 145 0
108 147 0
113 149 0
109 147 0
105 145 0
107 146 0
110 148 0
110 148 0
106 146 0
105 145 0
107 146 0
109 147 0
109 147 0
107 146 0
107 146 0
104 144 0
105 145 0
106 145 0
105 145 0
112 149 0
106 145 0
105 145 0
112 149 0
106 145 0
112 149 0
105 145 0
107 146 0
107 146 0
107 146 0
107 146 0
106 146 0
109 147 0
106 145 0
108 147 0
105 145 0
110 148 0
106 146 0
105 145 0
106 146 0
110 148 0
106 145 0
107 146 0
105 145 0
107 146 0
107 146 0
107 146 0
106 145 0
110 148 0
108 147 0
106 145 0
107 146 0
111 148 0
107 146 0
108 147 0
104 144 0
108 147 0
109 147 0
110 147 0
109 147 0
108 146 0
107 146 0
104 144 0
112 149 0
111 148 0
103 143 0
107 146 0
106 145 0
108 146 0
105 145 0
107 146 0
106 146 0
109 147 0
106 145 0
107 146 0
104 144 0
104 144 0
108 146 0
105 145 0
108 147 0
105 145 0
105 145 0
106 145 0
108 146 0
106 145 0
109 147 0
109 147 0
109 147 0
109 147 0
108 146 0
111 148 0
106 145 0
108 147 0
109 147 0
108 147 0
110 148 0
104 144 0
105 145 0
109 147 0
106 146 0
104 144 0
107 146 0
106 145 0
105 145 0
108 147 0
110 148 0
107 146 0
104 144 0
108 147 0
107 146 0
110 147 0
107 146 0
108 146 0
105 145 0
106 145 0
108 146 0
110 147 0
106 145 0
107 146 0
106 145 0
104 144 0
113 149 0
108 147 0
104 144 0
108 146 0
109 147 0
110 148 0
107 146 0
109 147 0
107 146 0
112 149 0
103 144 0
111 149 0
106 145 0
112 149 0
106 145 0
109 147 0
108 147 0
106 145 0
108 147 0
106 145 0
105 145 0
108 147 0
112 149 0
108 147 0
107 146 0
110 148 0
111 148 0
108 146 0
106 145 0
107 146 0
109 147 0
105 145 0
105 145 0
108 146 0
104 144 0
106 145 0
107 146 0
108 146 0
108 146 0
109 147 0
111 148 0
107 146 0
105 145 0
108 146 0
108 147 0
109 147 0
109 147 0
106 145 0
108 146 0
106 145 0
104 144 0
105 145 0
107 146 0
109 147 0
112 149 0
108 146 0
108 147 0
105 145 0
108 146 0
105 145 0
109 147 0
105 145 0
104 144 0
107 146 0
107 146 0
108 146 0
108 146 0
105 145 0
107 146 0
109 147 0
108 147 0
104 144 0
105 145 0
109 147 0
106 145 0
106 145 0
107 146 0
106 145 0
110 148 0
111 148 0
110 148 0
110 148 0
104 144 0
104 144 0
108 146 0
110 148 0
108 147 0
105 145 0
109 147 0
112 149 0
113 149 0
106 145 0
114 150 0
111 148 0
106 145 0
106 145 0
107 146 0
107 146 0
113 150 0
110 148 0
110 148 0
110 148 0
113 149 0
106 145 0
111 149 0
107 146 0
108 146 0
108 146 0
106 145 0
108 147 0
106 145 0
105 145 0
109 147 0
107 146 0
109 147 0
107 146 0
107 146 0
113 149 0
106 145 0
111 148 0
112 149 0
108 147 0
107 146 0
107 146 0
104 144 0
107 146 0
107 146 0
108 147 0
108 147 0
106 145 0
107 146 0
110 148 0
109 147 0
110 148 0
107 146 0
110 147 0
111 148 0
109 147 0
116 151 0
110 148 0
108 146 0
110 148 0
106 145 0
109 147 0
106 145 0
106 145 0
107 146 0
107 146 0
107 146 0
104 144 0
107 146 0
105 145 0
106 145 0
107 146 0
107 146 0
110 148 0
107 146 0
110 148 0
107 146 0
107 146 0
106 146 0
107 146 0
106 146 0
106 145 0
109 147 0
110 148 0
112 149 0
106 145 0
109 147 0
112 149 0
111 148 0
110 148 0
107 146 0
108 146 0
112 149 0
111 148 0
109 147 0
106 145 0
109 147 0
104 144 0
110 148 0
114 150 0
108 147 0
107 146 0
108 146 0
106 145 0
108 146 0
106 145 0
105 145 0
108 146 0
106 146 0
108 147 0
106 145 0
108 146 0
106 145 0
107 146 0
107 146 0
106 145 0
109 147 0
109 147 0
111 148 0
109 147 0
107 146 0
107 146 0
111 148 0
108 146 0
110 148 0
103 144 0
107 146 0
106 146 0
112 149 0
108 147 0
110 147 0
111 148 0
107 146 0
106 145 0
106 146 0
104 144 0
109 147 0
112 149 0
110 147 0
107 146 0
107 146 0
109 147 0
109 147 0
113 150 0
107 146 0
109 147 0
108 147 0
106 145 0
109 147 0
109 147 0
113 150 0
109 147 0
106 146 0
109 147 0
109 147 0
108 147 0
108 147 0
110 148 0
110 148 0
107 146 0
112 149 0
108 147 0
105 145 0
109 147 0
108 147 0
110 148 0
111 149 0
111 148 0
109 147 0
109 147 0
113 149 0
113 150 0
108 147 0
106 145 0
108 146 0
106 145 0
110 148 0
107 146 0
109 147 0
108 146 0
105 145 0
109 147 0
106 145 0
109 147 0
109 147 0
108 147 0
112 149 0
107 146 0
109 147 0
107 146 0
106 145 0
109 147 0
113 150 0
112 149 0
109 147 0
105 145 0
108 146 0
107 146 0
109 147 0
111 148 0
108 147 0
107 146 0
108 146 0
108 147 0
109 147 0
110 148 0
106 145 0
109 147 0
111 148 0
106 146 0
104 144 0
111 148 0
108 146 0
108 146 0
108 147 0
107 146 0
109 147 0
109 147 0
105 145 0
110 148 0
106 145 0
105 145 0
109 147 0
106 145 0
113 150 0
104 144 0
109 147 0
106 146 0
105 145 0
110 148 0
108 147 0
107 146 0
106 146 0
107 146 0
108 147 0
108 146 0
107 146 0
109 147 0
109 147 0
104 144 0
105 145 0
109 147 0
104 144 0
107 146 0
107 146 0
112 149 0
106 146 0
106 145 0
111 148 0
107 146 0
113 149 0
109 147 0
110 148 0
105 145 0
111 149 0
106 146 0
105 145 0
104 144 0
109 147 0
106 145 0
108 146 0
110 148 0
109 147 0
109 147 0
106 145 0
106 145 0
109 147 0
107 146 0
110 148 0
108 146 0
105 145 0
109 147 0
107 146 0
112 149 0
109 147 0
104 144 0
109 147 0
113 150 0
106 145 0
106 145 0
105 145 0
107 146 0
106 145 0
109 147 0
106 146 0
107 146 0
107 146 0
107 146 0
106 145 0
104 144 0
106 145 0
106 146 0
108 147 0
108 146 0
108 146 0
107 146 0
104 144 0
107 146 0
109 147 0
109 147 0
107 146 0
107 146 0
105 144 0
107 146 0
111 148 0
108 146 0
106 145 0
109 147 0
105 145 0
111 149 0
107 146 0
108 147 0
106 145 0
107 146 0
112 149 0
107 146 0
108 146 0
107 146 0
110 148 0
109 147 0
104 144 0
106 145 0
109 147 0
109 147 0
108 147 0
109 147 0
106 146 0
106 145 0
106 145 0
108 147 0
109 147 0
104 144 0
111 149 0
112 149 0
110 148 0
107 146 0
105 145 0
113 150 0
108 146 0
104 144 0
112 149 0
111 149 0
104 144 0
107 146 0
110 148 0
108 146 0
108 146 0
107 146 0
108 146 0
108 147 0
107 146 0
110 148 0
110 148 0
113 149 0
106 145 0
108 146 0
112 149 0
106 146 0
109 147 0
112 149 0
106 145 0
105 145 0
107 146 0
109 147 0
108 146 0
106 145 0
109 147 0
107 146 0
112 149 0
107 146 0
106 146 0
107 146 0
110 148 0
106 145 0
108 147 0
108 147 0
109 147 0
105 144 0
107 146 0
106 145 0
107 146 0
108 147 0
108 146 0
105 145 0
105 144 0
108 146 0
112 149 0
107 146 0
107 146 0
109 147 0
112 149 0
110 148 0
108 146 0
108 146 0
111 148 0
113 150 0
107 146 0
106 146 0
110 148 0
107 146 0
106 146 0
106 146 0
108 147 0
107 146 0
109 147 0
107 146 0
110 148 0
106 145 0
113 149 0
106 145 0
108 146 0
108 146 0
110 148 0
108 147 0
107 146 0
108 146 0
107 146 0
110 148 0
110 148 0
114 150 0
108 147 0
109 147 0
107 146 0
105 145 0
110 148 0
111 149 0
107 146 0
110 147 0
108 147 0
108 147 0
106 146 0
106 146 0
106 145 0
107 146 0
108 147 0
106 145 0
110 147 0
106 145 0
109 147 0
109 147 0
105 145 0
105 145 0
110 148 0
109 147 0
107 146 0
109 147 0
108 147 0
105 145 0
110 148 0
108 146 0
109 147 0
107 146 0
109 147 0
107 146 0
112 149 0
109 147 0
106 145 0
107 146 0
115 150 0
107 146 0
110 148 0
108 146 0
112 149 0
107 146 0
110 148 0
108 146 0
109 147 0
111 148 0
108 146 0
110 148 0
108 147 0
103 144 0
107 146 0
105 145 0
109 147 0
107 146 0
106 145 0
105 145 0
109 147 0
109 147 0
110 147 0
108 146 0
108 147 0
110 148 0
110 148 0
111 149 0
110 148 0
109 147 0
113 150 0
108 146 0
108 146 0
112 149 0
103 143 0
108 147 0
110 148 0
109 147 0
106 145 0
112 149 0
108 147 0
108 146 0
106 146 0
106 145 0
108 146 0
110 148 0
108 146 0
109 147 0
112 149 0
105 145 0
107 146 0
114 150 0
106 145 0
107 146 0
107 146 0
110 148 0
108 146 0
111 148 0
110 148 0
108 147 0
108 147 0
108 146 0
107 146 0
108 147 0
113 149 0
111 148 0
109 147 0
108 147 0
111 148 0
108 147 0
111 149 0
110 148 0
107 146 0
107 146 0
113 150 0
113 149 0
109 147 0
109 147 0
108 147 0
109 147 0
114 150 0
109 147 0
107 146 0
108 147 0
109 147 0
108 146 0
106 145 0
106 145 0
112 149 0
106 145 0
108 147 0
110 148 0
108 147 0
107 146 0
110 147 0
112 149 0
110 148 0
110 147 0
105 145 0
112 149 0
107 146 0
109 147 0
110 148 0
104 144 0
109 147 0
106 145 0
106 145 0
110 148 0
107 146 0
106 145 0
109 147 0
112 149 0
112 149 0
108 146 0
108 146 0
107 146 0
110 147 0
109 147 0
108 146 0
115 151 0
104 144 0
108 146 0
111 148 0
108 147 0
108 147 0
113 149 0
107 146 0
109 147 0
110 147 0
106 145 0
109 147 0
111 148 0
107 146 0
105 145 0
108 146 0
109 147 0
108 147 0
110 147 0
110 148 0
106 145 0
109 147 0
109 147 0
111 148 0
108 147 0
108 146 0
106 145 0
106 145 0
111 148 0
106 146 0
110 148 0
110 148 0
105 145 0
104 144 0
110 148 0
110 148 0
109 147 0
105 145 0
108 147 0
108 147 0
105 145 0
103 143 0
110 148 0
108 146 0
106 145 0
105 145 0
107 146 0
107 146 0
110 147 0
105 145 0
109 147 0
104 144 0
109 147 0
106 145 0
106 145 0
106 145 0
106 145 0
106 146 0
105 144 0
112 149 0
108 146 0
109 147 0
108 146 0
108 146 0
107 146 0
108 147 0
110 148 0
103 144 0
111 148 0
106 145 0
111 148 0
110 148 0
107 146 0
110 148 0
102 143 0
108 146 0
109 147 0
112 149 0
110 148 0
107 146 0
107 146 0
108 147 0
109 147 0
107 146 0
111 148 0
110 148 0
105 145 0
104 144 0
107 146 0
111 148 0
106 145 0
108 147 0
106 146 0
108 147 0
104 144 0
106 145 0
108 147 0
107 146 0
107 146 0
107 146 0
108 146 0
108 146 0
108 147 0
105 145 0
105 145 0
109 147 0
107 146 0
105 145 0
111 149 0
105 145 0
109 147 0
107 146 0
111 148 0
107 146 0
107 146 0
109 147 0
107 146 0
108 147 0
109 147 0
105 144 0
109 147 0
107 146 0
112 149 0
110 148 0
106 145 0
106 145 0
107 146 0
114 150 0
108 147 0
105 145 0
106 145 0
109 147 0
108 147 0
105 145 0
107 146 0
108 146 0
108 146 0
104 144 0
108 147 0
111 148 0
107 146 0
108 146 0
109 147 0
109 147 0
104 144 0
110 148 0
106 146 0
106 146 0
107 146 0
104 144 0
112 149 0
106 145 0
105 144 0
103 143 0
107 146 0
106 146 0
107 146 0
109 147 0
110 147 0
111 149 0
109 147 0
106 145 0
106 145 0
108 147 0
110 148 0
107 146 0
107 146 0
110 148 0
106 145 0
104 144 0
110 148 0
107 146 0
106 145 0
110 148 0
108 146 0
112 149 0
104 144 0
107 146 0
106 146 0
107 146 0
106 145 0
107 146 0
107 146 0
109 147 0
104 144 0
108 146 0
109 147 0
104 144 0
105 145 0
109 147 0
107 146 0
105 145 0
108 146 0
106 145 0
108 146 0
111 148 0
107 146 0
107 146 0
108 146 0
108 147 0
108 147 0
110 148 0
106 145 0
104 144 0
107 146 0
106 145 0
109 147 0
111 148 0
107 146 0
109 147 0
108 146 0
107 146 0
109 147 0
105 145 0
108 146 0
108 147 0
110 148 0
110 147 0
109 147 0
111 149 0
109 147 0
111 148 0
109 147 0
110 148 0
113 149 0
103 144 0
107 146 0
112 149 0
108 146 0
108 146 0
109 147 0
109 147 0
103 144 0
114 150 0
110 148 0
109 147 0
106 146 0
105 145 0
107 146 0
106 146 0
106 146 0
109 147 0
109 147 0
109 147 0
110 147 0
106 145 0
107 146 0
112 149 0
108 146 0
108 147 0
105 144 0
108 147 0
108 147 0
109 147 0
109 147 0
107 146 0
106 145 0
110 148 0
109 147 0
108 146 0
109 147 0
108 147 0
105 145 0
107 146 0
106 145 0
111 148 0
106 145 0
107 146 0
108 146 0
113 150 0
108 147 0
106 145 0
110 148 0
108 147 0
109 147 0
104 144 0
107 146 0
109 147 0
112 149 0
110 148 0
109 147 0
110 148 0
109 147 0
108 146 0
112 149 0
109 147 0
106 145 0
105 145 0
106 145 0
107 146 0
108 147 0
112 149 0
108 147 0
104 144 0
106 145 0
107 146 0
113 149 0
110 148 0
108 147 0
109 147 0
109 147 0
106 145 0
108 146 0
113 149 0
110 148 0
108 147 0
109 147 0
106 145 0
106 145 0
109 147 0
108 146 0
110 148 0
104 144 0
106 146 0
106 145 0
106 145 0
107 146 0
105 145 0
108 146 0
106 145 0
110 148 0
109 147 0
109 147 0
108 147 0
108 147 0
109 147 0
109 147 0
106 145 0
105 145 0
112 149 0
108 147 0
110 148 0
108 147 0
112 149 0
107 146 0
109 147 0
109 147 0
106 145 0
110 148 0
107 146 0
106 145 0
106 145 0
110 148 0
106 145 0
109 147 0
106 145 0
108 146 0
107 146 0
107 146 0
105 145 0
110 148 0
111 148 0
105 145 0
107 146 0
107 146 0
111 148 0
110 148 0
109 147 0
109 147 0
106 145 0
109 147 0
109 147 0
109 147 0
107 146 0
108 146 0
106 145 0
107 146 0
107 146 0
108 147 0
108 146 0
108 147 0
111 148 0
107 146 0
108 146 0
111 148 0
107 146 0
106 145 0
108 147 0
106 145 0
110 147 0
105 145 0
109 147 0
107 146 0
108 146 0
107 146 0
106 145 0
107 146 0
111 148 0
107 146 0
104 144 0
109 147 0
109 147 0
110 148 0
108 146 0
113 150 0
109 147 0
110 147 0
106 145 0
107 146 0
108 147 0
105 145 0
109 147 0
110 148 0
106 145 0
110 148 0
112 149 0
110 148 0
109 147 0
112 149 0
110 148 0
107 146 0
106 145 0
106 145 0
109 147 0
108 146 0
107 146 0
113 149 0
107 146 0
111 148 0
114 150 0
105 145 0
105 145 0
109 147 0
106 146 0
107 146 0
106 145 0
109 147 0
114 150 0
109 147 0
105 145 0
108 146 0
109 147 0
104 144 0
110 148 0
107 146 0
110 148 0
108 146 0
109 147 0
105 144 0
106 145 0
106 145 0
106 145 0
109 147 0
108 147 0
110 147 0
107 146 0
109 147 0
106 145 0
104 144 0
107 146 0
111 148 0
104 144 0
108 147 0
106 145 0
103 144 0
107 146 0
108 146 0
112 149 0
110 148 0
107 146 0
107 146 0
107 146 0
106 145 0
109 147 0
107 146 0
109 147 0
106 145 0
106 145 0
103 144 0
109 147 0
108 146 0
106 145 0
107 146 0
106 146 0
106 145 0
106 145 0
109 147 0
109 147 0
105 145 0
110 148 0
105 145 0
110 148 0
113 149 0
108 147 0
107 146 0
112 149 0
110 148 0
111 148 0
108 147 0
105 145 0
110 148 0
107 146 0
107 146 0
104 144 0
107 146 0
106 145 0
108 146 0
110 147 0
106 145 0
106 145 0
108 146 0
108 146 0
108 147 0
111 148 0
108 147 0
108 146 0
109 147 0
106 145 0
107 146 0
108 146 0
108 146 0
109 147 0
105 145 0
107 146 0
108 146 0
103 143 0
109 147 0
108 146 0
108 147 0
108 146 0
108 147 0
109 147 0
104 144 0
108 147 0
107 146 0
107 146 0
111 148 0
106 145 0
109 147 0
108 147 0
108 147 0
111 148 0
113 150 0
105 145 0
105 145 0
107 146 0
107 146 0
107 146 0
107 146 0
106 145 0
108 146 0
107 146 0
108 147 0
110 148 0
108 146 0
107 146 0
107 146 0
106 145 0
111 148 0
105 145 0
106 145 0
111 148 0
112 149 0
106 145 0
108 146 0
108 146 0
109 147 0
105 145 0
106 146 0
106 145 0
108 146 0
108 146 0
106 145 0
107 146 0
109 147 0
107 146 0
111 148 0
107 146 0
115 150 0
107 146 0
105 145 0
106 146 0
106 145 0
108 147 0
106 146 0
109 147 0
107 146 0
107 146 0
109 147 0
109 147 0
106 145 0
106 145 0
108 147 0
106 145 0
110 148 0
104 144 0
107 146 0
107 146 0
114 150 0
109 147 0
107 146 0
108 146 0
107 146 0
107 146 0
105 144 0
105 145 0
111 148 0
104 144 0
108 147 0
104 144 0
106 145 0
107 146 0
108 147 0
106 145 0
109 147 0
108 146 0
107 146 0
110 147 0
108 146 0
107 146 0
111 148 0
105 145 0
108 146 0
107 146 0
107 146 0
110 148 0
110 148 0
107 146 0
113 150 0
108 147 0
108 147 0
107 146 0
107 146 0
109 147 0
110 148 0
109 147 0
109 147 0
109 147 0
107 146 0
104 144 0
107 146 0
107 146 0
108 147 0
106 145 0
107 146 0
106 145 0
106 145 0
106 145 0
108 147 0
108 147 0
108 147 0
106 145 0
111 148 0
109 147 0
106 146 0
106 145 0
105 145 0
108 147 0
105 145 0
109 147 0
111 148 0
109 147 0
113 149 0
108 146 0
105 145 0
109 147 0
108 146 0
109 147 0
107 146 0
109 147 0
109 147 0
108 146 0
108 147 0
107 146 0
107 146 0
107 146 0
108 146 0
107 146 0
108 146 0
107 146 0
107 146 0
104 144 0
108 146 0
110 148 0
108 147 0
107 146 0
111 148 0
107 146 0
107 146 0
106 145 0
110 147 0
107 146 0
110 148 0
107 146 0
110 148 0
107 146 0
106 145 0
106 146 0
111 148 0
112 149 0
106 145 0
113 149 0
109 147 0
107 146 0
112 149 0
108 147 0
113 150 0
110 148 0
112 149 0
107 146 0
108 147 0
109 147 0
106 145 0
105 145 0
108 147 0
108 146 0
107 146 0
106 145 0
108 147 0
109 147 0
108 147 0
109 147 0
106 145 0
109 147 0
107 146 0
110 148 0
108 147 0
106 145 0
108 147 0
107 146 0
109 147 0
105 145 0
110 148 0
111 148 0
109 147 0
111 148 0
107 146 0
103 144 0
106 145 0
108 147 0
108 147 0
108 146 0
113 150 0
109 147 0
107 146 0
108 147 0
109 147 0
110 148 0
107 146 0
105 145 0
106 145 0
107 146 0
105 145 0
104 144 0
106 145 0
108 146 0
109 147 0
108 146 0
111 148 0
107 146 0
109 147 0
106 145 0
111 148 0
108 147 0
108 146 0
106 145 0
110 148 0
105 145 0
107 146 0
107 146 0
108 146 0
108 146 0
106 145 0
108 146 0
113 149 0
107 146 0
108 146 0
106 145 0
113 150 0
109 147 0
105 145 0
105 145 0
107 146 0
111 148 0
111 148 0
107 146 0
110 147 0
108 147 0
111 149 0
107 146 0
105 145 0
108 146 0
106 146 0
111 148 0
112 149 0
112 149 0
106 146 0
108 147 0
108 147 0
106 145 0
110 148 0
110 148 0
107 146 0
111 148 0
109 147 0
108 146 0
111 148 0
109 147 0
110 148 0
108 147 0
105 145 0
106 146 0
108 146 0
108 146 0
109 147 0
111 148 0
109 147 0
107 146 0
111 148 0
106 145 0
108 147 0
110 147 0
106 145 0
109 147 0
108 147 0
111 149 0
108 147 0
108 146 0
111 148 0
111 149 0
108 147 0
105 145 0
105 145 0
113 150 0
107 146 0
108 146 0
107 146 0
107 146 0
109 147 0
108 146 0
105 145 0
107 146 0
105 145 0
106 146 0
111 148 0
108 147 0
106 145 0
107 146 0
106 145 0
106 145 0
109 147 0
105 144 0
105 145 0
111 148 0
105 145 0
108 147 0
105 145 0
106 146 0
108 146 0
105 145 0
104 144 0
110 148 0
109 147 0
107 146 0
111 148 0
110 148 0
112 149 0
107 146 0
108 147 0
111 148 0
105 144 0
108 147 0
110 148 0
107 146 0
109 147 0
110 148 0
112 149 0
107 146 0
109 147 0
106 145 0
107 146 0
106 145 0
109 147 0
107 146 0
109 147 0
108 147 0
105 145 0
107 146 0
104 144 0
105 144 0
110 148 0
106 145 0
109 147 0
108 146 0
107 146 0
112 149 0
106 145 0
111 148 0
106 145 0
109 147 0
111 148 0
108 147 0
107 146 0
109 147 0
107 146 0
109 147 0
106 145 0
107 146 0
104 144 0
109 147 0
107 146 0
110 148 0
108 147 0
107 146 0
106 145 0
109 147 0
108 146 0
107 146 0
106 145 0
106 145 0
110 148 0
112 149 0
104 144 0
105 145 0
107 146 0
108 147 0
107 146 0
108 146 0
107 146 0
107 146 0
108 146 0
107 146 0
106 145 0
108 146 0
110 148 0
108 147 0
104 144 0
111 149 0
107 146 0
107 146 0
109 147 0
108 147 0
104 144 0
106 145 0
107 146 0
108 147 0
108 146 0
105 145 0
107 146 0
104 144 0
103 143 0
109 147 0
110 148 0
106 145 0
108 146 0
108 146 0
108 147 0
108 147 0
112 149 0
106 145 0
109 147 0
106 145 0
105 145 0
109 147 0
106 145 0
112 149 0
108 147 0
105 145 0
105 145 0
104 144 0
105 145 0
109 147 0
107 146 0
107 146 0
108 147 0
107 146 0
109 147 0
109 147 0
109 147 0
109 147 0
107 146 0
106 145 0
107 146 0
107 146 0
106 145 0
107 146 0
110 148 0
107 146 0
112 149 0
110 148 0
108 146 0
108 146 0
108 146 0
104 144 0
107 146 0
113 149 0
110 148 0
107 146 0
110 148 0
105 145 0
107 146 0
111 149 0
114 150 0
108 146 0
104 144 0
109 147 0
108 146 0
105 145 0
108 146 0
106 145 0
109 147 0
108 147 0
109 147 0
109 147 0
111 148 0
112 149 0
107 146 0
108 147 0
112 149 0
109 147 0
107 146 0
112 149 0
106 145 0
109 147 0
110 148 0
108 147 0
107 146 0
109 147 0
107 146 0
109 147 0
107 146 0
109 147 0
108 147 0
114 150 0
106 145 0
107 146 0
107 146 0
106 146 0
106 145 0
107 146 0
110 148 0
104 144 0
108 147 0
105 145 0
109 147 0
110 148 0
104 144 0
105 145 0
107 146 0
109 147 0
105 145 0
108 147 0
105 145 0
106 146 0
109 147 0
109 147 0
108 147 0
104 144 0
108 146 0
112 149 0
105 145 0
112 149 0
107 146 0
110 148 0
109 147 0
109 147 0
106 145 0
106 145 0
111 148 0
105 145 0
108 146 0
107 146 0
113 149 0
108 146 0
105 145 0
107 146 0
106 145 0
108 146 0
109 147 0
110 148 0
108 147 0
110 147 0
110 148 0
108 146 0
110 147 0
109 147 0
109 147 0
109 147 0
105 145 0
107 146 0
107 146 0
107 146 0
107 146 0
110 148 0
107 146 0
112 149 0
109 147 0
107 146 0
111 149 0
112 149 0
111 148 0
106 145 0
107 146 0
110 148 0
108 147 0
109 147 0
107 146 0
108 146 0
109 147 0
110 148 0
106 145 0
114 150 0
109 147 0
111 148 0
111 148 0
114 150 0
106 145 0
106 145 0
111 148 0
105 145 0
108 147 0
109 147 0
107 146 0
104 144 0
111 148 0
108 147 0
103 144 0
110 147 0
108 147 0
106 145 0
110 148 0
111 148 0
109 147 0
110 148 0
106 145 0
106 145 0
106 145 0
112 149 0
105 144 0
107 146 0
111 148 0
104 144 0
107 146 0
108 147 0
107 146 0
105 145 0
106 145 0
106 145 0
110 148 0
108 147 0
108 147 0
107 146 0
106 145 0
104 144 0
109 147 0
111 148 0
106 146 0
110 147 0
111 148 0
109 147 0
107 146 0
109 147 0
106 145 0
112 149 0
110 148 0
106 145 0
112 149 0
111 149 0
107 146 0
107 146 0
105 145 0
108 146 0
108 146 0
108 147 0
108 146 0
111 148 0
108 147 0
112 149 0
108 146 0
111 148 0
111 148 0
107 146 0
111 148 0
109 147 0
107 146 0
111 148 0
104 144 0
106 145 0
109 147 0
111 149 0
110 148 0
110 148 0
112 149 0
107 146 0
108 147 0
107 146 0
107 146 0
105 145 0
109 147 0
109 147 0
109 147 0
111 148 0
110 147 0
106 145 0
106 145 0
110 148 0
105 145 0
110 148 0
110 148 0
104 144 0
107 146 0
110 148 0
109 147 0
112 149 0
107 146 0
113 149 0
109 147 0
112 149 0
109 147 0
106 145 0
111 148 0
106 145 0
111 148 0
108 147 0
110 148 0
111 148 0
106 145 0
110 148 0
107 146 0
111 149 0
107 146 0
106 145 0
111 148 0
106 145 0
113 149 0
108 146 0
105 145 0
106 145 0
109 147 0
106 145 0
105 145 0
108 147 0
105 144 0
114 150 0
109 147 0
111 148 0
104 144 0
111 148 0
105 145 0
109 147 0
111 149 0
111 148 0
110 148 0
107 146 0
110 148 0
108 147 0
110 148 0
105 144 0
105 145 0
109 147 0
107 146 0
109 147 0
106 145 0
110 147 0
109 147 0
112 149 0
107 146 0
108 147 0
111 148 0
104 144 0
109 147 0
108 146 0
107 146 0
106 145 0
110 148 0
107 146 0
104 144 0
107 146 0
105 145 0
113 149 0
109 147 0
104 144 0
105 145 0
106 145 0
106 145 0
107 146 0
110 148 0
110 148 0
107 146 0
107 146 0
107 146 0
105 145 0
106 145 0
109 147 0
104 144 0
104 144 0
106 145 0
105 145 0
107 146 0
104 144 0
108 147 0
107 146 0
106 145 0
106 145 0
104 144 0
108 146 0
109 147 0
112 149 0
109 147 0
107 146 0
114 150 0
104 144 0
105 145 0
107 146 0
107 146 0
109 147 0
107 146 0
108 146 0
109 147 0
108 146 0
110 148 0
112 149 0
110 147 0
105 145 0
109 147 0
108 147 0
108 146 0
106 145 0
108 146 0
107 146 0
110 148 0
106 145 0
112 149 0
110 148 0
104 144 0
104 144 0
112 149 0
105 144 0
105 145 0
108 146 0
108 146 0
105 145 0
107 146 0
112 149 0
103 143 0
110 148 0
108 147 0
107 146 0
110 148 0
108 146 0
112 149 0
107 146 0
105 145 0
105 145 0
110 148 0
112 149 0
108 147 0
107 146 0
106 145 0
109 147 0
106 145 0
108 147 0
113 150 0
108 146 0
108 146 0
109 147 0
108 147 0
107 146 0
104 144 0
107 146 0
105 145 0
111 148 0
107 146 0
109 147 0
113 150 0
113 150 0
109 147 0
107 146 0
105 145 0
112 149 0
107 146 0
109 147 0
111 148 0
108 147 0
106 145 0
109 147 0
113 150 0
110 147 0
105 145 0
110 148 0
109 147 0
105 145 0
109 147 0
110 148 0
108 147 0
108 146 0
107 146 0
110 148 0
110 148 0
108 147 0
104 144 0
105 145 0
113 149 0
112 149 0
104 144 0
108 147 0
110 148 0
104 144 0
108 147 0
106 145 0
109 147 0
109 147 0
108 147 0
108 147 0
103 144 0
107 146 0
108 147 0
108 147 0
108 147 0
110 148 0
105 145 0
111 148 0
110 148 0
105 145 0
110 148 0
111 148 0
113 149 0
106 145 0
104 144 0
108 147 0
104 144 0
107 146 0
109 147 0
109 147 0
108 147 0
108 147 0
107 146 0
113 149 0
108 146 0
111 149 0
107 146 0
106 145 0
108 146 0
109 147 0
108 147 0
106 146 0
109 147 0
108 146 0
106 146 0
111 148 0
107 146 0
107 146 0
105 144 0
107 146 0
109 147 0
106 145 0
112 149 0
106 145 0
106 145 0
106 145 0
106 146 0
112 149 0
108 146 0
107 146 0
109 147 0
106 146 0
108 147 0
108 147 0
106 145 0
108 147 0
111 148 0
104 144 0
106 145 0
109 147 0
107 146 0
106 145 0
109 147 0
108 146 0
108 146 0
110 148 0
109 147 0
105 145 0
110 148 0
105 145 0
107 146 0
109 147 0
114 150 0
107 146 0
108 146 0
107 146 0
106 145 0
106 145 0
108 146 0
110 148 0
106 145 0
110 148 0
107 146 0
108 147 0
110 148 0
111 148 0
108 146 0
109 147 0
107 146 0
108 146 0
113 149 0
106 145 0
110 148 0
109 147 0
108 146 0
107 146 0
109 147 0
107 146 0
109 147 0
110 148 0
107 146 0
108 146 0
109 147 0
112 149 0
110 148 0
109 147 0
109 147 0
109 147 0
105 145 0
109 147 0
109 147 0
110 148 0
106 145 0
108 147 0
108 146 0
107 146 0
104 144 0
108 146 0
105 144 0
104 144 0
104 144 0
105 145 0
111 148 0
108 146 0
107 146 0
105 145 0
114 150 0
107 146 0
106 145 0
108 147 0
114 150 0
112 149 0
109 147 0
113 149 0
103 144 0
110 148 0
106 145 0
108 147 0
105 145 0
112 149 0
106 145 0
109 147 0
107 146 0
104 144 0
108 147 0
109 147 0
109 147 0
107 146 0
108 147 0
109 147 0
108 147 0
106 146 0
109 147 0
105 145 0
105 145 0
108 146 0
104 144 0
107 146 0
110 147 0
110 148 0
110 148 0
107 146 0
111 148 0
109 147 0
105 145 0
107 146 0
108 147 0
106 145 0
108 147 0
108 146 0
107 146 0
110 148 0
108 146 0
111 148 0
112 149 0
109 147 0
107 146 0
103 144 0
114 150 0
108 147 0
108 147 0
104 144 0
106 145 0
105 144 0
110 148 0
108 147 0
108 146 0
110 148 0
114 150 0
108 147 0
107 146 0
111 148 0
111 148 0
112 149 0
107 146 0
108 146 0
105 145 0
107 146 0
109 147 0
108 147 0
110 147 0
107 146 0
105 145 0
115 150 0
106 145 0
107 146 0
106 145 0
107 146 0
106 145 0
113 150 0
112 149 0
109 147 0
107 146 0
112 149 0
113 150 0
108 147 0
112 149 0
108 146 0
110 148 0
107 146 0
108 146 0
106 145 0
107 146 0
108 147 0
110 147 0
111 148 0
108 147 0
112 149 0
106 145 0
104 144 0
107 146 0
107 146 0
112 149 0
105 145 0
111 148 0
112 149 0
107 146 0
111 148 0
105 145 0
107 146 0
109 147 0
106 145 0
110 148 0
107 146 0
109 147 0
110 148 0
106 145 0
107 146 0
104 144 0
109 147 0
108 147 0
110 148 0
110 148 0
114 150 0
105 145 0
111 148 0
105 145 0
112 149 0
105 144 0
109 147 0
103 143 0
106 145 0
111 148 0
110 148 0
107 146 0
106 145 0
113 149 0
104 144 0
108 147 0
110 147 0
107 146 0
108 147 0
110 148 0
109 147 0
106 146 0
112 149 0
104 144 0
105 145 0
104 144 0
110 148 0
105 145 0
109 147 0
110 147 0
111 148 0
108 147 0
107 146 0
109 147 0
108 146 0
110 148 0
108 147 0
104 144 0
107 146 0
106 145 0
111 149 0
108 146 0
110 148 0
104 144 0
112 149 0
106 145 0
107 146 0
112 149 0
105 145 0
112 149 0
109 147 0
112 149 0
107 146 0
104 144 0
110 147 0
107 146 0
108 146 0
107 146 0
109 147 0
104 144 0
109 147 0
108 146 0
110 148 0
105 144 0
111 148 0
114 150 0
107 146 0
104 144 0
108 146 0
105 145 0
110 148 0
105 145 0
105 144 0
111 148 0
107 146 0
109 147 0
111 148 0
111 148 0
108 147 0
109 147 0
103 144 0
106 145 0
105 145 0
110 148 0
111 148 0
105 145 0
106 145 0
110 148 0
109 147 0
108 146 0
106 145 0
107 146 0
111 148 0
104 144 0
112 149 0
108 146 0
111 148 0
105 145 0
110 148 0
106 146 0
105 145 0
106 146 0
106 145 0
108 147 0
107 146 0
111 149 0
106 145 0
106 146 0
107 146 0
108 146 0
105 145 0
110 147 0
107 146 0
107 146 0
105 145 0
107 146 0
107 146 0
107 146 0
105 145 0
109 147 0
106 145 0
110 148 0
103 144 0
107 146 0
108 147 0
109 147 0
106 145 0
109 147 0
106 145 0
105 145 0
106 145 0
113 150 0
107 146 0
109 147 0
105 145 0
107 146 0
106 145 0
107 146 0
111 149 0
106 145 0
106 145 0
107 146 0
112 149 0
107 146 0
106 145 0
106 145 0
109 147 0
112 149 0
108 147 0
107 146 0
106 145 0
104 144 0
110 148 0
106 145 0
109 147 0
109 147 0
107 146 0
107 146 0
103 144 0
108 146 0
109 147 0
108 147 0
109 147 0
108 147 0
107 146 0
109 147 0
106 145 0
108 147 0
104 144 0
107 146 0
111 148 0
108 147 0
110 147 0
107 146 0
108 146 0
113 149 0
112 149 0
109 147 0
109 147 0
110 148 0
108 147 0
107 146 0
105 145 0
108 147 0
105 145 0
107 146 0
107 146 0
108 147 0
109 147 0
110 148 0
106 145 0
106 145 0
112 149 0
110 148 0
110 148 0
109 147 0
106 145 0
111 148 0
107 146 0
105 144 0
108 147 0
107 146 0
108 147 0
103 143 0
105 145 0
108 146 0
107 146 0
112 149 0
107 146 0
106 145 0
109 147 0
112 149 0
109 147 0
111 148 0
109 147 0
105 145 0
105 145 0
108 146 0
107 146 0
105 145 0
111 148 0
110 148 0
112 149 0
109 147 0
108 147 0
109 147 0
106 145 0
112 149 0
111 148 0
104 144 0
106 145 0
108 147 0
106 145 0
104 144 0
108 147 0
108 147 0
110 148 0
104 144 0
109 147 0
106 145 0
108 146 0
109 147 0
105 145 0
113 150 0
107 146 0
105 145 0
111 148 0
106 145 0
110 148 0
106 145 0
106 145 0
110 148 0
110 148 0
106 145 0
108 147 0
109 147 0
111 148 0
108 147 0
109 147 0
105 144 0
107 146 0
107 146 0
111 148 0
106 145 0
107 146 0
112 149 0
109 147 0
106 145 0
106 145 0
109 147 0
107 146 0
105 145 0
103 144 0
109 147 0
112 149 0
105 145 0
110 148 0
109 147 0
111 148 0
110 148 0
111 148 0
112 149 0
108 147 0
105 144 0
109 147 0
106 145 0
108 146 0
109 147 0
107 146 0
108 146 0
112 149 0
108 146 0
114 150 0
108 146 0
107 146 0
105 145 0
108 146 0
105 145 0
108 147 0
105 145 0
107 146 0
107 146 0
108 147 0
108 146 0
109 147 0
109 147 0
109 147 0
111 148 0
109 147 0
108 147 0
109 147 0
107 146 0
105 145 0
110 148 0
106 145 0
105 145 0
113 149 0
115 150 0
106 145 0
108 147 0
105 145 0
104 144 0
107 146 0
110 148 0
107 146 0
107 146 0
109 147 0
111 148 0
108 146 0
106 145 0
109 147 0
107 146 0
109 147 0
112 149 0
108 147 0
105 145 0
108 147 0
107 146 0
107 146 0
106 145 0
105 145 0
104 144 0
106 145 0
108 147 0
106 145 0
112 149 0
111 148 0
109 147 0
105 144 0
109 147 0
109 147 0
107 146 0
108 147 0
109 147 0
107 146 0
111 148 0
109 147 0
109 147 0
115 151 0
109 147 0
106 145 0
108 146 0
112 149 0
108 147 0
112 149 0
114 150 0
111 148 0
105 145 0
107 146 0
106 145 0
113 149 0
105 145 0
110 148 0
109 147 0
106 146 0
105 145 0
105 145 0
108 147 0
108 147 0
109 147 0
107 146 0
107 146 0
105 145 0
109 147 0
107 146 0
104 144 0
106 145 0
108 147 0
107 146 0
112 149 0
107 146 0
110 148 0
106 145 0
106 145 0
108 147 0
105 145 0
104 144 0
106 145 0
110 147 0
109 147 0
107 146 0
108 147 0
105 145 0
106 145 0
105 145 0
109 147 0
107 146 0
107 146 0
107 146 0
106 145 0
102 143 0
106 145 0
106 145 0
105 145 0
108 147 0
105 145 0
107 146 0
107 146 0
107 146 0
113 149 0
111 148 0
103 144 0
105 144 0
106 145 0
110 148 0
103 144 0
106 146 0
105 145 0
105 145 0
107 146 0
106 145 0
104 144 0
109 147 0
107 146 0
106 145 0
108 146 0
105 144 0
115 151 0
106 145 0
106 146 0
107 146 0
108 147 0
106 145 0
105 145 0
105 145 0
112 149 0
105 145 0
107 146 0
107 146 0
112 149 0
110 148 0
107 146 0
109 147 0
104 144 0
110 148 0
106 145 0
110 148 0
106 146 0
109 147 0
110 148 0
107 146 0
108 147 0
106 146 0
105 145 0
106 146 0
109 147 0
114 150 0
111 148 0
107 146 0
105 144 0
108 146 0
111 149 0
106 145 0
108 147 0
110 148 0
105 145 0
105 145 0
108 146 0
108 147 0
112 149 0
109 147 0
105 145 0
107 146 0
105 145 0
110 148 0
105 145 0
108 146 0
104 144 0
107 146 0
108 146 0
106 145 0
110 147 0
106 145 0
107 146 0
107 146 0
107 146 0
110 148 0
108 146 0
108 147 0
108 146 0
107 146 0
105 145 0
111 148 0
109 147 0
108 146 0
105 144 0
109 147 0
105 144 0
110 148 0
110 148 0
107 146 0
113 150 0
108 146 0
108 147 0
108 146 0
109 147 0
108 147 0
105 144 0
113 149 0
114 150 0
106 145 0
108 147 0
105 145 0
109 147 0
107 146 0
111 148 0
106 145 0
105 145 0
103 143 0
112 149 0
106 146 0
108 147 0
108 146 0
106 145 0
107 146 0
106 146 0
108 147 0
106 146 0
108 147 0
108 146 0
108 147 0
105 145 0
105 144 0
111 148 0
107 146 0
105 144 0
113 149 0
109 147 0
105 145 0
109 147 0
109 147 0
110 148 0
109 147 0
108 147 0
108 146 0
109 147 0
109 147 0
106 145 0
109 147 0
107 146 0
106 146 0
104 144 0
108 146 0
108 147 0
112 149 0
107 146 0
107 146 0
107 146 0
110 147 0
107 146 0
109 147 0
111 149 0
106 145 0
105 145 0
107 146 0
104 144 0
106 145 0
108 147 0
108 147 0
109 147 0
110 148 0
109 147 0
108 147 0
105 145 0
109 147 0
108 147 0
108 147 0
107 146 0
107 146 0
109 147 0
109 147 0
111 148 0
104 144 0
112 149 0
108 146 0
108 147 0
112 149 0
110 148 0
108 146 0
110 148 0
107 146 0
107 146 0
107 146 0
108 146 0
105 145 0
107 146 0
111 148 0
110 148 0
105 145 0
112 149 0
109 147 0
110 148 0
104 144 0
107 146 0
108 146 0
106 146 0
109 147 0
104 144 0
109 147 0
107 146 0
107 146 0
110 148 0
111 149 0
108 146 0
107 146 0
111 148 0
109 147 0
110 148 0
108 147 0
108 146 0
108 146 0
107 146 0
107 146 0
109 147 0
110 148 0
106 145 0
110 147 0
111 148 0
107 146 0
108 147 0
109 147 0
108 147 0
104 144 0
108 147 0
108 146 0
107 146 0
106 146 0
110 148 0
107 146 0
104 144 0
109 147 0
111 148 0
108 146 0
109 147 0
105 145 0
109 147 0
110 147 0
105 145 0
115 151 0
113 149 0
108 147 0
105 145 0
109 147 0
104 144 0
110 148 0
108 146 0
107 146 0
115 151 0
107 146 0
104 144 0
108 146 0
110 148 0
108 147 0
106 145 0
107 146 0
107 146 0
110 148 0
110 148 0
109 147 0
111 148 0
109 147 0
108 147 0
110 148 0
105 145 0
111 149 0
110 147 0
111 148 0
104 144 0
108 147 0
106 145 0
106 146 0
110 148 0
107 146 0
112 149 0
109 147 0
108 146 0
107 146 0
109 147 0
113 149 0
109 147 0
105 145 0
109 147 0
108 146 0
108 147 0
106 146 0
111 148 0
112 149 0
105 145 0
108 146 0
113 149 0
109 147 0
108 147 0
109 147 0
107 146 0
108 147 0
107 146 0
110 148 0
113 150 0
107 146 0
110 148 0
107 146 0
105 145 0
106 146 0
107 146 0
111 148 0
105 145 0
108 147 0
106 145 0
108 147 0
110 148 0
114 150 0
109 147 0
109 147 0
113 149 0
107 146 0
112 149 0
108 146 0
108 147 0
108 147 0
109 147 0
108 147 0
105 145 0
108 146 0
108 147 0
109 147 0
110 148 0
107 146 0
109 147 0
106 145 0
107 146 0
110 147 0
109 147 0
112 149 0
107 146 0
106 146 0
110 148 0
107 146 0
109 147 0
111 148 0
106 146 0
109 147 0
106 145 0
111 149 0
108 147 0
108 147 0
106 145 0
108 147 0
112 149 0
108 147 0
108 146 0
112 149 0
108 146 0
105 145 0
113 150 0
108 146 0
105 145 0
105 144 0
108 147 0
106 146 0
105 145 0
104 144 0
107 146 0
108 146 0
105 144 0
108 146 0
108 146 0
108 146 0
108 146 0
109 147 0
107 146 0
108 146 0
107 146 0
108 146 0
106 145 0
108 146 0
113 149 0
107 146 0
104 144 0
109 147 0
109 147 0
106 146 0
110 147 0
109 147 0
112 149 0
110 148 0
107 146 0
105 145 0
106 145 0
105 144 0
106 145 0
107 146 0
107 146 0
108 147 0
107 146 0
109 147 0
108 146 0
107 146 0
106 145 0
105 145 0
112 149 0
106 145 0
105 145 0
106 145 0
106 145 0
107 146 0
107 146 0
106 145 0
110 148 0
112 149 0
106 145 0
108 147 0
107 146 0
107 146 0
112 149 0
107 146 0
112 149 0
109 147 0
111 149 0
109 147 0
105 145 0
108 147 0
111 148 0
111 148 0
107 146 0
105 145 0
107 146 0
110 148 0
109 147 0
106 145 0
109 147 0
108 147 0
109 147 0
105 145 0
105 145 0
110 148 0
106 145 0
105 145 0
109 147 0
107 146 0
109 147 0
110 148 0
104 144 0
105 145 0
107 146 0
106 145 0
104 144 0
108 146 0
106 146 0
105 145 0
110 148 0
107 146 0
108 146 0
109 147 0
110 148 0
110 148 0
106 145 0
109 147 0
107 146 0
109 147 0
108 146 0
111 148 0
105 145 0
107 146 0
104 144 0
108 147 0
108 147 0
108 147 0
110 148 0
111 148 0
107 146 0
110 148 0
109 147 0
109 147 0
106 145 0
109 147 0
107 146 0
110 148 0
106 146 0
103 144 0
107 146 0
111 148 0
106 145 0
104 144 0
109 147 0
117 152 0
111 148 0
107 146 0
109 147 0
107 146 0
109 147 0
105 144 0
104 144 0
106 146 0
106 145 0
105 145 0
112 149 0
109 147 0
108 146 0
104 144 0
108 147 0
111 148 0
106 145 0
109 147 0
108 146 0
108 146 0
107 146 0
113 149 0
109 147 0
107 146 0
109 147 0
107 146 0
107 146 0
112 149 0
107 146 0
108 146 0
108 146 0
106 145 0
105 145 0
108 146 0
111 148 0
109 147 0
112 149 0
109 147 0
110 148 0
108 147 0
109 147 0
110 148 0
109 147 0
106 146 0
108 147 0
106 145 0
109 147 0
106 146 0
107 146 0
110 148 0
107 146 0
107 146 0
108 146 0
107 146 0
109 147 0
104 144 0
106 145 0
106 146 0
108 146 0
107 146 0
109 147 0
103 144 0
108 147 0
110 148 0
112 149 0
110 148 0
106 145 0
106 145 0
108 147 0
108 146 0
110 148 0
112 149 0
108 146 0
104 144 0
109 147 0
106 145 0
106 145 0
106 146 0
106 145 0
111 148 0
108 146 0
109 147 0
105 145 0
104 144 0
109 147 0
108 147 0
106 145 0
106 145 0
113 150 0
107 146 0
109 147 0
108 146 0
108 147 0
110 148 0
106 145 0
105 145 0
105 144 0
109 147 0
107 146 0
108 146 0
109 147 0
109 147 0
107 146 0
111 148 0
107 146 0
112 149 0
110 147 0
109 147 0
108 146 0
111 148 0
110 148 0
112 149 0
109 147 0
110 148 0
110 148 0
106 146 0
107 146 0
107 146 0
106 145 0
109 147 0
111 148 0
110 148 0
108 147 0
108 146 0
110 148 0
109 147 0
107 146 0
108 146 0
106 145 0
109 147 0
104 144 0
111 149 0
110 148 0
112 149 0
108 146 0
106 145 0
108 147 0
107 146 0
107 146 0
110 148 0
106 146 0
107 146 0
110 148 0
111 148 0
107 146 0
109 147 0
110 147 0
113 149 0
105 145 0
114 150 0
104 144 0
111 148 0
107 146 0
108 146 0
109 147 0
107 146 0
108 147 0
111 148 0
109 147 0
108 146 0
109 147 0
106 145 0
106 146 0
105 145 0
110 148 0
111 148 0
106 146 0
108 147 0
111 148 0
106 145 0
108 147 0
106 145 0
109 147 0
109 147 0
108 147 0
108 147 0
107 146 0
105 144 0
108 146 0
109 147 0
109 147 0
109 147 0
108 146 0
106 145 0
110 148 0
110 148 0
113 150 0
110 147 0
104 144 0
110 148 0
111 148 0
112 149 0
108 147 0
108 147 0
110 148 0
108 146 0
112 149 0
107 146 0
106 146 0
107 146 0
109 147 0
109 147 0
109 147 0
106 146 0
115 150 0
109 147 0
106 145 0
106 145 0
109 147 0
108 147 0
109 147 0
112 149 0
113 149 0
106 145 0
107 146 0
107 146 0
108 146 0
111 149 0
110 147 0
107 146 0
105 145 0
110 148 0
108 147 0
110 147 0
109 147 0
107 146 0
108 147 0
111 148 0
107 146 0
106 145 0
107 146 0
110 148 0
112 149 0
110 148 0
106 146 0
111 148 0
111 149 0
107 146 0
116 152 0
108 146 0
109 147 0
107 146 0
105 144 0
112 149 0
110 148 0
112 149 0
108 147 0
109 147 0
107 146 0
110 148 0
111 148 0
111 148 0
109 147 0
106 145 0
111 148 0
107 146 0
108 147 0
109 147 0
105 145 0
109 147 0
107 146 0
107 146 0
111 148 0
107 146 0
109 147 0
111 148 0
109 147 0
112 149 0
112 149 0
103 144 0
108 146 0
104 144 0
111 148 0
108 147 0
106 145 0
105 145 0
112 149 0
108 146 0
106 146 0
109 147 0
104 144 0
105 145 0
107 146 0
105 145 0
107 146 0
105 145 0
106 145 0
108 147 0
110 148 0
107 146 0
106 146 0
107 146 0
106 145 0
111 148 0
105 145 0
105 145 0
108 146 0
108 147 0
110 148 0
105 145 0
108 147 0
104 144 0
107 146 0
106 146 0
108 147 0
106 145 0
107 146 0
108 146 0
109 147 0
107 146 0
110 148 0
112 149 0
109 147 0
107 146 0
105 145 0
108 147 0
108 146 0
111 148 0
106 145 0
106 146 0
105 145 0
105 145 0
109 147 0
107 146 0
108 147 0
105 145 0
109 147 0
109 147 0
109 147 0
108 147 0
105 145 0
110 147 0
111 148 0
106 146 0
108 146 0
107 146 0
105 145 0
109 147 0
108 146 0
109 147 0
109 147 0
109 147 0
110 148 0
114 150 0
109 147 0
108 146 0
106 145 0
111 149 0
108 146 0
105 145 0
106 145 0
106 145 0
110 147 0
107 146 0
108 147 0
111 149 0
109 147 0
106 146 0
108 146 0
107 146 0
109 147 0
107 146 0
106 145 0
110 148 0
105 145 0
110 147 0
111 148 0
106 145 0
107 146 0
108 146 0
106 145 0
106 146 0
110 148 0
108 147 0
107 146 0
108 147 0
107 146 0
106 145 0
107 146 0
106 145 0
107 146 0
105 144 0
108 146 0
106 145 0
109 147 0
105 145 0
106 146 0
111 148 0
107 146 0
108 146 0
108 147 0
107 146 0
107 146 0
110 148 0
105 145 0
104 144 0
109 147 0
106 145 0
108 147 0
107 146 0
112 149 0
109 147 0
105 145 0
107 146 0
104 144 0
109 147 0
109 147 0
108 147 0
108 147 0
108 147 0
104 144 0
110 148 0
104 144 0
105 145 0
107 146 0
107 146 0
107 146 0
110 148 0
106 146 0
109 147 0
106 146 0
112 149 0
110 148 0
109 147 0
109 147 0
104 144 0
108 146 0
107 146 0
109 147 0
103 143 0
106 145 0
111 149 0
107 146 0
110 147 0
106 145 0
107 146 0
111 148 0
103 143 0
108 146 0
104 144 0
110 148 0
104 144 0
106 145 0
109 147 0
109 147 0
108 146 0
104 144 0
114 150 0
111 148 0
109 147 0
105 145 0
106 145 0
106 145 0
107 146 0
108 147 0
111 148 0
108 147 0
108 147 0
108 146 0
107 146 0
109 147 0
108 146 0
111 148 0
108 146 0
106 145 0
108 147 0
111 148 0
107 146 0
108 147 0
112 149 0
105 145 0
112 149 0
111 148 0
108 147 0
113 149 0
106 146 0
108 146 0
106 145 0
109 147 0
105 145 0
114 150 0
106 145 0
107 146 0
107 146 0
107 146 0
107 146 0
107 146 0
109 147 0
108 146 0
109 147 0
103 144 0
111 148 0
109 147 0
110 148 0
106 145 0
109 147 0
108 146 0
107 146 0
109 147 0
108 147 0
109 147 0
104 144 0
106 145 0
107 146 0
106 145 0
111 148 0
103 144 0
108 146 0
103 144 0
110 148 0
111 148 0
108 147 0
109 147 0
110 148 0
106 145 0
105 145 0
115 151 0
104 144 0
104 144 0
114 150 0
109 147 0
109 147 0
108 147 0
108 147 0
108 147 0
109 147 0
109 147 0
107 146 0
108 147 0
104 144 0
106 145 0
108 147 0
109 147 0
106 146 0
103 144 0
111 148 0
108 146 0
108 146 0
110 147 0
109 147 0
110 148 0
108 147 0
107 146 0
108 147 0
109 147 0
110 148 0
110 147 0
109 147 0
111 148 0
110 147 0
109 147 0
107 146 0
105 145 0
108 146 0
105 145 0
109 147 0
107 146 0
112 149 0
105 145 0
112 149 0
108 147 0
111 148 0
114 150 0
109 147 0
111 149 0
113 150 0
107 146 0
108 146 0
110 147 0
113 149 0
109 147 0
108 146 0
108 147 0
108 146 0
112 149 0
108 147 0
108 146 0
109 147 0
105 145 0
106 145 0
108 146 0
106 146 0
106 145 0
106 146 0
109 147 0
111 148 0
105 145 0
108 147 0
111 148 0
104 144 0
110 148 0
107 146 0
108 146 0
106 145 0
110 148 0
109 147 0
109 147 0
108 147 0
109 147 0
111 148 0
108 146 0
111 148 0
109 147 0
106 145 0
109 147 0
108 147 0
109 147 0
111 149 0
108 146 0
109 147 0
107 146 0
105 145 0
108 147 0
107 146 0
111 148 0
109 147 0
109 147 0
109 147 0
109 147 0
109 147 0
109 147 0
112 149 0
107 146 0
106 145 0
107 146 0
105 145 0
108 147 0
107 146 0
109 147 0
106 145 0
108 146 0
108 147 0
108 147 0
106 145 0
107 146 0
104 144 0
109 147 0
108 147 0
106 145 0
109 147 0
109 147 0
107 146 0
109 147 0
109 147 0
110 148 0
108 147 0
109 147 0
107 146 0
106 146 0
107 146 0
110 148 0
109 147 0
104 144 0
108 146 0
111 148 0
107 146 0
109 147 0
109 147 0
106 145 0
106 146 0
108 147 0
104 144 0
109 147 0
112 149 0
112 149 0
107 146 0
112 149 0
107 146 0
114 150 0
110 148 0
106 145 0
109 147 0
106 145 0
106 146 0
107 146 0
108 146 0
105 145 0
104 144 0
106 145 0
107 146 0
110 147 0
107 146 0
112 149 0
106 145 0
108 146 0
106 145 0
110 148 0
107 146 0
107 146 0
108 147 0
111 148 0
105 145 0
104 144 0
107 146 0
107 146 0
104 144 0
107 146 0
104 144 0
108 147 0
105 145 0
104 144 0
106 145 0
106 145 0
108 147 0
107 146 0
108 146 0
105 145 0
106 145 0
112 149 0
107 146 0
110 148 0
107 146 0
109 147 0
106 145 0
109 147 0
105 145 0
113 149 0
107 146 0
108 147 0
110 148 0
107 146 0
108 146 0
108 146 0
109 147 0
108 147 0
103 144 0
108 147 0
108 146 0
108 146 0
107 146 0
111 149 0
109 147 0
106 145 0
109 147 0
107 146 0
106 145 0
109 147 0
106 145 0
110 148 0
108 147 0
112 149 0
107 146 0
104 144 0
104 144 0
109 147 0
107 146 0
107 146 0
108 147 0
110 148 0
107 146 0
108 146 0
107 146 0
108 147 0
106 145 0
107 146 0
107 146 0
107 146 0
110 148 0
107 146 0
106 145 0
113 149 0
107 146 0
109 147 0
107 146 0
107 146 0
106 145 0
110 148 0
107 146 0
110 147 0
109 147 0
112 149 0
108 147 0
110 147 0
109 147 0
105 145 0
108 147 0
106 146 0
110 147 0
107 146 0
109 147 0
107 146 0
107 146 0
106 145 0
108 146 0
108 146 0
105 145 0
111 149 0
106 146 0
112 149 0
103 144 0
110 148 0
106 145 0
107 146 0
113 150 0
105 145 0
104 144 0
110 148 0
109 147 0
105 145 0
107 146 0
109 147 0
107 146 0
110 148 0
106 145 0
107 146 0
107 146 0
108 146 0
106 145 0
108 147 0
106 145 0
107 146 0
106 145 0
110 148 0
112 149 0
110 147 0
104 144 0
105 145 0
106 145 0
109 147 0
106 145 0
105 145 0
110 148 0
110 147 0
104 144 0
108 146 0
107 146 0
106 145 0
108 146 0
107 146 0
105 145 0
111 148 0
109 147 0
107 146 0
110 148 0
108 146 0
105 145 0
109 147 0
112 149 0
107 146 0
113 149 0
104 144 0
109 147 0
111 148 0
106 146 0
107 146 0
106 145 0
104 144 0
105 145 0
111 148 0
112 149 0
108 147 0
107 146 0
108 147 0
106 145 0
109 147 0
109 147 0
109 147 0
113 149 0
107 146 0
107 146 0
106 145 0
106 145 0
104 144 0
110 148 0
110 148 0
111 148 0
109 147 0
107 146 0
106 145 0
106 145 0
107 146 0
108 147 0
108 146 0
109 147 0
111 148 0
112 149 0
108 147 0
106 146 0
111 148 0
109 147 0
108 146 0
109 147 0
106 146 0
107 146 0
105 144 0
110 147 0
108 147 0
111 148 0
110 148 0
105 145 0
106 145 0
107 146 0
108 147 0
107 146 0
106 145 0
108 147 0
114 150 0
109 147 0
105 145 0
105 145 0
106 145 0
112 149 0
108 147 0
106 145 0
107 146 0
107 146 0
106 145 0
108 147 0
105 145 0
107 146 0
107 146 0
108 147 0
108 146 0
110 148 0
107 146 0
112 149 0
104 144 0
107 146 0
112 149 0
112 149 0
108 146 0
109 147 0
107 146 0
108 147 0
108 147 0
112 149 0
106 146 0
107 146 0
109 147 0
108 146 0
107 146 0
111 149 0
111 148 0
104 144 0
108 146 0
105 145 0
112 149 0
106 145 0
109 147 0
107 146 0
106 146 0
108 147 0
108 147 0
108 146 0
105 144 0
114 150 0
109 147 0
112 149 0
108 146 0
110 147 0
108 146 0
109 147 0
107 146 0
106 145 0
105 145 0
106 146 0
108 147 0
109 147 0
112 149 0
110 148 0
109 147 0
105 145 0
111 148 0
108 146 0
108 146 0
112 149 0
114 150 0
105 145 0
105 145 0
106 145 0
107 146 0
107 146 0
109 147 0
104 144 0
108 147 0
110 148 0
107 146 0
106 145 0
109 147 0
109 147 0
107 146 0
108 146 0
108 146 0
105 145 0
104 144 0
108 147 0
112 149 0
107 146 0
103 143 0
111 148 0
107 146 0
108 147 0
110 147 0
107 146 0
111 148 0
111 148 0
110 148 0
107 146 0
105 145 0
107 146 0
109 147 0
104 144 0
110 148 0
111 149 0
113 149 0
109 147 0
109 147 0
106 145 0
107 146 0
110 148 0
107 146 0
111 148 0
109 147 0
107 146 0
107 146 0
107 146 0
107 146 0
108 147 0
112 149 0
106 145 0
109 147 0
108 146 0
108 147 0
111 148 0
107 146 0
108 147 0
107 146 0
110 148 0
108 147 0
113 150 0
110 148 0
110 147 0
110 148 0
113 150 0
108 146 0
105 145 0
109 147 0
106 145 0
109 147 0
106 146 0
112 149 0
105 145 0
113 149 0
110 148 0
111 148 0
108 146 0
108 146 0
105 145 0
108 147 0
110 148 0
110 148 0
106 145 0
106 145 0
106 145 0
105 145 0
108 146 0
106 145 0
107 146 0
108 147 0
108 147 0
105 145 0
110 147 0
106 145 0
107 146 0
106 145 0
113 149 0
108 146 0
110 148 0
109 147 0
107 146 0
108 147 0
105 145 0
107 146 0
107 146 0
106 145 0
104 144 0
107 146 0
106 146 0
109 147 0
111 148 0
105 145 0
111 149 0
108 146 0
112 149 0
108 146 0
111 149 0
113 149 0
107 146 0
105 145 0
105 145 0
107 146 0
106 145 0
105 144 0
107 146 0
107 146 0
110 148 0
107 146 0
109 147 0
108 147 0
105 145 0
107 146 0
105 145 0
110 148 0
111 148 0
113 149 0
111 148 0
106 145 0
109 147 0
111 148 0
108 146 0
108 147 0
110 147 0
108 146 0
110 147 0
108 147 0
107 146 0
109 147 0
109 147 0
107 146 0
107 146 0
106 146 0
106 145 0
107 146 0
113 150 0
108 146 0
111 149 0
106 145 0
107 146 0
110 147 0
108 146 0
108 147 0
111 148 0
110 148 0
106 146 0
110 148 0
105 145 0
111 148 0
106 145 0
106 145 0
109 147 0
105 145 0
105 145 0
106 145 0
109 147 0
105 145 0
106 145 0
105 145 0
107 146 0
108 147 0
106 145 0
106 145 0
105 144 0
111 148 0
108 147 0
107 146 0
108 147 0
111 148 0
107 146 0
103 144 0
108 146 0
111 148 0
111 148 0
111 148 0
107 146 0
109 147 0
110 147 0
108 147 0
110 148 0
109 147 0
107 146 0
104 144 0
107 146 0
107 146 0
113 150 0
104 144 0
109 147 0
104 144 0
105 145 0
107 146 0
110 148 0
106 145 0
105 145 0
104 144 0
109 147 0
106 145 0
109 147 0
108 146 0
108 146 0
106 145 0
109 147 0
106 145 0
106 145 0
107 146 0
110 148 0
109 147 0
106 145 0
107 146 0
110 148 0
106 145 0
103 144 0
106 145 0
106 146 0
107 146 0
110 148 0
110 148 0
109 147 0
106 145 0
112 149 0
104 144 0
106 145 0
106 145 0
106 146 0
109 147 0
108 146 0
107 146 0
110 148 0
111 148 0
106 145 0
107 146 0
110 147 0
105 145 0
104 144 0
108 146 0
111 149 0
107 146 0
105 145 0
109 147 0
110 147 0
107 146 0
113 149 0
107 146 0
104 144 0
111 148 0
106 145 0
106 145 0
107 146 0
107 146 0
110 148 0
104 144 0
108 147 0
104 144 0
109 147 0
106 145 0
108 146 0
106 145 0
109 147 0
111 149 0
109 147 0
106 145 0
109 147 0
107 146 0
107 146 0
107 146 0
111 148 0
107 146 0
108 147 0
104 144 0
107 146 0
106 145 0
109 147 0
108 147 0
108 147 0
108 146 0
113 150 0
107 146 0
108 146 0
114 150 0
107 146 0
108 147 0
110 148 0
111 148 0
105 145 0
107 146 0
107 146 0
106 145 0
107 146 0
103 144 0
106 145 0
111 148 0
107 146 0
109 147 0
108 147 0
112 149 0
108 146 0
108 146 0
111 148 0
110 148 0
109 147 0
110 147 0
110 148 0
111 148 0
108 147 0
107 146 0
105 145 0
107 146 0
109 147 0
106 145 0
107 146 0
107 146 0
108 147 0
107 146 0
107 146 0
110 148 0
104 144 0
106 145 0
108 147 0
106 145 0
110 148 0
110 148 0
107 146 0
110 148 0
109 147 0
111 148 0
108 146 0
109 147 0
109 147 0
107 146 0
106 145 0
106 145 0
107 146 0
107 146 0
107 146 0
104 144 0
107 146 0
110 148 0
106 145 0
104 144 0
110 148 0
109 147 0
107 146 0
105 145 0
107 146 0
114 150 0
105 145 0
108 146 0
110 147 0
108 146 0
110 148 0
109 147 0
106 145 0
107 146 0
111 148 0
109 147 0
110 148 0
108 146 0
108 146 0
111 148 0
107 146 0
109 147 0
106 146 0
107 146 0
106 145 0
106 145 0
105 144 0
109 147 0
113 150 0
107 146 0
106 145 0
110 148 0
108 147 0
115 151 0
104 144 0
111 148 0
109 147 0
111 148 0
105 145 0
109 147 0
107 146 0
106 145 0
108 146 0
108 146 0
108 147 0
108 146 0
107 146 0
109 147 0
107 146 0
106 145 0
110 148 0
109 147 0
104 144 0
105 145 0
107 146 0
105 145 0
111 148 0
108 147 0
104 144 0
108 147 0
111 148 0
108 147 0
105 145 0
107 146 0
107 146 0
112 149 0
107 146 0
110 148 0
110 148 0
107 146 0
106 145 0
111 148 0
109 147 0
108 147 0
107 146 0
107 146 0
108 146 0
110 147 0
110 148 0
106 145 0
110 148 0
107 146 0
108 146 0
111 148 0
107 146 0
109 147 0
110 148 0
108 147 0
109 147 0
106 145 0
111 148 0
111 148 0
106 145 0
106 146 0
105 145 0
110 147 0
108 147 0
107 146 0
106 145 0
110 148 0
109 147 0
111 149 0
109 147 0
111 148 0
108 147 0
108 147 0
110 148 0
109 147 0
107 146 0
109 147 0
106 145 0
107 146 0
111 148 0
109 147 0
114 150 0
105 145 0
113 149 0
107 146 0
111 148 0
112 149 0
110 148 0
108 146 0
107 146 0
110 148 0
111 149 0
106 145 0
108 147 0
109 147 0
105 145 0
106 145 0
109 147 0
104 144 0
105 145 0
109 147 0
107 146 0
108 146 0
112 149 0
107 146 0
110 148 0
106 145 0
108 146 0
106 146 0
106 145 0
104 144 0
104 144 0
106 145 0
105 145 0
108 146 0
105 145 0
111 148 0
109 147 0
107 146 0
109 147 0
104 144 0
104 144 0
108 146 0
110 147 0
107 146 0
105 145 0
106 146 0
109 147 0
105 145 0
107 146 0
110 147 0
110 148 0
108 146 0
108 146 0
113 149 0
106 146 0
105 145 0
105 145 0
109 147 0
108 147 0
106 145 0
104 144 0
109 147 0
106 145 0
106 145 0
107 146 0
108 146 0
110 147 0
111 149 0
107 146 0
110 148 0
108 147 0
107 146 0
107 146 0
108 146 0
107 146 0
105 145 0
106 146 0
108 146 0
107 146 0
105 145 0
111 148 0
108 147 0
104 144 0
108 147 0
107 146 0
110 148 0
111 148 0
104 144 0
106 146 0
105 145 0
106 145 0
109 147 0
106 145 0
107 146 0
104 144 0
110 147 0
107 146 0
112 149 0
110 148 0
109 147 0
104 144 0
111 149 0
106 146 0
106 145 0
108 146 0
110 148 0
108 146 0
105 145 0
108 146 0
111 148 0
103 143 0
112 149 0
109 147 0
107 146 0
107 146 0
110 148 0
106 146 0
108 147 0
110 148 0
107 146 0
108 147 0
109 147 0
104 144 0
110 148 0
109 147 0
110 148 0
111 148 0
109 147 0
108 147 0
107 146 0
107 146 0
111 148 0
104 144 0
106 146 0
106 145 0
105 145 0
106 145 0
105 145 0
108 147 0
108 147 0
114 150 0
107 146 0
106 145 0
108 146 0
106 146 0
107 146 0
112 149 0
109 147 0
106 145 0
106 146 0
109 147 0
108 146 0
109 147 0
108 146 0
112 149 0
107 146 0
106 145 0
108 146 0
105 145 0
108 147 0
106 145 0
105 144 0
103 143 0
109 147 0
108 147 0
108 146 0
108 147 0
108 147 0
106 146 0
108 147 0
107 146 0
106 145 0
105 145 0
106 146 0
112 149 0
110 148 0
107 146 0
108 147 0
106 145 0
106 145 0
104 144 0
113 149 0
106 145 0
107 146 0
107 146 0
108 147 0
107 146 0
111 149 0
108 146 0
106 146 0
110 148 0
108 146 0
105 145 0
112 149 0
107 146 0
110 148 0
108 146 0
104 144 0
107 146 0
108 146 0
110 148 0
107 146 0
107 146 0
111 148 0
107 146 0
109 147 0
108 146 0
108 147 0
110 148 0
107 146 0
107 146 0
112 149 0
110 148 0
109 147 0
108 146 0
106 145 0
107 146 0
109 147 0
107 146 0
108 146 0
110 148 0
109 147 0
108 147 0
107 146 0
111 148 0
108 147 0
107 146 0
109 147 0
109 147 0
110 148 0
107 146 0
106 145 0
107 146 0
105 144 0
107 146 0
107 146 0
109 147 0
109 147 0
108 147 0
106 145 0
107 146 0
110 148 0
108 146 0
109 147 0
112 149 0
108 146 0
106 145 0
106 145 0
104 144 0
106 146 0
112 149 0
108 147 0
105 144 0
110 148 0
106 146 0
106 145 0
109 147 0
105 145 0
109 147 0
109 147 0
106 145 0
109 147 0
110 148 0
107 146 0
110 148 0
105 144 0
112 149 0
106 145 0
106 145 0
107 146 0
108 146 0
107 146 0
106 145 0
106 145 0
112 149 0
108 147 0
110 148 0
108 147 0
109 147 0
104 144 0
109 147 0
112 149 0
108 146 0
105 145 0
105 145 0
106 146 0
106 145 0
107 146 0
108 146 0
108 146 0
112 149 0
110 148 0
108 146 0
107 146 0
109 147 0
107 146 0
105 145 0
107 146 0
109 147 0
107 146 0
108 146 0
106 146 0
108 147 0
112 149 0
102 143 0
109 147 0
106 145 0
105 145 0
105 145 0
109 147 0
106 145 0
107 146 0
108 147 0
107 146 0
110 148 0
111 148 0
108 146 0
106 145 0
107 146 0
106 146 0
109 147 0
109 147 0
104 144 0
104 144 0
109 147 0
106 146 0
110 148 0
109 147 0
105 144 0
109 147 0
108 146 0
108 147 0
106 145 0
107 146 0
110 147 0
109 147 0
110 148 0
110 148 0
107 146 0
104 144 0
107 146 0
109 147 0
110 147 0
106 145 0
108 146 0
108 147 0
106 145 0
106 146 0
107 146 0
108 147 0
108 147 0
106 145 0
105 145 0
109 147 0
108 146 0
110 148 0
109 147 0
110 148 0
108 146 0
110 147 0
108 146 0
112 149 0
113 150 0
106 145 0
112 149 0
105 145 0
110 148 0
109 147 0
110 148 0
105 145 0
107 146 0
112 149 0
108 146 0
108 146 0
106 145 0
107 146 0
107 146 0
105 145 0
109 147 0
112 149 0
112 149 0
111 148 0
110 148 0
108 147 0
106 146 0
108 147 0
105 145 0
107 146 0
105 145 0
112 149 0
111 149 0
106 145 0
107 146 0
113 149 0
106 146 0
111 149 0
107 146 0
111 149 0
112 149 0
113 150 0
108 147 0
110 148 0
113 149 0
108 147 0
106 145 0
109 147 0
105 145 0
112 149 0
108 146 0
110 148 0
116 151 0
110 148 0
107 146 0
107 146 0
112 149 0
106 145 0
109 147 0
108 146 0
108 147 0
107 146 0
110 148 0
104 144 0
104 144 0
107 146 0
108 147 0
108 146 0
108 146 0
108 147 0
108 146 0
107 146 0
109 147 0
108 147 0
107 146 0
106 145 0
109 147 0
110 148 0
108 146 0
105 145 0
104 144 0
108 146 0
109 147 0
108 147 0
106 145 0
106 145 0
111 148 0
109 147 0
110 148 0
109 147 0
107 146 0
108 146 0
108 146 0
113 149 0
106 145 0
110 148 0
105 145 0
110 148 0
109 147 0
105 145 0
105 145 0
108 146 0
109 147 0
107 146 0
109 147 0
107 146 0
106 146 0
108 147 0
107 146 0
110 147 0
106 145 0
107 146 0
107 146 0
110 148 0
110 148 0
104 144 0
108 146 0
109 147 0
109 147 0
110 148 0
107 146 0
109 147 0
108 147 0
106 145 0
106 145 0
106 146 0
108 146 0
111 148 0
107 146 0
109 147 0
107 146 0
107 146 0
113 149 0
113 149 0
109 147 0
112 149 0
107 146 0
107 146 0
109 147 0
109 147 0
111 148 0
108 147 0
105 145 0
109 147 0
105 144 0
103 144 0
110 148 0
110 148 0
103 143 0
107 146 0
103 144 0
107 146 0
106 145 0
105 145 0
110 148 0
108 146 0
109 147 0
108 146 0
109 147 0
109 147 0
108 146 0
109 147 0
112 149 0
107 146 0
104 144 0
107 146 0
105 145 0
108 146 0
107 146 0
106 145 0
106 145 0
106 145 0
109 147 0
105 144 0
108 147 0
104 144 0
107 146 0
107 146 0
108 147 0
109 147 0
103 144 0
109 147 0
110 148 0
105 145 0
104 144 0
108 147 0
107 146 0
111 148 0
109 147 0
108 147 0
105 144 0
113 149 0
107 146 0
109 147 0
108 146 0
106 145 0
108 147 0
103 144 0
109 147 0
107 146 0
107 146 0
105 145 0
107 146 0
108 146 0
107 146 0
106 145 0
105 145 0
109 147 0
105 145 0
106 145 0
108 147 0
105 145 0
106 145 0
109 147 0
108 146 0
108 147 0
106 145 0
107 146 0
107 146 0
109 147 0
110 148 0
108 146 0
113 150 0
109 147 0
107 146 0
109 147 0
105 145 0
106 145 0
108 147 0
108 146 0
112 149 0
109 147 0
109 147 0
108 146 0
110 148 0
110 148 0
106 145 0
109 147 0
105 145 0
108 147 0
107 146 0
107 146 0
111 148 0
107 146 0
111 148 0
110 147 0
108 147 0
105 145 0
109 147 0
107 146 0
108 147 0
108 147 0
105 144 0
110 147 0
107 146 0
107 146 0
109 147 0
113 149 0
108 147 0
110 148 0
106 146 0
111 148 0
108 147 0
109 147 0
114 150 0
106 145 0
104 144 0
108 146 0
108 146 0
111 148 0
105 145 0
109 147 0
108 146 0
106 146 0
110 148 0
104 144 0
110 148 0
108 147 0
111 148 0
105 145 0
106 145 0
108 147 0
108 146 0
108 147 0
106 145 0
108 146 0
112 149 0
114 150 0
104 144 0
109 147 0
109 147 0
108 146 0
108 147 0
109 147 0
106 145 0
107 146 0
109 147 0
111 148 0
105 145 0
107 146 0
109 147 0
108 146 0
110 148 0
111 148 0
110 147 0
109 147 0
106 145 0
108 147 0
109 147 0
111 148 0
109 147 0
104 144 0
105 145 0
109 147 0
106 145 0
110 148 0
106 146 0
107 146 0
107 146 0
109 147 0
109 147 0
108 146 0
109 147 0
107 146 0
110 148 0
109 147 0
110 148 0
111 148 0
102 143 0
108 147 0
108 146 0
107 146 0
107 146 0
110 148 0
107 146 0
110 148 0
106 146 0
105 145 0
106 146 0
106 145 0
111 148 0
109 147 0
105 145 0
115 150 0
109 147 0
105 145 0
108 146 0
108 146 0
110 148 0
113 149 0
109 147 0
110 148 0
108 147 0
105 145 0
110 148 0
111 148 0
109 147 0
108 146 0
114 150 0
109 147 0
110 148 0
110 148 0
110 148 0
106 145 0
107 146 0
106 145 0
107 146 0
108 147 0
111 148 0
104 144 0
110 148 0
110 148 0
117 152 0
109 147 0
107 146 0
106 145 0
106 145 0
111 148 0
106 145 0
113 150 0
109 147 0
110 148 0
108 146 0
112 149 0
104 144 0
109 147 0
108 147 0
112 149 0
109 147 0
106 145 0
110 148 0
107 146 0
111 148 0
108 147 0
107 146 0
107 146 0
108 146 0
108 147 0
106 146 0
104 144 0
111 148 0
106 145 0
113 150 0
108 147 0
113 149 0
107 146 0
107 146 0
110 147 0
109 147 0
110 148 0
116 152 0
111 148 0
105 145 0
105 144 0
107 146 0
105 145 0
106 146 0
106 145 0
110 148 0
112 149 0
114 150 0
105 145 0
111 148 0
109 147 0
108 147 0
111 148 0
112 149 0
109 147 0
104 144 0
111 148 0
108 146 0
112 149 0
109 147 0
108 146 0
108 146 0
107 146 0
106 145 0
108 147 0
107 146 0
113 150 0
103 143 0
108 147 0
106 145 0
110 148 0
109 147 0
107 146 0
107 146 0
108 146 0
108 147 0
110 148 0
107 146 0
108 147 0
108 146 0
108 146 0
109 147 0
109 147 0
108 146 0
107 146 0
109 147 0
109 147 0
108 147 0
107 146 0
108 146 0
108 147 0
108 146 0
111 148 0
108 146 0
110 147 0
106 145 0
111 148 0
106 145 0
105 144 0
108 146 0
104 144 0
110 148 0
105 145 0
107 146 0
107 146 0
113 149 0
106 145 0
105 145 0
106 145 0
109 147 0
109 147 0
106 145 0
111 148 0
106 145 0
107 146 0
108 147 0
110 148 0
105 145 0
107 146 0
105 145 0
106 146 0
109 147 0
105 145 0
106 145 0
108 146 0
106 145 0
105 145 0
104 144 0
114 150 0
108 147 0
107 146 0
107 146 0
113 150 0
106 146 0
106 145 0
110 148 0
104 144 0
106 145 0
103 144 0
108 146 0
106 146 0
106 145 0
107 146 0
109 147 0
108 146 0
106 145 0
107 146 0
109 147 0
107 146 0
109 147 0
110 148 0
106 145 0
110 148 0
108 147 0
110 148 0
108 146 0
106 145 0
109 147 0
104 144 0
110 148 0
109 147 0
107 146 0
110 148 0
107 146 0
105 145 0
111 148 0
106 145 0
106 145 0
104 144 0
106 145 0
109 147 0
111 148 0
108 146 0
104 144 0
107 146 0
108 147 0
109 147 0
107 146 0
112 149 0
105 145 0
108 146 0
108 146 0
107 146 0
103 143 0
112 149 0
109 147 0
111 148 0
110 148 0
108 147 0
106 145 0
110 147 0
107 146 0
104 144 0
114 150 0
108 147 0
107 146 0
110 148 0
107 146 0
110 148 0
106 145 0
106 145 0
109 147 0
104 144 0
110 147 0
108 146 0
106 145 0
109 147 0
104 144 0
106 145 0
108 146 0
106 146 0
110 148 0
108 146 0
105 145 0
104 144 0
105 145 0
107 146 0
110 148 0
107 146 0
105 145 0
109 147 0
108 146 0
113 150 0
107 146 0
108 147 0
109 147 0
108 146 0
105 145 0
109 147 0
105 145 0
107 146 0
107 146 0
110 147 0
106 145 0
108 147 0
107 146 0
109 147 0
110 148 0
108 147 0
109 147 0
110 147 0
107 146 0
106 145 0
106 145 0
108 146 0
106 145 0
108 147 0
106 145 0
109 147 0
105 145 0
107 146 0
106 146 0
106 145 0
108 147 0
111 148 0
108 146 0
109 147 0
112 149 0
113 149 0
109 147 0
111 149 0
108 146 0
105 145 0
112 149 0
106 146 0
110 148 0
109 147 0
111 148 0
105 145 0
106 145 0
111 148 0
106 146 0
109 147 0
110 148 0
111 148 0
108 146 0
104 144 0
105 145 0
106 145 0
105 145 0
106 145 0
107 146 0
108 146 0
106 145 0
109 147 0
112 149 0
105 145 0
104 144 0
108 146 0
105 145 0
104 144 0
110 148 0
108 146 0
110 148 0
112 149 0
105 145 0
104 144 0
108 146 0
109 147 0
108 147 0
112 149 0
107 146 0
110 148 0
111 148 0
111 148 0
106 145 0
108 147 0
108 147 0
108 146 0
109 147 0
110 147 0
108 147 0
110 148 0
107 146 0
106 145 0
111 148 0
108 147 0
111 148 0
107 146 0
109 147 0
107 146 0
106 145 0
109 147 0
112 149 0
107 146 0
110 147 0
110 148 0
109 147 0
111 149 0
108 147 0
114 150 0
109 147 0
107 146 0
108 147 0
110 148 0
108 146 0
108 147 0
111 148 0
109 147 0
107 146 0
106 145 0
112 149 0
106 145 0
113 150 0
110 147 0
108 146 0
106 145 0
112 149 0
112 149 0
104 144 0
110 148 0
110 148 0
110 147 0
112 149 0
108 146 0
108 147 0
109 147 0
107 146 0
109 147 0
106 145 0
109 147 0
105 145 0
106 145 0
109 147 0
109 147 0
109 147 0
109 147 0
106 145 0
108 146 0
106 145 0
108 146 0
105 145 0
108 146 0
104 144 0
113 149 0
110 147 0
109 147 0
107 146 0
112 149 0
106 145 0
110 148 0
106 145 0
105 145 0
105 145 0
110 148 0
107 146 0
108 147 0
108 147 0
109 147 0
107 146 0
113 149 0
107 146 0
108 147 0
108 147 0
109 147 0
108 147 0
104 144 0
111 148 0
105 145 0
107 146 0
108 146 0
109 147 0
105 145 0
108 146 0
107 146 0
110 148 0
110 148 0
106 145 0
106 146 0
113 149 0
109 147 0
107 146 0
109 147 0
107 146 0
106 145 0
111 148 0
107 146 0
110 147 0
110 148 0
109 147 0
107 146 0
107 146 0
106 145 0
109 147 0
105 145 0
106 145 0
113 149 0
106 145 0
111 148 0
107 146 0
109 147 0
108 146 0
110 148 0
110 148 0
106 145 0
111 149 0
107 146 0
110 148 0
106 146 0
109 147 0
107 146 0
109 147 0
109 147 0
104 144 0
106 146 0
108 146 0
111 148 0
109 147 0
108 146 0
111 148 0
111 149 0
110 148 0
112 149 0
107 146 0
110 147 0
108 147 0
112 149 0
108 147 0
107 146 0
107 146 0
108 147 0
108 146 0
110 148 0
106 146 0
112 149 0
104 144 0
115 151 0
108 147 0
107 146 0
108 147 0
112 149 0
112 149 0
104 144 0
111 148 0
108 146 0
111 148 0
108 147 0
109 147 0
112 149 0
111 148 0
108 147 0
108 147 0
106 145 0
110 147 0
111 148 0
106 145 0
109 147 0
107 146 0
108 147 0
111 148 0
105 145 0
108 146 0
107 146 0
104 144 0
107 146 0
110 147 0
108 147 0
106 146 0
106 146 0
111 148 0
108 146 0
109 147 0
105 144 0
111 148 0
111 148 0
106 145 0
107 146 0
104 144 0
104 144 0
106 146 0
105 145 0
110 148 0
106 146 0
107 146 0
109 147 0
107 146 0
108 146 0
107 146 0
107 146 0
110 147 0
108 147 0
109 147 0
112 149 0
111 148 0
107 146 0
112 149 0
105 145 0
106 145 0
106 145 0
106 146 0
111 148 0
111 149 0
107 146 0
109 147 0
111 149 0
110 148 0
109 147 0
104 144 0
111 148 0
109 147 0
108 147 0
108 147 0
109 147 0
112 149 0
109 147 0
106 145 0
108 146 0
109 147 0
105 145 0
109 147 0
107 146 0
106 145 0
108 147 0
109 147 0
107 146 0
110 148 0
109 147 0
107 146 0
108 147 0
107 146 0
107 146 0
110 148 0
108 146 0
109 147 0
106 145 0
107 146 0
108 147 0
105 145 0
109 147 0
105 145 0
111 148 0
109 147 0
112 149 0
107 146 0
103 144 0
103 144 0
109 147 0
109 147 0
111 148 0
108 146 0
107 146 0
109 147 0
109 147 0
109 147 0
108 146 0
110 148 0
107 146 0
107 146 0
108 146 0
106 146 0
109 147 0
107 146 0
110 148 0
106 146 0
112 149 0
107 146 0
106 145 0
110 147 0
110 148 0
109 147 0
108 146 0
103 144 0
106 146 0
107 146 0
110 148 0
111 149 0
109 147 0
106 145 0
110 148 0
111 148 0
106 145 0
106 146 0
106 145 0
109 147 0
109 147 0
107 146 0
107 146 0
105 145 0
105 145 0
108 146 0
112 149 0
105 145 0
106 145 0
108 146 0
104 144 0
109 147 0
109 147 0
108 147 0
107 146 0
105 145 0
112 149 0
112 149 0
110 148 0
107 146 0
107 146 0
108 146 0
105 145 0
108 146 0
109 147 0
108 146 0
109 147 0
106 146 0
113 150 0
110 148 0
111 148 0
114 150 0
111 148 0
109 147 0
107 146 0
108 147 0
107 146 0
107 146 0
110 148 0
112 149 0
107 146 0
109 147 0
104 144 0
107 146 0
108 146 0
106 145 0
109 147 0
110 148 0
110 148 0
108 146 0
106 145 0
106 145 0
107 146 0
106 145 0
107 146 0
105 145 0
107 146 0
104 144 0
109 147 0
109 147 0
109 147 0
108 147 0
106 145 0
108 146 0
110 148 0
108 147 0
108 147 0
107 146 0
108 146 0
111 148 0
110 148 0
113 149 0
107 146 0
109 147 0
111 148 0
105 145 0
104 144 0
109 147 0
109 147 0
108 147 0
109 147 0
109 147 0
109 147 0
106 146 0
106 145 0
106 146 0
107 146 0
106 145 0
109 147 0
108 147 0
110 148 0
107 146 0
110 148 0
109 147 0
105 145 0
110 148 0
111 148 0
110 148 0
112 149 0
108 147 0
107 146 0
111 148 0
107 146 0
107 146 0
106 145 0
107 146 0
107 146 0
105 145 0
109 147 0
105 145 0
111 148 0
104 144 0
105 145 0
106 146 0
108 147 0
107 146 0
107 146 0
105 145 0
111 148 0
107 146 0
109 147 0
106 145 0
108 146 0
116 151 0
110 148 0
109 147 0
107 146 0
109 147 0
106 145 0
111 148 0
108 146 0
103 144 0
107 146 0
105 144 0
107 146 0
110 148 0
107 146 0
109 147 0
109 147 0
104 144 0
109 147 0
105 145 0
110 148 0
110 148 0
112 149 0
113 150 0
106 145 0
109 147 0
106 145 0
111 149 0
105 145 0
107 146 0
106 145 0
108 146 0
105 144 0
105 145 0
105 145 0
107 146 0
114 150 0
105 145 0
108 147 0
109 147 0
109 147 0
109 147 0
111 148 0
108 146 0
111 148 0
109 147 0
103 144 0
109 147 0
105 145 0
110 148 0
107 146 0
112 149 0
106 146 0
109 147 0
105 145 0
111 148 0
106 146 0
111 148 0
111 148 0
104 144 0
103 144 0
109 147 0
104 144 0
110 148 0
106 145 0
114 150 0
106 145 0
108 146 0
108 146 0
109 147 0
107 146 0
108 146 0
114 150 0
111 149 0
108 147 0
110 148 0
107 146 0
113 150 0
108 146 0
108 147 0
111 148 0
112 149 0
111 148 0
113 150 0
107 146 0
108 146 0
111 148 0
111 148 0
113 149 0
107 146 0
108 147 0
108 146 0
109 147 0
109 147 0
109 147 0
108 146 0
107 146 0
109 147 0
108 146 0
106 145 0
113 150 0
109 147 0
108 147 0
105 145 0
107 146 0
111 148 0
111 148 0
109 147 0
108 147 0
105 145 0
109 147 0
105 144 0
109 147 0
107 146 0
105 145 0
106 145 0
109 147 0
107 146 0
105 145 0
105 145 0
108 146 0
107 146 0
108 146 0
108 147 0
105 145 0
107 146 0
105 144 0
108 147 0
108 146 0
113 149 0
106 146 0
108 146 0
104 144 0
114 150 0
106 145 0
114 150 0
109 147 0
110 148 0
109 147 0
109 147 0
106 145 0
107 146 0
105 145 0
107 146 0
109 147 0
111 148 0
109 147 0
112 149 0
106 145 0
109 147 0
106 145 0
107 146 0
109 147 0
111 148 0
110 148 0
111 148 0
105 145 0
111 148 0
111 148 0
105 145 0
110 148 0
103 144 0
106 145 0
107 146 0
105 145 0
109 147 0
107 146 0
110 148 0
103 144 0
105 145 0
109 147 0
107 146 0
107 146 0
106 146 0
109 147 0
106 145 0
108 146 0
112 149 0
106 146 0
110 148 0
105 145 0
107 146 0
107 146 0
105 145 0
110 148 0
107 146 0
105 145 0
108 146 0
103 144 0
108 147 0
104 144 0
106 145 0
107 146 0
105 145 0
107 146 0
105 145 0
107 146 0
106 146 0
109 147 0
107 146 0
105 145 0
103 144 0
108 146 0
108 147 0
105 145 0
106 146 0
107 146 0
106 145 0
108 147 0
107 146 0
106 145 0
108 147 0
111 148 0
108 146 0
107 146 0
104 144 0
108 147 0
113 150 0
109 147 0
108 147 0
105 145 0
107 146 0
108 146 0
105 145 0
108 146 0
108 147 0
106 145 0
113 150 0
105 145 0
103 143 0
104 144 0
105 145 0
104 144 0
110 148 0
109 147 0
105 145 0
109 147 0
106 146 0
107 146 0
105 145 0
106 145 0
106 145 0
108 146 0
107 146 0
107 146 0
107 146 0
108 146 0
107 146 0
106 146 0
106 145 0
108 146 0
107 146 0
111 148 0
107 146 0
107 146 0
108 146 0
106 146 0
106 145 0
105 145 0
106 145 0
106 146 0
108 146 0
109 147 0
105 145 0
107 146 0
108 147 0
107 146 0
108 147 0
110 147 0
107 146 0
105 144 0
106 145 0
110 147 0
104 144 0
110 148 0
106 146 0
105 144 0
104 144 0
108 147 0
111 148 0
108 146 0
106 146 0
107 146 0
106 146 0
103 143 0
108 146 0
107 146 0
105 145 0
105 145 0
107 146 0
109 147 0
106 145 0
106 145 0
105 145 0
108 146 0
108 146 0
109 147 0
109 147 0
109 147 0
109 147 0
108 147 0
110 148 0
108 146 0
104 144 0
109 147 0
106 145 0
104 144 0
105 145 0
110 148 0
107 146 0
107 146 0
112 149 0
107 146 0
109 147 0
104 144 0
108 147 0
107 146 0
106 145 0
109 147 0
104 144 0
107 146 0
110 148 0
108 146 0
107 146 0
107 146 0
108 147 0
106 146 0
111 148 0
107 146 0
107 146 0
109 147 0
112 149 0
110 148 0
109 147 0
105 145 0
107 146 0
110 148 0
109 147 0
111 148 0
108 147 0
106 146 0
107 146 0
105 145 0
105 145 0
106 146 0
108 146 0
108 147 0
110 148 0
103 144 0
108 146 0
107 146 0
109 147 0
105 145 0
111 148 0
103 144 0
108 147 0
110 147 0
107 146 0
109 147 0
106 146 0
110 148 0
110 148 0
110 148 0
108 146 0
105 145 0
113 149 0
105 145 0
106 145 0
107 146 0
108 147 0
112 149 0
107 146 0
110 148 0
109 147 0
109 147 0
111 149 0
107 146 0
109 147 0
107 146 0
108 147 0
110 148 0
107 146 0
112 149 0
108 147 0
106 145 0
111 149 0
108 146 0
110 148 0
105 145 0
105 145 0
105 145 0
113 150 0
105 145 0
110 148 0
106 146 0
110 148 0
109 147 0
106 145 0
113 150 0
108 147 0
109 147 0
111 148 0
106 145 0
105 145 0
105 145 0
106 145 0
105 145 0
109 147 0
106 145 0
112 149 0
110 148 0
107 146 0
108 146 0
109 147 0
106 146 0
109 147 0
114 150 0
109 147 0
108 146 0
109 147 0
107 146 0
110 148 0
106 145 0
111 149 0
106 145 0
110 148 0
109 147 0
112 149 0
105 145 0
110 148 0
111 148 0
107 146 0
110 148 0
112 149 0
111 148 0
106 146 0
105 145 0
104 144 0
113 150 0
110 148 0
104 144 0
109 147 0
107 146 0
106 146 0
108 147 0
108 146 0
108 147 0
109 147 0
106 146 0
107 146 0
109 147 0
105 145 0
108 147 0
114 150 0
109 147 0
111 148 0
111 149 0
111 148 0
105 145 0
109 147 0
109 147 0
109 147 0
108 146 0
106 146 0
109 147 0
111 148 0
112 149 0
109 147 0
106 145 0
106 145 0
107 146 0
109 147 0
109 147 0
111 148 0
105 144 0
109 147 0
110 148 0
109 147 0
107 146 0
110 148 0
106 145 0
109 147 0
113 149 0
106 145 0
105 145 0
105 145 0
110 148 0
110 148 0
111 148 0
108 147 0
107 146 0
112 149 0
109 147 0
105 145 0
105 145 0
108 146 0
106 145 0
108 147 0
106 146 0
108 146 0
109 147 0
105 145 0
109 147 0
111 148 0
110 147 0
114 150 0
107 146 0
112 149 0
111 148 0
107 146 0
109 147 0
106 145 0
112 149 0
104 144 0
108 147 0
108 146 0
109 147 0
107 146 0
106 145 0
113 149 0
113 150 0
105 145 0
107 146 0
110 148 0
109 147 0
110 147 0
113 150 0
107 146 0
107 146 0
112 149 0
108 147 0
106 145 0
105 145 0
105 145 0
112 149 0
116 151 0
107 146 0
105 145 0
108 147 0
107 146 0
107 146 0
107 146 0
116 151 0
109 147 0
105 145 0
109 147 0
109 147 0
110 148 0
107 146 0
111 148 0
105 145 0
106 145 0
112 149 0
103 144 0
108 146 0
105 145 0
113 150 0
109 147 0
106 145 0
110 148 0
106 145 0
110 148 0
105 145 0
109 147 0
106 145 0
108 147 0
110 147 0
108 146 0
103 144 0
111 148 0
105 145 0
105 145 0
105 145 0
108 146 0
105 145 0
103 143 0
108 146 0
109 147 0
108 147 0
106 145 0
105 145 0
108 147 0
108 146 0
110 148 0
108 146 0
107 146 0
102 143 0
107 146 0
104 144 0
105 145 0
106 145 0
104 144 0
106 145 0
106 145 0
109 147 0
105 145 0
107 146 0
105 145 0
109 147 0
110 147 0
105 145 0
107 146 0
106 145 0
107 146 0
108 146 0
104 144 0
110 148 0
107 146 0
109 147 0
107 146 0
105 145 0
109 147 0
114 150 0
108 147 0
113 149 0
109 147 0
106 145 0
107 146 0
111 148 0
104 144 0
110 148 0
104 144 0
108 146 0
105 144 0
110 148 0
108 147 0
106 146 0
107 146 0
112 149 0
110 148 0
105 145 0
105 144 0
110 147 0
106 146 0
108 147 0
108 147 0
108 146 0
106 145 0
106 145 0
104 144 0
106 145 0
107 146 0
106 145 0
109 147 0
109 147 0
109 147 0
105 144 0
104 144 0
107 146 0
109 147 0
105 145 0
108 147 0
106 146 0
105 145 0
111 149 0
107 146 0
107 146 0
107 146 0
108 147 0
110 148 0
107 146 0
109 147 0
109 147 0
107 146 0
106 145 0
109 147 0
110 147 0
104 144 0
109 147 0
107 146 0
110 148 0
111 148 0
106 145 0
105 145 0
105 145 0
109 147 0
108 147 0
109 147 0
107 146 0
108 146 0
105 145 0
107 146 0
105 145 0
105 144 0
110 148 0
108 147 0
106 145 0
106 145 0
107 146 0
105 145 0
109 147 0
108 147 0
109 147 0
106 145 0
104 144 0
108 147 0
111 149 0
108 147 0
106 145 0
110 148 0
103 143 0
112 149 0
108 146 0
110 147 0
105 145 0
109 147 0
108 147 0
108 146 0
106 145 0
107 146 0
106 145 0
106 145 0
106 145 0
111 148 0
109 147 0
104 144 0
109 147 0
108 147 0
108 147 0
110 147 0
108 147 0
111 148 0
107 146 0
105 145 0
108 147 0
108 146 0
105 145 0
109 147 0
108 146 0
105 145 0
109 147 0
107 146 0
104 144 0
107 146 0
109 147 0
108 147 0
108 147 0
106 145 0
110 147 0
106 145 0
112 149 0
109 147 0
109 147 0
109 147 0
106 145 0
106 145 0
107 146 0
112 149 0
110 148 0
110 148 0
109 147 0
108 147 0
110 148 0
104 144 0
108 147 0
108 146 0
110 148 0
106 145 0
108 146 0
110 148 0
112 149 0
110 148 0
109 147 0
110 148 0
104 144 0
109 147 0
111 148 0
109 147 0
107 146 0
106 145 0
109 147 0
110 147 0
109 147 0
105 144 0
114 150 0
107 146 0
106 146 0
106 145 0
107 146 0
111 148 0
113 149 0
107 146 0
110 147 0
106 145 0
107 146 0
111 148 0
107 146 0
107 146 0
109 147 0
107 146 0
105 145 0
111 148 0
107 146 0
106 145 0
106 145 0
110 148 0
113 150 0
106 145 0
106 145 0
110 148 0
104 144 0
110 148 0
108 146 0
107 146 0
105 145 0
107 146 0
107 146 0
112 149 0
113 149 0
108 147 0
111 148 0
109 147 0
104 144 0
107 146 0
109 147 0
107 146 0
108 146 0
109 147 0
108 147 0
110 148 0
110 148 0
108 146 0
111 148 0
106 145 0
107 146 0
107 146 0
108 146 0
107 146 0
111 148 0
105 145 0
105 145 0
110 148 0
110 148 0
108 146 0
107 146 0
111 148 0
109 147 0
109 147 0
108 147 0
108 147 0
108 147 0
112 149 0
109 147 0
105 145 0
106 145 0
107 146 0
108 147 0
108 147 0
105 145 0
106 145 0
108 147 0
106 145 0
110 148 0
107 146 0
105 145 0
107 146 0
108 146 0
110 148 0
113 150 0
108 146 0
107 146 0
108 147 0
113 150 0
108 147 0
107 146 0
109 147 0
107 146 0
107 146 0
110 148 0
107 146 0
108 147 0
107 146 0
106 145 0
110 148 0
105 145 0
105 145 0
108 147 0
110 148 0
108 147 0
112 149 0
108 147 0
104 144 0
108 146 0
104 144 0
111 148 0
109 147 0
108 146 0
108 146 0
110 148 0
109 147 0
110 148 0
111 148 0
108 147 0
105 145 0
107 146 0
106 145 0
107 146 0
110 148 0
113 150 0
105 145 0
109 147 0
105 145 0
109 147 0
108 147 0
106 145 0
108 147 0
106 146 0
110 148 0
106 145 0
107 146 0
114 150 0
109 147 0
107 146 0
106 145 0
106 145 0
111 148 0
113 149 0
109 147 0
105 145 0
109 147 0
110 148 0
107 146 0
107 146 0
110 148 0
107 146 0
110 148 0
109 147 0
107 146 0
109 147 0
107 146 0
109 147 0
113 149 0
110 148 0
110 148 0
110 148 0
108 146 0
107 146 0
111 149 0
107 146 0
112 149 0
107 146 0
107 146 0
106 145 0
107 146 0
108 147 0
107 146 0
106 145 0
110 148 0
108 147 0
107 146 0
110 148 0
105 144 0
105 145 0
107 146 0
107 146 0
106 145 0
107 146 0
111 148 0
110 148 0
111 148 0
109 147 0
104 144 0
109 147 0
111 148 0
104 144 0
105 144 0
107 146 0
105 145 0
107 146 0
108 146 0
104 144 0
108 146 0
107 146 0
106 146 0
111 148 0
106 146 0
112 149 0
106 145 0
106 145 0
109 147 0
110 148 0
107 146 0
105 145 0
108 146 0
105 145 0
109 147 0
105 145 0
110 148 0
106 146 0
106 145 0
109 147 0
108 146 0
109 147 0
105 145 0
109 147 0
110 148 0
106 145 0
110 148 0
107 146 0
107 146 0
109 147 0
105 145 0
105 145 0
108 146 0
109 147 0
106 145 0
105 145 0
104 144 0
106 146 0
108 146 0
108 147 0
109 147 0
112 149 0
106 145 0
107 146 0
109 147 0
107 146 0
106 145 0
108 147 0
111 148 0
106 145 0
110 148 0
108 147 0
110 148 0
106 145 0
106 145 0
107 146 0
106 145 0
110 148 0
107 146 0
106 145 0
112 149 0
104 144 0
106 145 0
108 146 0
105 145 0
108 146 0
110 148 0
107 146 0
104 144 0
110 148 0
107 146 0
106 145 0
108 146 0
108 146 0
109 147 0
107 146 0
107 146 0
105 145 0
108 147 0
105 145 0
109 147 0
108 146 0
109 147 0
109 147 0
107 146 0
109 147 0
108 147 0
106 145 0
108 146 0
106 145 0
112 149 0
110 148 0
106 145 0
106 145 0
108 146 0
109 147 0
109 147 0
106 145 0
106 146 0
105 145 0
107 146 0
108 147 0
107 146 0
111 149 0
105 145 0
110 148 0
107 146 0
112 149 0
107 146 0
107 146 0
110 148 0
108 147 0
105 145 0
107 146 0
106 146 0
107 146 0
103 144 0
110 148 0
109 147 0
109 147 0
105 145 0
108 146 0
106 145 0
108 147 0
105 145 0
106 145 0
111 148 0
105 145 0
110 148 0
111 148 0
108 147 0
107 146 0
110 147 0
110 148 0
106 145 0
107 146 0
110 148 0
109 147 0
110 148 0
110 147 0
109 147 0
109 147 0
108 147 0
109 147 0
108 146 0
107 146 0
105 145 0
109 147 0
111 148 0
108 147 0
109 147 0
109 147 0
107 146 0
104 144 0
108 147 0
112 149 0
107 146 0
109 147 0
113 149 0
105 145 0
105 145 0
105 145 0
104 144 0
113 150 0
107 146 0
108 146 0
108 147 0
112 149 0
111 148 0
106 145 0
111 148 0
109 147 0
107 146 0
109 147 0
106 145 0
105 145 0
110 148 0
107 146 0
105 145 0
106 145 0
109 147 0
107 146 0
108 147 0
105 144 0
113 149 0
108 147 0
107 146 0
110 148 0
108 146 0
108 146 0
108 147 0
108 147 0
112 149 0
110 148 0
109 147 0
109 147 0
106 146 0
107 146 0
109 147 0
107 146 0
108 146 0
105 145 0
107 146 0
108 146 0
115 151 0
109 147 0
108 146 0
107 146 0
108 146 0
103 144 0
106 145 0
109 147 0
106 145 0
107 146 0
108 147 0
104 144 0
105 145 0
107 146 0
107 146 0
108 146 0
108 146 0
108 146 0
114 150 0
105 145 0
107 146 0
107 146 0
107 146 0
108 147 0
105 145 0
113 149 0
105 144 0
112 149 0
108 146 0
104 144 0
108 146 0
112 149 0
107 146 0
109 147 0
115 151 0
110 148 0
105 145 0
107 146 0
107 146 0
109 147 0
109 147 0
108 146 0
107 146 0
106 145 0
106 145 0
107 146 0
108 147 0
109 147 0
108 147 0
105 145 0
107 146 0
116 151 0
108 146 0
104 144 0
108 147 0
107 146 0
111 148 0
108 147 0
109 147 0
109 147 0
111 149 0
111 148 0
104 144 0
108 146 0
106 145 0
108 146 0
111 148 0
107 146 0
111 148 0
108 147 0
106 145 0
108 147 0
105 145 0
105 145 0
111 148 0
108 147 0
109 147 0
107 146 0
111 149 0
108 147 0
115 151 0
107 146 0
112 149 0
107 146 0
111 148 0
106 145 0
109 147 0
109 147 0
106 145 0
106 145 0
107 146 0
108 146 0
111 148 0
107 146 0
108 147 0
108 147 0
113 150 0
107 146 0
109 147 0
105 145 0
111 148 0
112 149 0
110 148 0
111 149 0
108 146 0
110 148 0
109 147 0
107 146 0
109 147 0
107 146 0
106 145 0
111 148 0
109 147 0
108 147 0
112 149 0
109 147 0
108 146 0
108 147 0
111 148 0
105 145 0
110 148 0
112 149 0
109 147 0
107 146 0
104 144 0
106 145 0
107 146 0
105 145 0
109 147 0
106 145 0
106 145 0
109 147 0
106 145 0
108 147 0
105 145 0
103 143 0
111 148 0
109 147 0
110 147 0
108 147 0
104 144 0
105 145 0
111 148 0
111 148 0
104 144 0
104 144 0
106 145 0
111 148 0
110 147 0
103 144 0
110 148 0
108 147 0
113 150 0
111 149 0
106 145 0
110 148 0
113 150 0
114 150 0
113 149 0
106 145 0
108 146 0
106 145 0
108 146 0
112 149 0
112 149 0
109 147 0
110 148 0
108 146 0
109 147 0
110 148 0
111 148 0
107 146 0
109 147 0
108 147 0
106 145 0
112 149 0
104 144 0
108 146 0
110 148 0
114 150 0
107 146 0
107 146 0
110 148 0
109 147 0
105 145 0
108 146 0
110 148 0
108 146 0
108 146 0
107 146 0
108 147 0
107 146 0
107 146 0
105 145 0
105 145 0
106 145 0
106 145 0
108 146 0
108 146 0
110 148 0
108 147 0
108 147 0
111 148 0
108 147 0
105 144 0
104 144 0
108 146 0
104 144 0
106 146 0
107 146 0
106 145 0
108 147 0
107 146 0
105 145 0
108 147 0
112 149 0
109 147 0
106 145 0
105 145 0
106 145 0
107 146 0
110 148 0
107 146 0
107 146 0
107 146 0
104 144 0
107 146 0
103 144 0
111 148 0
107 146 0
104 144 0
109 147 0
104 144 0
107 146 0
106 145 0
109 147 0
103 144 0
110 148 0
105 145 0
106 146 0
109 147 0
104 144 0
105 145 0
108 146 0
111 149 0
107 146 0
111 148 0
105 145 0
108 146 0
109 147 0
105 145 0
108 147 0
106 145 0
105 145 0
108 146 0
113 149 0
109 147 0
109 147 0
109 147 0
111 148 0
110 148 0
112 149 0
106 145 0
106 145 0
108 146 0
111 148 0
112 149 0
106 146 0
108 147 0
108 146 0
108 147 0
107 146 0
108 147 0
109 147 0
105 145 0
111 148 0
110 148 0
110 148 0
109 147 0
110 148 0
110 147 0
109 147 0
105 145 0
109 147 0
107 146 0
108 146 0
106 145 0
110 148 0
107 146 0
110 147 0
111 148 0
110 148 0
105 145 0
104 144 0
108 147 0
107 146 0
108 147 0
106 145 0
107 146 0
112 149 0
111 148 0
108 147 0
107 146 0
106 145 0
109 147 0
110 148 0
110 148 0
105 145 0
107 146 0
106 145 0
108 147 0
109 147 0
106 145 0
107 146 0
109 147 0
106 146 0
105 145 0
108 147 0
106 145 0
105 144 0
108 147 0
109 147 0
106 145 0
104 144 0
110 148 0
108 147 0
106 146 0
108 147 0
109 147 0
104 144 0
107 146 0
109 147 0
106 145 0
109 147 0
110 148 0
104 144 0
108 146 0
108 146 0
107 146 0
106 145 0
108 146 0
106 146 0
106 145 0
107 146 0
106 145 0
108 146 0
108 146 0
105 145 0
109 147 0
111 148 0
104 144 0
105 145 0
110 148 0
110 148 0
114 150 0
110 148 0
107 146 0
105 145 0
110 148 0
109 147 0
108 146 0
110 148 0
107 146 0
108 147 0
106 145 0
109 147 0
109 147 0
105 145 0
108 146 0
109 147 0
107 146 0
113 150 0
108 146 0
105 145 0
106 145 0
106 145 0
108 146 0
106 145 0
106 146 0
107 146 0
108 147 0
111 148 0
108 147 0
106 145 0
105 144 0
113 149 0
110 148 0
107 146 0
106 145 0
107 146 0
109 147 0
106 145 0
106 146 0
108 147 0
105 145 0
109 147 0
105 145 0
108 147 0
105 145 0
109 147 0
108 147 0
104 144 0
115 151 0
105 145 0
108 146 0
109 147 0
110 147 0
106 145 0
106 145 0
105 145 0
108 146 0
110 148 0
106 145 0
108 147 0
105 145 0
112 149 0
109 147 0
105 145 0
106 146 0
106 145 0
107 146 0
110 148 0
110 148 0
107 146 0
105 145 0
106 146 0
111 148 0
108 146 0
107 146 0
110 148 0
106 145 0
107 146 0
107 146 0
107 146 0
106 145 0
105 144 0
108 147 0
105 145 0
111 149 0
112 149 0
110 148 0
105 145 0
105 145 0
107 146 0
105 145 0
112 149 0
108 147 0
105 145 0
112 149 0
111 148 0
107 146 0
111 148 0
109 147 0
105 145 0
108 146 0
113 149 0
110 148 0
109 147 0
106 145 0
108 147 0
106 145 0
104 144 0
107 146 0
110 148 0
106 145 0
105 145 0
107 146 0
107 146 0
108 146 0
109 147 0
106 145 0
106 145 0
107 146 0
108 147 0
111 148 0
105 145 0
105 145 0
106 145 0
106 145 0
109 147 0
106 145 0
108 147 0
111 148 0
110 148 0
111 149 0
108 147 0
110 147 0
111 148 0
109 147 0
106 145 0
109 147 0
109 147 0
106 145 0
108 147 0
105 145 0
113 150 0
106 145 0
108 146 0
110 148 0
109 147 0
107 146 0
107 146 0
111 148 0
113 149 0
110 148 0
111 148 0
109 147 0
111 148 0
111 148 0
107 146 0
109 147 0
107 146 0
109 147 0
109 147 0
104 144 0
104 144 0
104 144 0
109 147 0
107 146 0
109 147 0
109 147 0
108 146 0
106 146 0
110 147 0
110 148 0
105 145 0
107 146 0
110 148 0
111 148 0
105 145 0
107 146 0
113 150 0
108 146 0
109 147 0
109 147 0
109 147 0
112 149 0
107 146 0
107 146 0
108 147 0
108 147 0
106 146 0
106 146 0
113 150 0
108 147 0
105 145 0
107 146 0
106 145 0
107 146 0
109 147 0
111 148 0
109 147 0
112 149 0
112 149 0
106 145 0
109 147 0
108 146 0
107 146 0
107 146 0
108 146 0
113 149 0
111 148 0
108 146 0
113 150 0
108 146 0
109 147 0
107 146 0
108 146 0
104 144 0
105 145 0
105 145 0
110 148 0
113 150 0
108 147 0
108 147 0
108 147 0
111 148 0
112 149 0
107 146 0
111 148 0
109 147 0
107 146 0
107 146 0
110 148 0
109 147 0
106 145 0
108 146 0
106 146 0
104 144 0
106 145 0
104 144 0
103 144 0
108 147 0
107 146 0
107 146 0
112 149 0
103 143 0
105 144 0
107 146 0
106 145 0
111 148 0
106 145 0
107 146 0
105 145 0
107 146 0
111 148 0
106 145 0
108 146 0
108 147 0
107 146 0
107 146 0
108 147 0
103 143 0
110 148 0
106 145 0
106 145 0
106 145 0
108 146 0
106 145 0
106 146 0
104 144 0
107 146 0
111 148 0
111 149 0
109 147 0
109 147 0
109 147 0
108 147 0
108 146 0
115 151 0
107 146 0
107 146 0
109 147 0
107 146 0
112 149 0
110 148 0
103 143 0
107 146 0
105 145 0
107 146 0
106 145 0
111 148 0
108 146 0
105 145 0
110 148 0
110 148 0
106 145 0
106 145 0
105 145 0
108 147 0
110 148 0
114 150 0
108 146 0
107 146 0
112 149 0
108 146 0
109 147 0
105 145 0
106 145 0
107 146 0
108 147 0
107 146 0
107 146 0
113 149 0
111 148 0
112 149 0
105 145 0
104 144 0
108 146 0
106 146 0
105 145 0
107 146 0
110 148 0
107 146 0
107 146 0
109 147 0
106 145 0
103 144 0
106 146 0
110 148 0
107 146 0
105 145 0
109 147 0
106 145 0
112 149 0
109 147 0
111 148 0
106 145 0
114 150 0
105 145 0
109 147 0
108 147 0
107 146 0
109 147 0
106 145 0
106 145 0
109 147 0
107 146 0
107 146 0
107 146 0
107 146 0
111 148 0
110 148 0
107 146 0
106 145 0
106 145 0
106 145 0
107 146 0
105 145 0
105 144 0
109 147 0
106 145 0
106 145 0
103 144 0
110 148 0
108 147 0
110 148 0
107 146 0
106 145 0
107 146 0
107 146 0
104 144 0
105 145 0
106 146 0
109 147 0
108 147 0
108 146 0
107 146 0
107 146 0
110 148 0
107 146 0
108 147 0
109 147 0
106 146 0
107 146 0
110 148 0
106 145 0
106 145 0
108 146 0
105 145 0
110 148 0
108 147 0
108 147 0
108 146 0
107 146 0
106 145 0
109 147 0
109 147 0
107 146 0
106 145 0
108 147 0
111 148 0
102 143 0
107 146 0
107 146 0
106 145 0
105 145 0
104 144 0
104 144 0
109 147 0
107 146 0
108 147 0
108 147 0
107 146 0
105 145 0
106 146 0
108 146 0
106 145 0
107 146 0
105 145 0
110 148 0
106 146 0
110 148 0
105 145 0
106 145 0
112 149 0
107 146 0
112 149 0
113 150 0
108 146 0
107 146 0
107 146 0
109 147 0
105 145 0
110 148 0
103 144 0
109 147 0
106 146 0
107 146 0
107 146 0
111 148 0
111 148 0
110 148 0
111 148 0
110 148 0
107 146 0
109 147 0
107 146 0
107 146 0
106 145 0
112 149 0
109 147 0
112 149 0
105 145 0
108 147 0
108 146 0
108 146 0
106 145 0
113 149 0
105 145 0
108 146 0
113 150 0
105 145 0
107 146 0
112 149 0
108 146 0
107 146 0
113 150 0
106 145 0
111 148 0
106 146 0
107 146 0
112 149 0
112 149 0
106 145 0
106 145 0
108 146 0
105 145 0
106 145 0
107 146 0
111 148 0
107 146 0
112 149 0
110 148 0
114 150 0
113 149 0
104 144 0
110 147 0
109 147 0
106 146 0
111 148 0
110 148 0
112 149 0
108 147 0
106 145 0
112 149 0
110 148 0
108 147 0
104 144 0
103 144 0
109 147 0
107 146 0
107 146 0
107 146 0
107 146 0
113 150 0
109 147 0
109 147 0
112 149 0
109 147 0
111 148 0
108 146 0
107 146 0
108 147 0
112 149 0
105 145 0
105 144 0
111 148 0
106 145 0
109 147 0
110 148 0
110 148 0
110 148 0
106 145 0
108 146 0
106 145 0
105 145 0
108 146 0
110 148 0
110 148 0
111 149 0
107 146 0
109 147 0
109 147 0
106 145 0
105 145 0
108 146 0
111 149 0
109 147 0
108 146 0
111 148 0
108 146 0
105 144 0
111 149 0
112 149 0
111 148 0
110 148 0
109 147 0
107 146 0
111 148 0
107 146 0
109 147 0
106 145 0
107 146 0
108 146 0
106 146 0
107 146 0
107 146 0
109 147 0
110 147 0
107 146 0
109 147 0
106 145 0
110 148 0
108 147 0
107 146 0
111 148 0
106 145 0
115 151 0
109 147 0
109 147 0
110 148 0
113 150 0
106 145 0
111 148 0
111 148 0
104 144 0
110 148 0
107 146 0
108 146 0
106 145 0
108 146 0
104 144 0
108 147 0
108 146 0
109 147 0
109 147 0
115 151 0
107 146 0
109 147 0
111 148 0
107 146 0
106 145 0
109 147 0
111 148 0
113 149 0
111 148 0
107 146 0
109 147 0
109 147 0
112 149 0
114 150 0
109 147 0
107 146 0
111 148 0
107 146 0
110 148 0
108 146 0
104 144 0
104 144 0
110 148 0
103 144 0
111 148 0
107 146 0
106 145 0
109 147 0
109 147 0
109 147 0
111 149 0
108 147 0
106 146 0
108 146 0
106 146 0
106 146 0
106 146 0
106 145 0
107 146 0
105 145 0
108 147 0
110 148 0
110 148 0
109 147 0
107 146 0
111 148 0
104 144 0
109 147 0
107 146 0
108 146 0
106 145 0
108 146 0
111 148 0
106 145 0
107 146 0
108 146 0
105 145 0
104 144 0
107 146 0
107 146 0
106 145 0
109 147 0
108 146 0
105 145 0
111 148 0
108 147 0
108 147 0
108 147 0
109 147 0
108 147 0
108 146 0
109 147 0
108 147 0
107 146 0
104 144 0
105 145 0
110 148 0
105 145 0
107 146 0
110 148 0
109 147 0
106 145 0
110 148 0
106 145 0
107 146 0
106 145 0
116 151 0
106 146 0
109 147 0
107 146 0
104 144 0
104 144 0
110 148 0
108 146 0
106 145 0
108 147 0
109 147 0
106 145 0
107 146 0
110 148 0
107 146 0
110 148 0
104 144 0
109 147 0
107 146 0
113 149 0
110 148 0
104 144 0
109 147 0
105 145 0
110 148 0
108 147 0
106 145 0
111 148 0
106 145 0
109 147 0
107 146 0
106 145 0
106 145 0
108 147 0
107 146 0
107 146 0
104 144 0
111 148 0
110 148 0
104 144 0
107 146 0
107 146 0
107 146 0
108 146 0
105 145 0
107 146 0
111 148 0
111 148 0
106 145 0
108 146 0
106 145 0
105 145 0
106 146 0
108 147 0
108 146 0
103 144 0
108 146 0
110 148 0
105 145 0
110 147 0
105 145 0
107 146 0
110 148 0
106 145 0
107 146 0
110 148 0
109 147 0
107 146 0
108 146 0
105 145 0
107 146 0
107 146 0
110 148 0
107 146 0
108 146 0
107 146 0
107 146 0
107 146 0
111 149 0
113 150 0
107 146 0
105 145 0
108 147 0
110 148 0
109 147 0
108 146 0
106 145 0
107 146 0
105 145 0
107 146 0
105 145 0
109 147 0
105 145 0
105 145 0
105 145 0
107 146 0
108 147 0
104 144 0
110 148 0
106 145 0
103 144 0
108 147 0
112 149 0
107 146 0
109 147 0
106 145 0
108 146 0
103 143 0
105 145 0
110 148 0
105 145 0
110 148 0
105 145 0
106 146 0
104 144 0
108 146 0
105 145 0
105 145 0
111 148 0
110 147 0
105 145 0
103 144 0
114 150 0
110 147 0
106 145 0
104 144 0
106 145 0
104 144 0
109 147 0
106 146 0
106 146 0
111 148 0
110 148 0
108 146 0
107 146 0
108 147 0
107 146 0
109 147 0
110 148 0
106 145 0
109 147 0
111 148 0
106 146 0
105 145 0
108 147 0
106 145 0
109 147 0
112 149 0
107 146 0
111 148 0
109 147 0
107 146 0
105 145 0
107 146 0
108 146 0
107 146 0
106 145 0
113 150 0
109 147 0
105 145 0
105 145 0
109 147 0
111 148 0
111 148 0
107 146 0
109 147 0
112 149 0
107 146 0
111 148 0
106 146 0
110 148 0
109 147 0
106 145 0
111 148 0
107 146 0
112 149 0
109 147 0
107 146 0
107 146 0
109 147 0
111 148 0
106 145 0
107 146 0
109 147 0
104 144 0
112 149 0
108 146 0
106 145 0
107 146 0
110 148 0
103 143 0
110 148 0
104 144 0
107 146 0
106 146 0
106 145 0
107 146 0
109 147 0
108 147 0
111 149 0
107 146 0
107 146 0
107 146 0
110 148 0
109 147 0
108 147 0
107 146 0
104 144 0
108 146 0
112 149 0
105 145 0
107 146 0
107 146 0
109 147 0
108 146 0
107 146 0
106 145 0
109 147 0
111 148 0
105 145 0
108 147 0
106 146 0
110 147 0
112 149 0
113 149 0
110 148 0
110 147 0
107 146 0
109 147 0
106 146 0
107 146 0
111 148 0
109 147 0
111 148 0
104 144 0
108 146 0
109 147 0
113 150 0
111 148 0
106 145 0
106 145 0
106 145 0
105 145 0
106 145 0
106 145 0
109 147 0
109 147 0
108 146 0
106 145 0
109 147 0
106 145 0
107 146 0
107 146 0
110 148 0
111 148 0
111 148 0
110 148 0
107 146 0
108 146 0
115 151 0
106 145 0
112 149 0
109 147 0
108 147 0
108 146 0
110 148 0
110 148 0
108 147 0
103 144 0
108 146 0
106 145 0
107 146 0
107 146 0
110 148 0
108 146 0
113 149 0
105 145 0
108 147 0
108 147 0
103 144 0
105 144 0
108 147 0
105 145 0
110 148 0
107 146 0
105 145 0
110 148 0
107 146 0
114 150 0
108 146 0
105 144 0
107 146 0
105 145 0
111 149 0
110 148 0
112 149 0
107 146 0
113 150 0
111 148 0
109 147 0
111 148 0
108 147 0
106 146 0
109 147 0
112 149 0
104 144 0
111 148 0
111 148 0
108 147 0
106 145 0
115 151 0
106 145 0
108 147 0
108 147 0
111 148 0
104 144 0
108 146 0
109 147 0
107 146 0
107 146 0
110 148 0
108 147 0
111 148 0
110 148 0
110 148 0
105 145 0
108 147 0
111 148 0
113 149 0
107 146 0
107 146 0
108 146 0
109 147 0
108 147 0
106 145 0
110 148 0
106 145 0
108 146 0
110 148 0
105 145 0
105 145 0
108 146 0
108 146 0
111 149 0
107 146 0
112 149 0
114 150 0
103 144 0
106 145 0
107 146 0
107 146 0
105 145 0
108 146 0
114 150 0
109 147 0
107 146 0
112 149 0
109 147 0
112 149 0
114 150 0
108 147 0
105 145 0
108 146 0
107 146 0
104 144 0
105 145 0
107 146 0
105 145 0
106 145 0
107 146 0
107 146 0
109 147 0
105 145 0
109 147 0
111 149 0
106 145 0
105 145 0
112 149 0
108 146 0
110 148 0
109 147 0
109 147 0
104 144 0
108 146 0
106 145 0
106 145 0
106 145 0
108 147 0
109 147 0
108 147 0
112 149 0
108 147 0
106 145 0
110 147 0
103 143 0
108 146 0
110 147 0
109 147 0
105 145 0
107 146 0
105 145 0
108 146 0
106 145 0
108 146 0
108 147 0
108 146 0
106 146 0
108 146 0
106 146 0
106 145 0
109 147 0
106 145 0
108 146 0
113 149 0
105 145 0
106 145 0
110 148 0
104 144 0
106 145 0
108 147 0
103 144 0
108 147 0
113 150 0
109 147 0
106 145 0
109 147 0
110 148 0
105 145 0
104 144 0
107 146 0
106 146 0
107 146 0
106 145 0
108 146 0
106 146 0
108 147 0
106 146 0
111 148 0
107 146 0
107 146 0
106 145 0
107 146 0
106 145 0
109 147 0
107 146 0
104 144 0
108 147 0
106 145 0
111 148 0
106 145 0
107 146 0
107 146 0
104 144 0
109 147 0
106 145 0
107 146 0
106 146 0
107 146 0
110 148 0
108 147 0
103 143 0
107 146 0
108 146 0
106 145 0
106 146 0
110 148 0
108 146 0
108 147 0
106 145 0
107 146 0
110 148 0
107 146 0
105 145 0
109 147 0
111 148 0
108 146 0
107 146 0
104 144 0
106 145 0
109 147 0
111 148 0
109 147 0
106 145 0
109 147 0
111 148 0
104 144 0
110 148 0
105 145 0
105 144 0
107 146 0
105 144 0
104 144 0
108 147 0
106 145 0
105 145 0
109 147 0
108 146 0
109 147 0
107 146 0
108 146 0
108 146 0
112 149 0
108 147 0
104 144 0
109 147 0
106 145 0
110 148 0
109 147 0
106 146 0
111 148 0
109 147 0
107 146 0
106 146 0
107 146 0
111 148 0
104 144 0
107 146 0
107 146 0
113 149 0
108 146 0
106 145 0
109 147 0
110 148 0
106 146 0
107 146 0
104 144 0
106 145 0
107 146 0
110 148 0
111 149 0
103 144 0
109 147 0
108 146 0
109 147 0
108 147 0
106 146 0
111 148 0
104 144 0
110 147 0
104 144 0
111 148 0
106 145 0
103 144 0
107 146 0
109 147 0
107 146 0
106 145 0
106 145 0
105 145 0
108 146 0
110 148 0
110 148 0
105 144 0
107 146 0
105 145 0
108 146 0
107 146 0
110 148 0
116 151 0
107 146 0
107 146 0
111 148 0
111 149 0
108 147 0
108 146 0
108 146 0
105 145 0
106 145 0
103 144 0
111 148 0
110 148 0
108 146 0
105 145 0
110 148 0
109 147 0
109 147 0
108 147 0
110 148 0
111 148 0
108 146 0
112 149 0
104 144 0
109 147 0
108 147 0
105 145 0
106 145 0
107 146 0
108 147 0
105 145 0
107 146 0
107 146 0
106 145 0
107 146 0
108 146 0
106 145 0
110 148 0
106 145 0
107 146 0
109 147 0
110 148 0
110 148 0
106 145 0
105 145 0
109 147 0
108 146 0
105 145 0
110 148 0
108 147 0
110 147 0
109 147 0
111 149 0
105 144 0
110 148 0
106 145 0
108 147 0
110 148 0
109 147 0
105 145 0
112 149 0
103 144 0
106 145 0
106 145 0
115 151 0
109 147 0
107 146 0
109 147 0
111 148 0
108 147 0
111 148 0
107 146 0
105 144 0
108 147 0
111 148 0
104 144 0
106 145 0
106 145 0
110 148 0
109 147 0
106 146 0
111 148 0
111 148 0
106 145 0
106 145 0
107 146 0
108 146 0
113 149 0
107 146 0
106 145 0
112 149 0
109 147 0
112 149 0
109 147 0
106 146 0
106 145 0
108 146 0
109 147 0
108 146 0
110 148 0
108 147 0
111 149 0
106 145 0
109 147 0
109 147 0
108 147 0
108 146 0
107 146 0
109 147 0
110 148 0
108 146 0
113 149 0
109 147 0
106 146 0
109 147 0
105 145 0
110 147 0
105 145 0
105 145 0
107 146 0
105 145 0
109 147 0
108 146 0
111 148 0
111 148 0
106 145 0
106 145 0
106 145 0
108 146 0
108 147 0
106 145 0
111 148 0
105 144 0
107 146 0
107 146 0
111 148 0
106 146 0
111 148 0
108 147 0
110 148 0
110 148 0
105 145 0
108 146 0
107 146 0
108 146 0
116 152 0
110 148 0
109 147 0
107 146 0
108 147 0
107 146 0
110 148 0
106 145 0
107 146 0
111 148 0
110 147 0
107 146 0
105 145 0
109 147 0
109 147 0
109 147 0
110 148 0
108 146 0
106 145 0
109 147 0
109 147 0
106 145 0
107 146 0
111 148 0
111 148 0
107 146 0
110 148 0
105 145 0
108 146 0
107 146 0
108 146 0
111 149 0
107 146 0
109 147 0
110 148 0
110 148 0
108 146 0
112 149 0
108 146 0
109 147 0
112 149 0
108 147 0
109 147 0
111 148 0
104 144 0
111 148 0
110 148 0
104 144 0
111 148 0
107 146 0
108 147 0
105 145 0
111 148 0
111 148 0
106 145 0
109 147 0
108 147 0
111 148 0
107 146 0
108 146 0
105 145 0
105 145 0
106 145 0
107 146 0
106 145 0
105 145 0
106 146 0
108 146 0
107 146 0
106 145 0
110 148 0
107 146 0
106 146 0
106 145 0
106 146 0
106 146 0
109 147 0
108 146 0
108 146 0
104 144 0
109 147 0
106 145 0
105 145 0
106 145 0
106 146 0
107 146 0
108 146 0
108 147 0
106 145 0
111 148 0
109 147 0
109 147 0
107 146 0
109 147 0
108 147 0
108 146 0
110 148 0
103 144 0
107 146 0
107 146 0
106 145 0
105 145 0
108 146 0
108 147 0
108 147 0
109 147 0
107 146 0
106 146 0
106 145 0
109 147 0
103 143 0
107 146 0
105 145 0
107 146 0
105 145 0
110 148 0
108 147 0
107 146 0
110 147 0
106 145 0
107 146 0
106 145 0
106 145 0
107 146 0
105 144 0
105 144 0
110 148 0
106 146 0
107 146 0
107 146 0
106 146 0
112 149 0
107 146 0
110 148 0
106 145 0
107 146 0
105 145 0
109 147 0
108 146 0
108 146 0
111 148 0
107 146 0
104 144 0
107 146 0
106 146 0
107 146 0
110 148 0
106 145 0
107 146 0
107 146 0
107 146 0
108 147 0
110 148 0
104 144 0
113 149 0
107 146 0
106 145 0
104 144 0
105 145 0
111 148 0
108 146 0
111 148 0
107 146 0
112 149 0
111 148 0
107 146 0
103 144 0
108 147 0
107 146 0
105 145 0
107 146 0
106 145 0
107 146 0
105 145 0
108 146 0
106 145 0
108 147 0
104 144 0
108 146 0
105 145 0
107 146 0
105 145 0
109 147 0
106 145 0
105 145 0
112 149 0
111 148 0
111 148 0
103 144 0
107 146 0
108 147 0
107 146 0
108 146 0
104 144 0
112 149 0
107 146 0
105 145 0
106 145 0
113 149 0
109 147 0
109 147 0
108 147 0
107 146 0
107 146 0
109 147 0
105 144 0
108 146 0
109 147 0
109 147 0
106 145 0
104 144 0
114 150 0
105 145 0
110 148 0
110 147 0
110 148 0
111 148 0
109 147 0
107 146 0
107 146 0
111 148 0
113 149 0
108 147 0
109 147 0
104 144 0
106 145 0
106 145 0
108 147 0
111 148 0
107 146 0
106 145 0
111 148 0
108 146 0
109 147 0
106 145 0
112 149 0
110 147 0
107 146 0
107 146 0
112 149 0
109 147 0
106 145 0
106 145 0
110 148 0
108 146 0
107 146 0
110 148 0
105 144 0
107 146 0
108 147 0
109 147 0
106 145 0
107 146 0
108 147 0
111 148 0
109 147 0
106 145 0
106 146 0
106 145 0
113 150 0
106 146 0
107 146 0
108 146 0
107 146 0
107 146 0
109 147 0
107 146 0
106 145 0
109 147 0
107 146 0
108 146 0
115 151 0
104 144 0
110 148 0
111 148 0
109 147 0
109 147 0
107 146 0
113 150 0
104 144 0
110 148 0
110 148 0
110 148 0
112 149 0
109 147 0
112 149 0
104 144 0
108 146 0
105 145 0
109 147 0
106 146 0
105 144 0
107 146 0
112 149 0
106 145 0
112 149 0
115 151 0
107 146 0
106 146 0
111 148 0
110 148 0
109 147 0
110 147 0
106 145 0
110 148 0
108 147 0
108 146 0
109 147 0
109 147 0
110 147 0
106 145 0
107 146 0
111 148 0
107 146 0
108 146 0
108 146 0
106 145 0
106 145 0
109 147 0
105 144 0
109 147 0
108 147 0
106 145 0
105 144 0
105 145 0
105 145 0
106 146 0
107 146 0
107 146 0
112 149 0
107 146 0
109 147 0
106 145 0
110 147 0
103 144 0
112 149 0
110 148 0
111 148 0
109 147 0
107 146 0
105 144 0
110 148 0
111 148 0
105 145 0
107 146 0
109 147 0
106 145 0
111 148 0
112 149 0
105 145 0
105 145 0
110 148 0
109 147 0
108 147 0
113 150 0
109 147 0
108 147 0
111 148 0
110 147 0
105 145 0
111 148 0
106 145 0
112 149 0
108 146 0
112 149 0
109 147 0
108 147 0
109 147 0
107 146 0
108 146 0
109 147 0
107 146 0
107 146 0
109 147 0
108 146 0
107 146 0
113 149 0
108 146 0
105 145 0
108 147 0
104 144 0
108 147 0
109 147 0
108 147 0
109 147 0
114 150 0
109 147 0
114 150 0
109 147 0
110 148 0
110 148 0
108 147 0
111 148 0
104 144 0
113 150 0
107 146 0
107 146 0
107 146 0
109 147 0
109 147 0
110 147 0
107 146 0
112 149 0
108 146 0
108 147 0
108 147 0
106 146 0
107 146 0
107 146 0
104 144 0
104 144 0
108 146 0
110 148 0
104 144 0
108 147 0
110 147 0
106 146 0
106 145 0
107 146 0
110 148 0
108 147 0
108 147 0
107 146 0
106 146 0
108 147 0
105 145 0
107 146 0
107 146 0
107 146 0
108 147 0
108 146 0
109 147 0
112 149 0
108 146 0
107 146 0
108 147 0
107 146 0
108 146 0
106 145 0
110 148 0
109 147 0
111 148 0
109 147 0
111 148 0
116 151 0
109 147 0
108 146 0
109 147 0
114 150 0
109 147 0
105 145 0
106 145 0
107 146 0
111 148 0
112 149 0
104 144 0
109 147 0
108 147 0
109 147 0
107 146 0
105 145 0
106 145 0
108 147 0
111 148 0
103 144 0
104 144 0
105 145 0
106 145 0
108 146 0
108 147 0
109 147 0
104 144 0
106 146 0
109 147 0
107 146 0
107 146 0
103 144 0
108 146 0
106 146 0
109 147 0
109 147 0
110 147 0
106 145 0
108 147 0
110 147 0
106 145 0
107 146 0
106 145 0
107 146 0
105 145 0
104 144 0
106 145 0
109 147 0
109 147 0
109 147 0
108 146 0
108 146 0
107 146 0
109 147 0
107 146 0
105 145 0
109 147 0
108 147 0
108 146 0
110 148 0
104 144 0
107 146 0
108 146 0
103 143 0
106 145 0
108 147 0
108 146 0
106 145 0
107 146 0
107 146 0
106 145 0
106 145 0
108 146 0
108 147 0
104 144 0
110 148 0
107 146 0
105 145 0
108 147 0
106 145 0
106 145 0
104 144 0
105 145 0
109 147 0
105 145 0
107 146 0
104 144 0
109 147 0
107 146 0
103 144 0
109 147 0
108 146 0
109 147 0
110 148 0
107 146 0
105 145 0
107 146 0
109 147 0
104 144 0
107 146 0
107 146 0
105 145 0
106 145 0
106 145 0
114 150 0
110 148 0
108 146 0
108 146 0
110 148 0
107 146 0
110 148 0
104 144 0
106 145 0
105 145 0
110 147 0
112 149 0
105 145 0
107 146 0
111 148 0
109 147 0
111 148 0
109 147 0
108 147 0
109 147 0
106 145 0
106 145 0
107 146 0
109 147 0
106 146 0
114 150 0
105 145 0
106 146 0
107 146 0
110 148 0
108 146 0
104 144 0
106 145 0
110 148 0
109 147 0
105 145 0
105 145 0
105 145 0
111 148 0
109 147 0
109 147 0
103 144 0
104 144 0
108 146 0
108 147 0
109 147 0
105 145 0
107 146 0
107 146 0
107 146 0
113 149 0
109 147 0
111 149 0
106 145 0
108 147 0
110 148 0
104 144 0
104 144 0
109 147 0
106 145 0
108 147 0
106 145 0
107 146 0
107 146 0
110 148 0
108 147 0
105 145 0
112 149 0
106 146 0
106 145 0
111 148 0
104 144 0
104 144 0
106 146 0
104 144 0
108 147 0
106 146 0
109 147 0
109 147 0
107 146 0
111 148 0
109 147 0
107 146 0
108 147 0
108 147 0
108 146 0
109 147 0
105 145 0
106 145 0
105 145 0
114 150 0
107 146 0
106 145 0
108 147 0
109 147 0
108 147 0
109 147 0
109 147 0
106 145 0
108 147 0
117 152 0
105 145 0
107 146 0
107 146 0
107 146 0
106 145 0
107 146 0
109 147 0
104 144 0
110 148 0
109 147 0
108 146 0
108 146 0
107 146 0
109 147 0
105 145 0
105 145 0
105 144 0
106 145 0
107 146 0
113 149 0
108 146 0
107 146 0
113 149 0
108 147 0
104 144 0
111 148 0
105 145 0
105 145 0
105 145 0
108 147 0
105 145 0
109 147 0
108 146 0
104 144 0
107 146 0
108 146 0
107 146 0
107 146 0
109 147 0
108 147 0
104 144 0
111 148 0
111 148 0
108 146 0
111 148 0
109 147 0
108 146 0
109 147 0
113 149 0
108 146 0
106 145 0
108 146 0
111 148 0
107 146 0
105 145 0
110 148 0
107 146 0
103 143 0
108 146 0
111 148 0
113 150 0
106 145 0
105 145 0
108 147 0
108 146 0
109 147 0
109 147 0
109 147 0
108 146 0
104 144 0
109 147 0
110 148 0
109 147 0
107 146 0
107 146 0
107 146 0
106 145 0
105 145 0
108 147 0
109 147 0
105 145 0
111 148 0
108 147 0
104 144 0
103 144 0
106 145 0
110 148 0
108 147 0
108 146 0
109 147 0
109 147 0
105 145 0
110 147 0
109 147 0
113 149 0
108 147 0
112 149 0
108 147 0
109 147 0
108 147 0
110 147 0
105 145 0
108 147 0
108 146 0
108 146 0
108 146 0
109 147 0
107 146 0
108 146 0
108 146 0
106 145 0
107 146 0
108 147 0
112 149 0
107 146 0
107 146 0
109 147 0
103 143 0
106 146 0
106 146 0
111 148 0
107 146 0
107 146 0
109 147 0
111 148 0
107 146 0
110 148 0
110 148 0
112 149 0
104 144 0
108 146 0
104 144 0
106 145 0
108 146 0
107 146 0
109 147 0
110 148 0
108 147 0
110 148 0
105 145 0
113 150 0
106 145 0
109 147 0
109 147 0
113 150 0
108 146 0
106 145 0
112 149 0
109 147 0
108 146 0
111 148 0
105 145 0
108 147 0
113 150 0
110 148 0
112 149 0
108 147 0
110 148 0
107 146 0
106 145 0
109 147 0
107 146 0
110 148 0
107 146 0
108 146 0
105 145 0
111 148 0
113 150 0
113 149 0
107 146 0
108 146 0
104 144 0
107 146 0
108 146 0
112 149 0
111 148 0
106 145 0
108 147 0
111 149 0
107 146 0
114 150 0
103 143 0
108 146 0
111 148 0
107 146 0
107 146 0
108 147 0
106 145 0
110 148 0
106 145 0
111 149 0
108 146 0
108 146 0
114 150 0
109 147 0
109 147 0
110 148 0
109 147 0
110 148 0
110 148 0
106 146 0
103 144 0
111 148 0
111 148 0
108 147 0
112 149 0
108 146 0
107 146 0
108 147 0
109 147 0
107 146 0
107 146 0
105 145 0
111 149 0
110 148 0
107 146 0
105 145 0
107 146 0
105 145 0
105 145 0
109 147 0
106 145 0
106 146 0
108 147 0
108 146 0
108 147 0
109 147 0
110 148 0
106 145 0
111 148 0
106 145 0
107 146 0
111 148 0
108 147 0
103 144 0
111 148 0
108 147 0
108 146 0
108 147 0
111 149 0
108 147 0
106 145 0
105 145 0
110 148 0
109 147 0
104 144 0
108 147 0
106 145 0
106 146 0
106 145 0
104 144 0
112 149 0
106 145 0
110 148 0
108 147 0
109 147 0
106 146 0
107 146 0
105 145 0
107 146 0
104 144 0
106 145 0
107 146 0
113 149 0
105 145 0
109 147 0
106 145 0
105 145 0
107 146 0
108 147 0
106 145 0
108 146 0
106 145 0
107 146 0
108 147 0
106 145 0
108 146 0
106 145 0
103 144 0
108 147 0
107 146 0
107 146 0
107 146 0
105 145 0
107 146 0
107 146 0
105 145 0
105 145 0
108 147 0
105 145 0
105 145 0
109 147 0
106 145 0
109 147 0
103 144 0
106 145 0
108 147 0
106 145 0
108 147 0
107 146 0
107 146 0
109 147 0
107 146 0
107 146 0
107 146 0
111 148 0
107 146 0
106 145 0
107 146 0
111 148 0
103 144 0
110 148 0
106 145 0
106 145 0
107 146 0
106 145 0
108 147 0
108 147 0
106 145 0
108 147 0
107 146 0
110 148 0
113 149 0
109 147 0
109 147 0
112 149 0
109 147 0
106 145 0
109 147 0
107 146 0
108 146 0
104 144 0
108 147 0
111 148 0
105 145 0
104 144 0
109 147 0
106 145 0
109 147 0
108 147 0
106 145 0
110 148 0
104 144 0
111 148 0
108 146 0
110 148 0
109 147 0
108 146 0
108 147 0
108 146 0
109 147 0
105 145 0
108 147 0
104 144 0
107 146 0
106 146 0
107 146 0
110 147 0
103 144 0
108 147 0
108 146 0
108 147 0
107 146 0
107 146 0
108 147 0
109 147 0
105 145 0
109 147 0
109 147 0
109 147 0
109 147 0
111 148 0
106 145 0
108 146 0
109 147 0
106 145 0
107 146 0
106 145 0
112 149 0
106 145 0
108 146 0
104 144 0
109 147 0
110 148 0
106 145 0
111 148 0
104 144 0
108 147 0
112 149 0
107 146 0
107 146 0
110 147 0
110 147 0
109 147 0
108 146 0
106 145 0
112 149 0
104 144 0
107 146 0
106 145 0
109 147 0
107 146 0
103 144 0
106 146 0
108 146 0
104 144 0
108 147 0
107 146 0
107 146 0
110 148 0
107 146 0
106 145 0
108 146 0
107 146 0
111 148 0
108 147 0
106 145 0
108 146 0
108 146 0
110 148 0
107 146 0
112 149 0
108 147 0
109 147 0
107 146 0
111 148 0
107 146 0
104 144 0
109 147 0
113 149 0
110 148 0
110 147 0
112 149 0
109 147 0
104 144 0
110 148 0
108 147 0
107 146 0
109 147 0
112 149 0
112 149 0
108 146 0
110 147 0
105 145 0
107 146 0
113 150 0
107 146 0
108 147 0
110 148 0
111 148 0
106 145 0
107 146 0
111 148 0
109 147 0
108 146 0
109 147 0
111 148 0
108 146 0
106 146 0
109 147 0
109 147 0
109 147 0
105 145 0
108 146 0
108 146 0
109 147 0
109 147 0
106 145 0
111 148 0
110 148 0
107 146 0
110 147 0
106 145 0
107 146 0
107 146 0
110 148 0
104 144 0
109 147 0
109 147 0
109 147 0
108 147 0
107 146 0
110 148 0
108 147 0
104 144 0
107 146 0
105 145 0
108 147 0
112 149 0
105 145 0
108 146 0
111 149 0
107 146 0
108 147 0
107 146 0
109 147 0
107 146 0
106 145 0
105 144 0
108 147 0
109 147 0
108 147 0
110 148 0
106 146 0
108 147 0
111 148 0
105 145 0
109 147 0
109 147 0
111 148 0
111 148 0
108 147 0
107 146 0
108 147 0
109 147 0
110 148 0
110 148 0
106 146 0
107 146 0
109 147 0
108 146 0
113 149 0
104 144 0
106 145 0
111 149 0
112 149 0
108 147 0
112 149 0
108 147 0
107 146 0
107 146 0
110 148 0
108 147 0
107 146 0
107 146 0
108 146 0
109 147 0
109 147 0
105 144 0
109 147 0
108 147 0
107 146 0
107 146 0
108 147 0
107 146 0
108 146 0
109 147 0
110 148 0
108 146 0
107 146 0
110 148 0
109 147 0
109 147 0
111 148 0
110 148 0
108 146 0
109 147 0
111 148 0
106 145 0
107 146 0
112 149 0
109 147 0
105 145 0
109 147 0
112 149 0
107 146 0
113 150 0
106 146 0
103 144 0
110 148 0
109 147 0
106 145 0
109 147 0
104 144 0
109 147 0
108 146 0
108 147 0
113 150 0
107 146 0
109 147 0
109 147 0
109 147 0
108 147 0
108 146 0
104 144 0
109 147 0
106 146 0
104 144 0
109 147 0
108 146 0
107 146 0
107 146 0
115 151 0
109 147 0
105 145 0
106 145 0
110 147 0
106 145 0
109 147 0
107 146 0
106 145 0
107 146 0
108 146 0
111 148 0
109 147 0
107 146 0
112 149 0
108 146 0
103 144 0
107 146 0
106 145 0
105 145 0
106 145 0
108 147 0
106 145 0
105 145 0
107 146 0
107 146 0
106 146 0
106 145 0
110 148 0
109 147 0
107 146 0
104 144 0
108 146 0
106 146 0
109 147 0
105 144 0
107 146 0
105 145 0
106 145 0
108 147 0
107 146 0
106 145 0
104 144 0
110 148 0
105 145 0
107 146 0
107 146 0
106 146 0
108 147 0
111 148 0
108 146 0
107 146 0
106 145 0
112 149 0
106 146 0
109 147 0
109 147 0
104 144 0
108 147 0
105 145 0
111 148 0
106 145 0
106 145 0
108 147 0
103 144 0
112 149 0
110 148 0
112 149 0
109 147 0
110 147 0
106 145 0
108 147 0
109 147 0
107 146 0
104 144 0
106 145 0
108 146 0
105 145 0
107 146 0
107 146 0
108 147 0
109 147 0
106 145 0
107 146 0
108 146 0
105 145 0
106 145 0
107 146 0
106 146 0
109 147 0
111 148 0
110 148 0
108 146 0
109 147 0
106 146 0
109 147 0
106 145 0
109 147 0
105 145 0
103 144 0
105 145 0
109 147 0
108 146 0
106 145 0
107 146 0
108 146 0
106 145 0
111 148 0
107 146 0
108 147 0
108 147 0
107 146 0
105 145 0
105 145 0
109 147 0
109 147 0
106 145 0
108 146 0
105 145 0
107 146 0
105 145 0
108 146 0
106 145 0
107 146 0
110 148 0
106 145 0
111 148 0
105 145 0
109 147 0
111 148 0
111 148 0
109 147 0
108 146 0
105 144 0
108 146 0
108 146 0
109 147 0
107 146 0
109 147 0
108 147 0
107 146 0
108 146 0
108 146 0
112 149 0
108 146 0
104 144 0
112 149 0
109 147 0
110 148 0
108 146 0
106 145 0
111 148 0
108 147 0
105 145 0
111 148 0
113 150 0
106 146 0
105 145 0
112 149 0
104 144 0
107 146 0
110 148 0
107 146 0
104 144 0
111 148 0
109 147 0
107 146 0
112 149 0
108 146 0
104 144 0
108 147 0
110 148 0
107 146 0
106 145 0
105 145 0
108 146 0
109 147 0
105 145 0
110 147 0
107 146 0
108 146 0
109 147 0
105 145 0
108 146 0
109 147 0
107 146 0
106 145 0
108 147 0
110 148 0
109 147 0
111 148 0
106 145 0
105 145 0
107 146 0
110 148 0
105 145 0
105 145 0
109 147 0
108 146 0
109 147 0
108 146 0
106 145 0
108 146 0
110 148 0
107 146 0
106 145 0
106 146 0
112 149 0
112 149 0
108 146 0
110 148 0
112 149 0
108 147 0
106 146 0
109 147 0
103 144 0
106 145 0
105 145 0
106 145 0
112 149 0
111 148 0
109 147 0
112 149 0
105 145 0
108 146 0
107 146 0
110 147 0
107 146 0
105 145 0
108 147 0
107 146 0
106 145 0
106 145 0
110 148 0
108 146 0
107 146 0
109 147 0
107 146 0
105 145 0
109 147 0
108 147 0
106 145 0
105 145 0
106 146 0
107 146 0
108 146 0
105 145 0
111 149 0
110 148 0
105 145 0
106 145 0
108 146 0
111 148 0
110 148 0
110 148 0
107 146 0
109 147 0
104 144 0
108 147 0
102 143 0
104 144 0
108 146 0
106 145 0
108 147 0
109 147 0
107 146 0
114 150 0
107 146 0
112 149 0
108 147 0
107 146 0
108 146 0
111 149 0
108 147 0
106 145 0
108 146 0
109 147 0
109 147 0
107 146 0
107 146 0
109 147 0
110 148 0
107 146 0
106 145 0
107 146 0
107 146 0
107 146 0
104 144 0
108 146 0
115 150 0
110 148 0
108 147 0
115 151 0
109 147 0
104 144 0
106 145 0
107 146 0
106 145 0
110 148 0
107 146 0
106 145 0
108 147 0
108 147 0
109 147 0
109 147 0
110 148 0
110 148 0
109 147 0
110 148 0
105 145 0
109 147 0
108 147 0
106 145 0
106 146 0
110 147 0
105 144 0
108 147 0
109 147 0
111 148 0
110 148 0
107 146 0
112 149 0
105 145 0
107 146 0
109 147 0
108 147 0
106 145 0
110 148 0
108 146 0
111 148 0
108 147 0
108 147 0
113 149 0
111 148 0
104 144 0
108 146 0
106 145 0
110 148 0
107 146 0
108 147 0
111 148 0
111 149 0
111 148 0
108 147 0
106 146 0
107 146 0
105 145 0
110 148 0
105 144 0
107 146 0
109 147 0
109 147 0
111 149 0
107 146 0
109 147 0
108 146 0
112 149 0
109 147 0
106 145 0
110 147 0
107 146 0
110 148 0
106 145 0
104 144 0
108 147 0
107 146 0
110 148 0
107 146 0
111 148 0
112 149 0
108 146 0
113 150 0
109 147 0
105 145 0
109 147 0
114 150 0
108 146 0
107 146 0
108 146 0
110 147 0
109 147 0
109 147 0
108 146 0
108 147 0
110 147 0
107 146 0
112 149 0
107 146 0
109 147 0
113 150 0
109 147 0
106 145 0
108 147 0
110 147 0
109 147 0
107 146 0
111 148 0
103 143 0
106 145 0
110 148 0
109 147 0
111 148 0
106 145 0
110 148 0
111 148 0
109 147 0
103 144 0
108 146 0
110 148 0
111 149 0
109 147 0
111 148 0
107 146 0
111 148 0
108 147 0
107 146 0
104 144 0
109 147 0
104 144 0
110 148 0
110 148 0
112 149 0
105 145 0
105 145 0
108 146 0
107 146 0
105 145 0
110 148 0
106 145 0
108 147 0
108 147 0
108 146 0
107 146 0
110 148 0
108 146 0
105 145 0
104 144 0
107 146 0
107 146 0
104 144 0
105 145 0
106 145 0
105 145 0
106 145 0
110 147 0
106 145 0
105 145 0
105 145 0
110 147 0
110 148 0
110 148 0
104 144 0
108 147 0
107 146 0
105 145 0
112 149 0
111 148 0
110 148 0
107 146 0
109 147 0
105 145 0
105 145 0
110 147 0
106 145 0
106 145 0
105 145 0
106 145 0
107 146 0
110 148 0
106 145 0
106 145 0
106 146 0
106 145 0
106 146 0
108 147 0
110 148 0
108 147 0
109 147 0
105 145 0
109 147 0
107 146 0
109 147 0
106 145 0
104 144 0
103 143 0
106 145 0
106 145 0
109 147 0
104 144 0
106 145 0
106 145 0
109 147 0
112 149 0
108 146 0
104 144 0
106 145 0
105 145 0
107 146 0
107 146 0
106 145 0
106 145 0
108 147 0
107 146 0
107 146 0
112 149 0
103 144 0
109 147 0
106 145 0
107 146 0
104 144 0
107 146 0
107 146 0
105 145 0
107 146 0
111 148 0
109 147 0
106 145 0
106 145 0
107 146 0
105 145 0
109 147 0
104 144 0
108 146 0
107 146 0
106 145 0
108 146 0
105 145 0
110 148 0
109 147 0
107 146 0
107 146 0
105 144 0
108 146 0
106 145 0
111 148 0
112 149 0
106 145 0
109 147 0
104 144 0
109 147 0
106 145 0
107 146 0
109 147 0
110 148 0
106 146 0
108 146 0
108 146 0
111 148 0
109 147 0
111 148 0
109 147 0
109 147 0
107 146 0
107 146 0
105 145 0
107 146 0
109 147 0
106 146 0
110 148 0
110 147 0
106 145 0
107 146 0
104 144 0
108 146 0
111 149 0
109 147 0
106 146 0
110 148 0
109 147 0
107 146 0
104 144 0
106 145 0
105 145 0
110 148 0
106 145 0
106 146 0
111 148 0
107 146 0
108 146 0
106 146 0
108 147 0
105 145 0
113 150 0
110 148 0
104 144 0
106 146 0
108 147 0
108 147 0
106 146 0
106 145 0
105 145 0
109 147 0
106 145 0
109 147 0
106 145 0
108 146 0
110 148 0
109 147 0
109 147 0
111 148 0
109 147 0
110 148 0
108 147 0
108 147 0
105 145 0
105 145 0
105 145 0
105 145 0
112 149 0
109 147 0
109 147 0
107 146 0
106 146 0
109 147 0
105 145 0
111 148 0
109 147 0
112 149 0
110 148 0
105 145 0
106 146 0
109 147 0
104 144 0
105 145 0
110 148 0
107 146 0
108 147 0
108 146 0
111 148 0
112 149 0
107 146 0
111 148 0
111 149 0
107 146 0
107 146 0
108 146 0
103 144 0
107 146 0
108 146 0
107 146 0
109 147 0
108 147 0
105 145 0
105 144 0
107 146 0
112 149 0
110 148 0
106 145 0
106 145 0
105 144 0
108 147 0
114 150 0
107 146 0
106 145 0
108 147 0
110 148 0
111 148 0
108 147 0
106 145 0
107 146 0
108 147 0
108 147 0
113 149 0
110 148 0
107 146 0
111 148 0
109 147 0
106 145 0
104 144 0
109 147 0
107 146 0
109 147 0
111 148 0
108 147 0
110 148 0
107 146 0
109 147 0
107 146 0
107 146 0
107 146 0
105 145 0
105 145 0
108 147 0
107 146 0
105 145 0
113 149 0
105 144 0
111 148 0
109 147 0
110 148 0
105 145 0
106 145 0
113 149 0
111 149 0
110 147 0
108 146 0
112 149 0
108 146 0
106 145 0
108 146 0
109 147 0
107 146 0
108 146 0
108 146 0
106 145 0
109 147 0
112 149 0
106 145 0
109 147 0
107 146 0
107 146 0
109 147 0
109 147 0
111 148 0
113 150 0
110 148 0
112 149 0
108 147 0
109 147 0
106 145 0
107 146 0
110 148 0
107 146 0
110 148 0
105 145 0
112 149 0
109 147 0
108 147 0
108 147 0
109 147 0
108 147 0
108 147 0
109 147 0
110 148 0
111 149 0
113 149 0
108 146 0
107 146 0
110 148 0
108 147 0
108 147 0
109 147 0
106 146 0
110 147 0
110 148 0
111 148 0
109 147 0
111 148 0
112 149 0
106 145 0
109 147 0
110 148 0
110 148 0
112 149 0
109 147 0
108 147 0
108 146 0
111 148 0
107 146 0
111 148 0
108 146 0
107 146 0
110 148 0
108 147 0
110 148 0
109 147 0
105 145 0
111 148 0
110 147 0
108 147 0
108 147 0
111 148 0
107 146 0
112 149 0
109 147 0
108 146 0
105 145 0
107 146 0
108 147 0
107 146 0
108 146 0
106 145 0
109 147 0
105 145 0
108 146 0
109 147 0
107 146 0
112 149 0
104 144 0
108 147 0
113 149 0
108 146 0
110 148 0
106 145 0
109 147 0
109 147 0
109 147 0
109 147 0
106 145 0
107 146 0
107 146 0
104 144 0
105 145 0
110 148 0
111 148 0
108 147 0
105 145 0
108 146 0
106 145 0
112 149 0
110 148 0
107 146 0
108 146 0
112 149 0
107 146 0
104 144 0
108 146 0
110 148 0
105 145 0
110 148 0
107 146 0
106 145 0
110 148 0
103 144 0
107 146 0
108 146 0
108 146 0
110 148 0
108 146 0
107 146 0
110 147 0
109 147 0
107 146 0
105 144 0
106 145 0
107 146 0
108 146 0
104 144 0
111 148 0
105 145 0
107 146 0
106 145 0
105 145 0
108 147 0
110 148 0
110 148 0
109 147 0
103 144 0
108 146 0
109 147 0
107 146 0
106 145 0
108 146 0
105 145 0
105 145 0
108 146 0
106 145 0
106 145 0
104 144 0
110 148 0
108 146 0
105 145 0
113 149 0
104 144 0
108 146 0
108 146 0
108 146 0
109 147 0
110 148 0
103 144 0
105 145 0
110 148 0
107 146 0
108 147 0
107 146 0
106 145 0
107 146 0
105 145 0
112 149 0
106 145 0
106 145 0
103 144 0
110 147 0
112 149 0
107 146 0
107 146 0
107 146 0
109 147 0
105 145 0
106 146 0
108 146 0
108 147 0
109 147 0
108 147 0
109 147 0
111 148 0
109 147 0
108 147 0
107 146 0
115 151 0
110 148 0
111 148 0
106 145 0
108 147 0
109 147 0
106 145 0
107 146 0
110 148 0
111 148 0
111 149 0
107 146 0
107 146 0
108 147 0
108 147 0
108 146 0
109 147 0
107 146 0
102 143 0
109 147 0
109 147 0
107 146 0
107 146 0
109 147 0
108 146 0
108 147 0
106 146 0
105 145 0
108 146 0
112 149 0
108 147 0
108 147 0
114 150 0
107 146 0
107 146 0
105 145 0
107 146 0
107 146 0
105 144 0
106 146 0
106 146 0
110 148 0
107 146 0
104 144 0
106 145 0
108 147 0
108 147 0
109 147 0
110 147 0
110 148 0
108 147 0
105 145 0
111 148 0
105 145 0
104 144 0
107 146 0
105 145 0
105 145 0
109 147 0
105 145 0
106 145 0
109 147 0
106 145 0
110 148 0
108 146 0
104 144 0
112 149 0
109 147 0
114 150 0
109 147 0
106 145 0
108 147 0
106 146 0
110 148 0
108 146 0
108 146 0
107 146 0
106 145 0
106 145 0
108 146 0
106 146 0
106 145 0
111 148 0
109 147 0
107 146 0
105 145 0
109 147 0
111 149 0
105 145 0
109 147 0
107 146 0
107 146 0
114 150 0
109 147 0
110 148 0
107 146 0
107 146 0
109 147 0
109 147 0
106 145 0
105 145 0
107 146 0
107 146 0
108 146 0
107 146 0
107 146 0
108 147 0
111 148 0
110 147 0
110 148 0
106 145 0
106 145 0
104 144 0
107 146 0
111 148 0
109 147 0
107 146 0
107 146 0
104 144 0
109 147 0
106 146 0
108 146 0
104 144 0
107 146 0
112 149 0
108 147 0
109 147 0
110 148 0
113 149 0
110 148 0
107 146 0
108 147 0
108 146 0
109 147 0
106 145 0
109 147 0
109 147 0
106 145 0
108 147 0
115 151 0
113 149 0
109 147 0
104 144 0
105 145 0
107 146 0
110 148 0
104 144 0
108 147 0
106 146 0
108 146 0
107 146 0
108 146 0
105 145 0
109 147 0
110 148 0
115 151 0
109 147 0
109 147 0
109 147 0
112 149 0
109 147 0
107 146 0
113 149 0
106 146 0
111 148 0
107 146 0
107 146 0
105 145 0
105 145 0
109 147 0
108 147 0
106 145 0
110 148 0
111 148 0
104 144 0
107 146 0
107 146 0
108 147 0
109 147 0
107 146 0
108 146 0
106 145 0
111 148 0
107 146 0
110 147 0
108 146 0
113 150 0
106 146 0
108 146 0
113 149 0
105 145 0
107 146 0
109 147 0
107 146 0
103 144 0
108 147 0
109 147 0
108 147 0
106 145 0
107 146 0
106 145 0
109 147 0
108 147 0
112 149 0
108 146 0
110 147 0
107 146 0
108 146 0
114 150 0
113 149 0
110 148 0
115 151 0
104 144 0
109 147 0
107 146 0
106 145 0
111 148 0
112 149 0
111 148 0
111 148 0
107 146 0
110 148 0
109 147 0
115 151 0
107 146 0
107 146 0
111 149 0
108 146 0
107 146 0
108 147 0
112 149 0
105 145 0
107 146 0
106 146 0
112 149 0
108 147 0
112 149 0
111 148 0
109 147 0
109 147 0
106 145 0
110 148 0
107 146 0
105 144 0
106 145 0
106 145 0
110 148 0
109 147 0
106 145 0
108 146 0
109 147 0
109 147 0
111 148 0
109 147 0
110 148 0
111 148 0
105 145 0
112 149 0
107 146 0
106 146 0
109 147 0
111 148 0
110 148 0
108 146 0
110 148 0
110 148 0
111 148 0
108 147 0
107 146 0
114 150 0
108 146 0
111 148 0
110 148 0
113 149 0
105 145 0
108 146 0
111 148 0
109 147 0
112 149 0
113 150 0
105 145 0
108 146 0
108 146 0
108 146 0
108 147 0
109 147 0
106 145 0
108 147 0
106 145 0
111 148 0
110 148 0
110 148 0
111 148 0
107 146 0
110 148 0
105 144 0
106 146 0
110 148 0
113 149 0
112 149 0
107 146 0
109 147 0
109 147 0
109 147 0
110 148 0
111 148 0
107 146 0
107 146 0
106 145 0
107 146 0
112 149 0
113 149 0
110 148 0
111 148 0
104 144 0
107 146 0
103 144 0
105 145 0
109 147 0
105 145 0
104 144 0
103 144 0
107 146 0
106 145 0
106 145 0
108 146 0
108 146 0
108 147 0
103 143 0
109 147 0
107 146 0
110 148 0
106 145 0
108 146 0
108 147 0
106 145 0
103 143 0
107 146 0
103 144 0
107 146 0
106 145 0
104 144 0
116 151 0
108 147 0
106 146 0
107 146 0
105 145 0
107 146 0
106 145 0
104 144 0
107 146 0
104 144 0
110 148 0
109 147 0
108 146 0
105 145 0
110 148 0
109 147 0
109 147 0
105 145 0
105 145 0
107 146 0
110 147 0
103 144 0
108 147 0
108 146 0
109 147 0
108 147 0
108 147 0
107 146 0
111 148 0
109 147 0
113 149 0
110 147 0
105 144 0
107 146 0
108 147 0
109 147 0
107 146 0
106 146 0
107 146 0
106 145 0
108 147 0
111 148 0
107 146 0
106 145 0
105 145 0
108 146 0
108 147 0
108 146 0
108 147 0
110 148 0
110 148 0
104 144 0
110 148 0
106 145 0
110 148 0
106 145 0
107 146 0
107 146 0
108 146 0
105 145 0
106 145 0
105 145 0
107 146 0
109 147 0
106 145 0
104 144 0
109 147 0
106 145 0
105 145 0
107 146 0
111 148 0
106 146 0
109 147 0
103 143 0
105 145 0
107 146 0
111 148 0
106 145 0
109 147 0
107 146 0
105 145 0
105 145 0
107 146 0
110 148 0
107 146 0
113 149 0
110 148 0
104 144 0
109 147 0
104 144 0
109 147 0
108 146 0
110 148 0
111 148 0
109 147 0
107 146 0
105 145 0
104 144 0
115 151 0
112 149 0
104 144 0
109 147 0
108 146 0
108 146 0
107 146 0
108 147 0
113 149 0
107 146 0
105 145 0
107 146 0
106 145 0
112 149 0
111 148 0
106 145 0
106 146 0
108 146 0
105 145 0
109 147 0
108 147 0
107 146 0
107 146 0
108 146 0
108 146 0
109 147 0
106 145 0
110 148 0
110 148 0
109 147 0
112 149 0
109 147 0
106 145 0
109 147 0
106 145 0
110 148 0
106 145 0
110 147 0
109 147 0
107 146 0
108 146 0
113 150 0
110 148 0
105 145 0
106 145 0
108 146 0
107 146 0
110 148 0
109 147 0
112 149 0
107 146 0
112 149 0
106 145 0
107 146 0
108 146 0
108 147 0
110 148 0
111 148 0
105 145 0
107 146 0
108 147 0
110 148 0
106 145 0
109 147 0
105 145 0
112 149 0
108 147 0
111 149 0
106 145 0
111 148 0
112 149 0
106 145 0
111 148 0
106 145 0
107 146 0
106 145 0
108 146 0
108 147 0
105 145 0
106 145 0
105 145 0
109 147 0
107 146 0
107 146 0
112 149 0
110 148 0
111 148 0
111 148 0
108 146 0
104 144 0
111 148 0
109 147 0
109 147 0
110 147 0
105 145 0
107 146 0
104 144 0
108 146 0
110 148 0
106 146 0
105 145 0
108 147 0
111 148 0
108 146 0
107 146 0
104 144 0
105 145 0
109 147 0
111 148 0
110 148 0
109 147 0
107 146 0
109 147 0
109 147 0
112 149 0
109 147 0
110 148 0
111 148 0
110 148 0
110 148 0
107 146 0
111 148 0
106 145 0
110 148 0
108 146 0
108 146 0
110 148 0
107 146 0
110 148 0
110 148 0
107 146 0
109 147 0
107 146 0
111 149 0
109 147 0
110 148 0
107 146 0
107 146 0
110 148 0
107 146 0
108 147 0
105 145 0
109 147 0
112 149 0
111 148 0
107 146 0
105 145 0
105 145 0
107 146 0
105 145 0
110 148 0
112 149 0
110 148 0
108 146 0
107 146 0
106 145 0
104 144 0
106 145 0
107 146 0
106 145 0
107 146 0
109 147 0
105 145 0
107 146 0
110 148 0
111 148 0
105 145 0
110 148 0
111 148 0
106 146 0
112 149 0
112 149 0
111 148 0
106 146 0
106 145 0
106 145 0
106 145 0
109 147 0
108 146 0
110 148 0
107 146 0
109 147 0
108 147 0
110 147 0
107 146 0
106 145 0
111 148 0
107 146 0
109 147 0
105 145 0
109 147 0
106 145 0
108 147 0
110 148 0
103 144 0
110 147 0
106 145 0
108 146 0
108 146 0
107 146 0
108 146 0
109 147 0
109 147 0
107 146 0
112 149 0
106 146 0
106 145 0
114 150 0
109 147 0
107 146 0
106 146 0
107 146 0
110 148 0
107 146 0
111 149 0
107 146 0
108 147 0
113 149 0
107 146 0
106 145 0
113 150 0
108 147 0
110 148 0
104 144 0
108 147 0
113 149 0
111 148 0
111 148 0
109 147 0
109 147 0
108 147 0
108 147 0
106 145 0
113 149 0
105 145 0
106 145 0
107 146 0
110 148 0
110 148 0
110 148 0
109 147 0
108 147 0
112 149 0
109 147 0
111 148 0
109 147 0
107 146 0
114 150 0
108 146 0
111 148 0
112 149 0
112 149 0
110 148 0
107 146 0
109 147 0
106 145 0
107 146 0
105 145 0
107 146 0
112 149 0
109 147 0
111 148 0
110 148 0
107 146 0
110 147 0
105 145 0
106 145 0
111 149 0
107 146 0
115 151 0
107 146 0
108 146 0
106 145 0
109 147 0
108 147 0
107 146 0
109 147 0
109 147 0
105 145 0
104 144 0
110 148 0
106 145 0
111 148 0
106 145 0
109 147 0
108 146 0
105 145 0
109 147 0
104 144 0
105 145 0
105 145 0
109 147 0
108 147 0
105 145 0
107 146 0
108 146 0
109 147 0
107 146 0
104 144 0
106 145 0
107 146 0
108 146 0
107 146 0
107 146 0
107 146 0
109 147 0
105 144 0
113 149 0
108 146 0
107 146 0
107 146 0
108 146 0
110 148 0
107 146 0
105 144 0
105 145 0
107 146 0
106 145 0
105 145 0
106 145 0
108 146 0
108 147 0
108 146 0
112 149 0
105 145 0
108 146 0
105 145 0
103 144 0
112 149 0
104 144 0
108 146 0
103 144 0
111 149 0
108 147 0
106 146 0
107 146 0
114 150 0
106 145 0
111 148 0
106 145 0
107 146 0
108 146 0
111 148 0
111 148 0
111 148 0
103 144 0
106 145 0
103 143 0
109 147 0
104 144 0
104 144 0
104 144 0
105 145 0
106 145 0
108 146 0
104 144 0
109 147 0
109 147 0
105 145 0
107 146 0
108 147 0
109 147 0
109 147 0
107 146 0
109 147 0
111 148 0
112 149 0
106 145 0
106 146 0
107 146 0
112 149 0
106 145 0
111 148 0
103 144 0
112 149 0
109 147 0
106 145 0
106 145 0
109 147 0
106 145 0
106 145 0
113 149 0
108 147 0
108 146 0
106 146 0
110 148 0
108 146 0
111 148 0
108 147 0
109 147 0
106 145 0
109 147 0
106 145 0
110 148 0
106 145 0
109 147 0
108 146 0
107 146 0
112 149 0
108 146 0
108 146 0
109 147 0
104 144 0
106 145 0
104 144 0
108 146 0
108 146 0
107 146 0
108 146 0
106 146 0
108 146 0
106 146 0
110 148 0
108 146 0
109 147 0
107 146 0
108 147 0
105 145 0
108 146 0
110 148 0
108 146 0
105 145 0
109 147 0
109 147 0
109 147 0
108 146 0
105 145 0
106 146 0
108 147 0
107 146 0
108 147 0
105 145 0
106 146 0
107 146 0
109 147 0
111 148 0
106 145 0
109 147 0
113 150 0
109 147 0
108 147 0
109 147 0
111 148 0
107 146 0
106 145 0
111 148 0
106 145 0
106 145 0
109 147 0
109 147 0
110 148 0
107 146 0
106 145 0
107 146 0
111 148 0
105 145 0
107 146 0
109 147 0
108 147 0
108 146 0
110 148 0
108 147 0
108 147 0
108 146 0
107 146 0
109 147 0
108 147 0
111 148 0
108 147 0
109 147 0
106 145 0
107 146 0
106 146 0
111 149 0
106 145 0
109 147 0
111 148 0
107 146 0
107 146 0
104 144 0
111 148 0
110 148 0
110 148 0
106 145 0
106 145 0
105 145 0
109 147 0
103 144 0
106 146 0
110 147 0
108 146 0
110 148 0
110 148 0
107 146 0
107 146 0
110 148 0
110 148 0
109 147 0
105 145 0
107 146 0
108 147 0
109 147 0
106 145 0
106 145 0
106 145 0
107 146 0
111 148 0
110 148 0
110 148 0
107 146 0
108 146 0
105 145 0
108 147 0
107 146 0
108 147 0
107 146 0
106 145 0
108 146 0
105 144 0
109 147 0
110 148 0
107 146 0
108 146 0
112 149 0
109 147 0
109 147 0
112 149 0
108 146 0
107 146 0
109 147 0
110 148 0
111 148 0
105 145 0
108 147 0
105 145 0
103 144 0
108 146 0
106 146 0
107 146 0
109 147 0
107 146 0
110 148 0
110 148 0
108 147 0
107 146 0
112 149 0
111 148 0
112 149 0
107 146 0
104 144 0
108 147 0
111 148 0
104 144 0
107 146 0
112 149 0
107 146 0
107 146 0
105 144 0
109 147 0
110 148 0
111 148 0
109 147 0
108 147 0
107 146 0
105 145 0
105 145 0
109 147 0
107 146 0
109 147 0
110 148 0
107 146 0
107 146 0
110 147 0
110 148 0
105 144 0
106 145 0
106 145 0
108 147 0
104 144 0
106 145 0
106 145 0
108 147 0
106 146 0
107 146 0
109 147 0
112 149 0
108 147 0
109 147 0
108 146 0
108 146 0
106 145 0
108 147 0
106 145 0
105 145 0
108 147 0
109 147 0
109 147 0
103 144 0
109 147 0
113 149 0
110 148 0
107 146 0
108 147 0
108 147 0
109 147 0
106 145 0
107 146 0
111 148 0
109 147 0
105 144 0
109 147 0
110 148 0
106 145 0
113 149 0
107 146 0
106 145 0
110 148 0
112 149 0
112 149 0
109 147 0
112 149 0
108 146 0
106 146 0
110 148 0
108 147 0
105 145 0
106 145 0
107 146 0
113 150 0
107 146 0
110 148 0
106 145 0
108 146 0
109 147 0
108 146 0
108 147 0
110 148 0
112 149 0
110 148 0
112 149 0
111 148 0
106 146 0
106 146 0
106 145 0
106 146 0
111 148 0
106 145 0
108 146 0
107 146 0
109 147 0
109 147 0
109 147 0
108 147 0
108 147 0
107 146 0
111 148 0
108 146 0
104 144 0
107 146 0
109 147 0
105 145 0
107 146 0
106 146 0
111 148 0
108 147 0
107 146 0
105 145 0
110 148 0
108 146 0
107 146 0
103 144 0
107 146 0
110 148 0
110 148 0
105 145 0
105 145 0
107 146 0
113 149 0
109 147 0
110 148 0
105 145 0
107 146 0
105 144 0
111 148 0
105 145 0
109 147 0
105 145 0
105 145 0
106 145 0
104 144 0
107 146 0
115 150 0
107 146 0
105 144 0
106 145 0
109 147 0
108 147 0
109 147 0
105 145 0
105 145 0
110 148 0
107 146 0
106 145 0
112 149 0
105 145 0
109 147 0
107 146 0
109 147 0
106 145 0
106 145 0
108 146 0
106 146 0
108 147 0
109 147 0
108 146 0
106 145 0
106 145 0
105 145 0
107 146 0
105 145 0
112 149 0
105 145 0
104 144 0
109 147 0
108 147 0
111 148 0
109 147 0
104 144 0
107 146 0
109 147 0
108 146 0
109 147 0
108 146 0
104 144 0
107 146 0
112 149 0
105 145 0
110 148 0
104 144 0
110 148 0
113 149 0
110 148 0
109 147 0
106 146 0
107 146 0
106 145 0
109 147 0
108 147 0
108 147 0
106 145 0
106 145 0
107 146 0
107 146 0
108 147 0
107 146 0
107 146 0
108 147 0
109 147 0
108 146 0
112 149 0
107 146 0
108 146 0
109 147 0
106 145 0
108 147 0
106 145 0
105 144 0
103 144 0
105 145 0
107 146 0
106 145 0
109 147 0
110 148 0
104 144 0
106 145 0
106 145 0
108 146 0
104 144 0
106 145 0
106 145 0
109 147 0
105 145 0
107 146 0
105 145 0
110 148 0
113 150 0
108 147 0
109 147 0
109 147 0
105 144 0
107 146 0
106 145 0
106 146 0
110 148 0
107 146 0
105 145 0
112 149 0
107 146 0
109 147 0
105 145 0
107 146 0
109 147 0
110 148 0
106 145 0
107 146 0
108 146 0
109 147 0
106 145 0
103 143 0
109 147 0
104 144 0
110 148 0
106 145 0
105 145 0
107 146 0
108 146 0
106 146 0
110 147 0
105 145 0
109 147 0
105 145 0
105 145 0
107 146 0
107 146 0
110 148 0
109 147 0
111 148 0
104 144 0
104 144 0
113 149 0
103 143 0
109 147 0
108 147 0
106 145 0
106 145 0
110 148 0
106 145 0
104 144 0
112 149 0
110 148 0
107 146 0
107 146 0
106 145 0
105 145 0
107 146 0
109 147 0
106 145 0
107 146 0
104 144 0
110 147 0
106 146 0
111 148 0
110 148 0
107 146 0
103 144 0
106 145 0
110 147 0
107 146 0
112 149 0
106 145 0
114 150 0
103 143 0
105 145 0
104 144 0
110 147 0
110 148 0
107 146 0
103 143 0
107 146 0
109 147 0
108 147 0
108 147 0
107 146 0
107 146 0
108 146 0
111 148 0
107 146 0
107 146 0
107 146 0
108 146 0
104 144 0
108 147 0
109 147 0
109 147 0
110 148 0
104 144 0
111 148 0
104 144 0
105 145 0
107 146 0
108 146 0
108 147 0
108 147 0
106 145 0
106 145 0
106 145 0
110 148 0
106 145 0
110 148 0
106 145 0
103 143 0
109 147 0
108 147 0
108 146 0
108 146 0
108 147 0
109 147 0
105 145 0
110 148 0
107 146 0
109 147 0
107 146 0
110 147 0
110 148 0
105 145 0
109 147 0
108 147 0
106 146 0
106 145 0
105 145 0
109 147 0
107 146 0
108 146 0
107 146 0
110 148 0
106 145 0
104 144 0
108 147 0
107 146 0
107 146 0
102 143 0
104 144 0
107 146 0
110 148 0
109 147 0
112 149 0
110 148 0
109 147 0
107 146 0
108 146 0
110 148 0
110 148 0
107 146 0
107 146 0
111 148 0
113 149 0
109 147 0
105 145 0
106 145 0
108 146 0
112 149 0
106 145 0
109 147 0
108 146 0
106 145 0
108 146 0
108 146 0
107 146 0
107 146 0
105 145 0
106 145 0
110 148 0
107 146 0
112 149 0
109 147 0
106 145 0
104 144 0
105 145 0
107 146 0
108 146 0
113 149 0
107 146 0
103 144 0
107 146 0
109 147 0
108 146 0
107 146 0
105 145 0
113 150 0
108 146 0
110 147 0
103 144 0
113 149 0
106 145 0
107 146 0
111 148 0
109 147 0
105 145 0
111 148 0
106 145 0
105 145 0
106 145 0
109 147 0
111 148 0
109 147 0
109 147 0
109 147 0
110 148 0
105 145 0
107 146 0
106 145 0
111 148 0
105 145 0
110 148 0
110 147 0
109 147 0
108 147 0
110 148 0
107 146 0
105 144 0
108 146 0
107 146 0
110 147 0
111 148 0
110 148 0
107 146 0
107 146 0
107 146 0
106 145 0
115 151 0
107 146 0
110 148 0
109 147 0
105 145 0
110 148 0
106 146 0
108 147 0
107 146 0
106 145 0
111 148 0
107 146 0
107 146 0
106 145 0
111 149 0
107 146 0
104 144 0
109 147 0
108 147 0
106 145 0
109 147 0
108 146 0
105 145 0
106 145 0
106 145 0
107 146 0
111 149 0
114 150 0
106 146 0
111 148 0
110 148 0
111 149 0
107 146 0
111 148 0
106 145 0
109 147 0
107 146 0
110 148 0
104 144 0
110 148 0
109 147 0
106 146 0
109 147 0
108 147 0
109 147 0
108 147 0
104 144 0
110 148 0
112 149 0
107 146 0
108 147 0
108 147 0
105 145 0
108 147 0
107 146 0
108 146 0
105 145 0
107 146 0
109 147 0
109 147 0
105 145 0
110 147 0
104 144 0
105 145 0
106 145 0
108 147 0
106 146 0
109 147 0
104 144 0
108 147 0
108 146 0
110 148 0
109 147 0
104 144 0
106 145 0
108 146 0
106 145 0
108 147 0
105 145 0
107 146 0
110 148 0
105 145 0
108 147 0
110 147 0
106 145 0
108 146 0
109 147 0
109 147 0
108 146 0
111 148 0
107 146 0
107 146 0
108 147 0
109 147 0
104 144 0
106 145 0
109 147 0
103 144 0
111 148 0
108 146 0
106 146 0
107 146 0
108 147 0
108 146 0
108 146 0
106 145 0
109 147 0
107 146 0
111 148 0
109 147 0
106 145 0
106 145 0
109 147 0
108 147 0
106 145 0
107 146 0
107 146 0
108 147 0
106 145 0
107 146 0
106 145 0
107 146 0
108 146 0
107 146 0
111 148 0
107 146 0
107 146 0
110 147 0
107 146 0
108 146 0
105 145 0
109 147 0
111 148 0
107 146 0
109 147 0
106 145 0
107 146 0
106 145 0
105 145 0
107 146 0
106 145 0
109 147 0
108 146 0
107 146 0
102 143 0
108 146 0
110 148 0
106 145 0
108 146 0
105 145 0
105 145 0
110 148 0
107 146 0
107 146 0
107 146 0
109 147 0
108 147 0
107 146 0
106 145 0
108 147 0
107 146 0
107 146 0
105 145 0
106 145 0
104 144 0
107 146 0
108 147 0
107 146 0
108 147 0
109 147 0
107 146 0
108 146 0
107 146 0
110 148 0
109 147 0
108 147 0
108 146 0
105 145 0
107 146 0
107 146 0
107 146 0
108 146 0
107 146 0
109 147 0
109 147 0
107 146 0
113 149 0
106 145 0
108 146 0
105 145 0
109 147 0
109 147 0
105 145 0
105 145 0
108 147 0
107 146 0
105 145 0
108 146 0
105 145 0
105 145 0
108 146 0
108 146 0
107 146 0
109 147 0
109 147 0
107 146 0
104 144 0
107 146 0
104 144 0
103 144 0
111 148 0
107 146 0
106 145 0
105 144 0
106 145 0
107 146 0
105 145 0
105 145 0
108 147 0
107 146 0
110 148 0
104 144 0
109 147 0
103 144 0
107 146 0
103 144 0
105 145 0
105 145 0
107 146 0
107 146 0
106 145 0
108 147 0
105 145 0
108 147 0
104 144 0
105 145 0
106 145 0
107 146 0
110 148 0
105 145 0
106 146 0
108 146 0
109 147 0
112 149 0
106 145 0
107 146 0
107 146 0
109 147 0
107 146 0
108 146 0
112 149 0
112 149 0
105 144 0
107 146 0
105 145 0
108 146 0
109 147 0
108 147 0
106 145 0
109 147 0
108 146 0
104 144 0
110 148 0
104 144 0
108 147 0
109 147 0
110 148 0
107 146 0
112 149 0
111 148 0
113 150 0
113 150 0
108 147 0
105 145 0
107 146 0
109 147 0
110 148 0
107 146 0
108 146 0
104 144 0
113 149 0
107 146 0
111 148 0
110 148 0
105 145 0
105 145 0
109 147 0
107 146 0
106 145 0
108 147 0
108 147 0
106 145 0
106 145 0
108 147 0
108 147 0
111 148 0
108 146 0
112 149 0
108 146 0
107 146 0
106 145 0
106 145 0
105 145 0
109 147 0
111 148 0
107 146 0
105 145 0
103 144 0
113 149 0
107 146 0
111 148 0
111 148 0
107 146 0
110 147 0
109 147 0
105 145 0
109 147 0
108 147 0
108 147 0
110 148 0
108 147 0
109 147 0
108 147 0
112 149 0
110 148 0
107 146 0
107 146 0
109 147 0
114 150 0
107 146 0
111 148 0
107 146 0
108 147 0
106 145 0
106 146 0
111 148 0
109 147 0
103 144 0
112 149 0
107 146 0
109 147 0
111 148 0
107 146 0
112 149 0
111 148 0
108 146 0
108 147 0
111 148 0
109 147 0
109 147 0
105 145 0
111 148 0
106 145 0
105 144 0
110 148 0
107 146 0
109 147 0
114 150 0
109 147 0
108 147 0
111 148 0
106 146 0
105 145 0
107 146 0
110 148 0
106 145 0
104 144 0
103 144 0
111 148 0
106 145 0
106 145 0
109 147 0
113 150 0
109 147 0
103 144 0
109 147 0
109 147 0
104 144 0
114 150 0
107 146 0
109 147 0
112 149 0
107 146 0
110 148 0
110 148 0
110 148 0
111 148 0
108 147 0
111 148 0
108 147 0
110 148 0
106 145 0
109 147 0
112 149 0
106 145 0
106 146 0
112 149 0
113 149 0
105 144 0
113 150 0
107 146 0
109 147 0
109 147 0
112 149 0
107 146 0
110 148 0
107 146 0
108 147 0
112 149 0
109 147 0
111 149 0
105 145 0
109 147 0
112 149 0
109 147 0
106 145 0
106 145 0
112 149 0
107 146 0
108 147 0
105 145 0
109 147 0
104 144 0
109 147 0
110 148 0
105 145 0
111 148 0
113 149 0
109 147 0
109 147 0
106 145 0
106 146 0
108 147 0
107 146 0
110 147 0
106 146 0
104 144 0
106 145 0
112 149 0
108 146 0
108 146 0
106 145 0
105 145 0
111 148 0
111 148 0
108 147 0
107 146 0
107 146 0
110 148 0
106 145 0
108 147 0
108 147 0
106 145 0
105 145 0
109 147 0
107 146 0
107 146 0
109 147 0
109 147 0
111 148 0
108 146 0
108 147 0
110 148 0
106 145 0
105 145 0
106 146 0
110 148 0
111 148 0
104 144 0
110 148 0
104 144 0
106 145 0
107 146 0
111 149 0
108 147 0
108 146 0
105 145 0
105 145 0
107 146 0
110 147 0
106 146 0
111 148 0
110 148 0
107 146 0
111 148 0
111 148 0
110 148 0
106 145 0
110 148 0
106 145 0
109 147 0
109 147 0
107 146 0
106 146 0
105 144 0
106 145 0
109 147 0
108 147 0
107 146 0
109 147 0
108 147 0
110 148 0
105 145 0
106 145 0
111 148 0
105 145 0
104 144 0
109 147 0
107 146 0
106 145 0
111 149 0
106 145 0
110 148 0
107 146 0
109 147 0
103 143 0
106 146 0
110 148 0
110 148 0
105 145 0
106 145 0
107 146 0
105 145 0
106 145 0
110 147 0
107 146 0
107 146 0
106 145 0
110 148 0
109 147 0
109 147 0
108 146 0
105 145 0
108 146 0
109 147 0
107 146 0
105 145 0
105 145 0
108 146 0
107 146 0
108 147 0
110 148 0
108 147 0
109 147 0
106 146 0
106 145 0
105 144 0
106 145 0
110 148 0
108 147 0
108 147 0
106 145 0
108 146 0
105 144 0
107 146 0
108 147 0
105 145 0
108 146 0
107 146 0
105 145 0
107 146 0
107 146 0
108 146 0
113 149 0
109 147 0
106 145 0
107 146 0
109 147 0
111 148 0
107 146 0
110 147 0
112 149 0
110 147 0
109 147 0
106 145 0
108 146 0
110 148 0
111 148 0
108 146 0
107 146 0
107 146 0
108 146 0
107 146 0
109 147 0
110 147 0
108 147 0
105 145 0
107 146 0
107 146 0
105 145 0
108 146 0
107 146 0
112 149 0
105 145 0
111 148 0
107 146 0
108 146 0
104 144 0
106 145 0
107 146 0
107 146 0
108 147 0
105 145 0
107 146 0
109 147 0
106 145 0
108 147 0
107 146 0
105 145 0
111 149 0
108 146 0
108 146 0
106 145 0
105 145 0
109 147 0
108 146 0
104 144 0
109 147 0
108 146 0
109 147 0
111 148 0
109 147 0
107 146 0
111 148 0
109 147 0
110 148 0
105 145 0
109 147 0
113 150 0
107 146 0
107 146 0
110 148 0
103 143 0
106 145 0
108 146 0
110 148 0
107 146 0
108 146 0
107 146 0
108 146 0
105 145 0
106 146 0
109 147 0
109 147 0
104 144 0
108 147 0
106 145 0
108 147 0
109 147 0
111 148 0
106 145 0
106 145 0
106 145 0
107 146 0
112 149 0
108 147 0
113 149 0
106 145 0
110 148 0
107 146 0
106 145 0
103 144 0
103 144 0
104 144 0
107 146 0
104 144 0
108 146 0
110 148 0
108 146 0
111 148 0
106 145 0
108 147 0
109 147 0
111 149 0
107 146 0
109 147 0
112 149 0
109 147 0
107 146 0
104 144 0
106 145 0
108 147 0
108 147 0
111 148 0
106 146 0
108 147 0
107 146 0
109 147 0
109 147 0
106 145 0
108 146 0
108 146 0
107 146 0
104 144 0
106 145 0
110 148 0
108 146 0
110 148 0
109 147 0
107 146 0
111 149 0
104 144 0
106 145 0
105 145 0
109 147 0
106 145 0
106 146 0
105 145 0
106 145 0
109 147 0
109 147 0
107 146 0
106 145 0
108 147 0
111 149 0
108 147 0
108 147 0
105 145 0
110 148 0
107 146 0
107 146 0
106 145 0
108 147 0
110 148 0
107 146 0
110 148 0
104 144 0
110 148 0
106 145 0
111 148 0
109 147 0
110 147 0
109 147 0
105 145 0
110 148 0
107 146 0
109 147 0
111 148 0
108 146 0
115 151 0
110 148 0
108 147 0
108 146 0
108 146 0
107 146 0
107 146 0
107 146 0
107 146 0
107 146 0
107 146 0
105 144 0
105 145 0
108 146 0
108 146 0
110 148 0
109 147 0
108 146 0
110 148 0
106 145 0
105 145 0
104 144 0
108 146 0
112 149 0
109 147 0
107 146 0
106 145 0
112 149 0
110 148 0
108 147 0
108 146 0
109 147 0
111 149 0
107 146 0
108 147 0
107 146 0
110 148 0
110 147 0
108 147 0
107 146 0
113 150 0
109 147 0
107 146 0
115 151 0
105 145 0
113 149 0
107 146 0
106 145 0
112 149 0
111 148 0
109 147 0
110 148 0
111 148 0
107 146 0
109 147 0
108 146 0
107 146 0
108 146 0
112 149 0
113 150 0
110 147 0
108 147 0
113 149 0
108 147 0
108 147 0
111 148 0
106 145 0
106 145 0
112 149 0
109 147 0
109 147 0
110 148 0
108 147 0
108 147 0
107 146 0
112 149 0
109 147 0
110 148 0
106 145 0
107 146 0
103 144 0
111 149 0
109 147 0
110 147 0
109 147 0
111 148 0
110 147 0
108 147 0
107 146 0
114 150 0
107 146 0
110 148 0
109 147 0
106 145 0
107 146 0
105 145 0
108 146 0
111 148 0
107 146 0
111 148 0
109 147 0
112 149 0
111 148 0
106 145 0
109 147 0
110 148 0
108 147 0
110 147 0
113 149 0
109 147 0
107 146 0
112 149 0
111 149 0
110 148 0
105 145 0
107 146 0
105 145 0
108 147 0
105 145 0
105 145 0
107 146 0
107 146 0
107 146 0
108 147 0
111 148 0
108 147 0
111 148 0
109 147 0
106 145 0
107 146 0
105 145 0
111 148 0
105 145 0
107 146 0
105 145 0
106 146 0
106 146 0
105 145 0
108 146 0
107 146 0
107 146 0
105 145 0
110 147 0
107 146 0
105 145 0
106 145 0
109 147 0
107 146 0
106 145 0
107 146 0
106 146 0
108 147 0
108 146 0
108 146 0
107 146 0
106 145 0
109 147 0
109 147 0
110 148 0
108 147 0
108 146 0
107 146 0
108 146 0
106 145 0
106 145 0
105 145 0
105 144 0
106 145 0
108 147 0
110 148 0
105 145 0
103 144 0
106 145 0
104 144 0
107 146 0
103 143 0
106 145 0
106 145 0
108 146 0
109 147 0
108 146 0
107 146 0
106 145 0
107 146 0
107 146 0
107 146 0
106 145 0
107 146 0
107 146 0
105 145 0
107 146 0
107 146 0
108 147 0
109 147 0
106 145 0
105 144 0
107 146 0
107 146 0
110 148 0
108 146 0
107 146 0
106 145 0
106 145 0
109 147 0
107 146 0
108 146 0
105 144 0
111 148 0
110 148 0
106 145 0
105 145 0
108 146 0
106 145 0
109 147 0
108 146 0
109 147 0
103 143 0
106 145 0
112 149 0
109 147 0
107 146 0
107 146 0
109 147 0
107 146 0
109 147 0
106 146 0
108 147 0
106 145 0
105 145 0
104 144 0
108 146 0
107 146 0
107 146 0
110 148 0
111 148 0
108 147 0
107 146 0
112 149 0
106 146 0
106 145 0
111 148 0
105 145 0
103 144 0
107 146 0
105 145 0
108 146 0
107 146 0
105 145 0
110 147 0
110 147 0
112 149 0
107 146 0
108 147 0
106 145 0
108 147 0
105 145 0
106 146 0
110 148 0
107 146 0
107 146 0
106 145 0
105 145 0
107 146 0
107 146 0
110 148 0
106 145 0
106 145 0
106 145 0
107 146 0
109 147 0
104 144 0
113 149 0
104 144 0
105 145 0
108 146 0
110 148 0
109 147 0
106 145 0
111 149 0
108 146 0
108 146 0
109 147 0
108 146 0
107 146 0
107 146 0
106 146 0
110 147 0
107 146 0
109 147 0
111 148 0
106 145 0
108 147 0
105 145 0
109 147 0
109 147 0
106 146 0
104 144 0
110 147 0
110 148 0
107 146 0
109 147 0
107 146 0
107 146 0
107 146 0
108 146 0
111 149 0
110 148 0
107 146 0
108 147 0
109 147 0
106 145 0
111 148 0
105 145 0
106 145 0
107 146 0
107 146 0
108 147 0
107 146 0
106 145 0
107 146 0
106 145 0
106 146 0
109 147 0
110 148 0
108 147 0
106 145 0
106 145 0
107 146 0
107 146 0
106 145 0
106 146 0
107 146 0
108 147 0
112 149 0
109 147 0
107 146 0
109 147 0
109 147 0
111 148 0
106 145 0
109 147 0
107 146 0
107 146 0
107 146 0
110 148 0
113 149 0
107 146 0
112 149 0
106 145 0
108 147 0
108 146 0
107 146 0
109 147 0
108 146 0
107 146 0
113 150 0
110 147 0
109 147 0
107 146 0
109 147 0
109 147 0
108 147 0
110 148 0
104 144 0
110 148 0
107 146 0
108 146 0
111 148 0
106 145 0
108 147 0
106 145 0
107 146 0
109 147 0
108 146 0
108 146 0
108 146 0
108 146 0
106 145 0
107 146 0
113 149 0
108 147 0
108 146 0
109 147 0
109 147 0
105 145 0
110 148 0
109 147 0
105 145 0
111 148 0
108 146 0
109 147 0
106 145 0
106 146 0
105 145 0
109 147 0
109 147 0
107 146 0
107 146 0
112 149 0
110 148 0
109 147 0
105 145 0
105 145 0
103 144 0
108 146 0
110 148 0
105 145 0
110 148 0
108 146 0
111 148 0
108 147 0
109 147 0
110 148 0
107 146 0
110 148 0
113 150 0
108 147 0
108 146 0
108 146 0
109 147 0
106 145 0
110 148 0
110 147 0
109 147 0
106 145 0
107 146 0
106 145 0
108 147 0
108 147 0
112 149 0
106 145 0
112 149 0
105 145 0
112 149 0
107 146 0
109 147 0
114 150 0
107 146 0
106 145 0
112 149 0
111 148 0
109 147 0
107 146 0
109 147 0
111 148 0
107 146 0
107 146 0
106 145 0
107 146 0
110 148 0
110 147 0
114 150 0
111 148 0
110 148 0
111 148 0
108 146 0
104 144 0
107 146 0
108 146 0
109 147 0
109 147 0
107 146 0
107 146 0
108 146 0
107 146 0
111 148 0
112 149 0
104 144 0
110 148 0
107 146 0
109 147 0
107 146 0
107 146 0
107 146 0
109 147 0
105 145 0
106 145 0
111 148 0
107 146 0
108 146 0
107 146 0
108 147 0
107 146 0
107 146 0
108 147 0
106 145 0
108 147 0
107 146 0
112 149 0
107 146 0
111 148 0
106 145 0
110 148 0
109 147 0
108 146 0
107 146 0
113 149 0
111 148 0
108 147 0
109 147 0
110 147 0
107 146 0
110 148 0
113 149 0
111 149 0
105 145 0
112 149 0
107 146 0
108 146 0
111 148 0
105 145 0
108 146 0
111 148 0
110 148 0
108 147 0
107 146 0
105 145 0
108 146 0
109 147 0
108 146 0
108 146 0
107 146 0
103 144 0
108 147 0
107 146 0
105 145 0
105 145 0
108 146 0
107 146 0
107 146 0
104 144 0
106 145 0
110 148 0
110 148 0
104 144 0
104 144 0
105 145 0
105 145 0
107 146 0
108 146 0
112 149 0
104 144 0
108 147 0
108 146 0
107 146 0
109 147 0
107 146 0
107 146 0
105 145 0
109 147 0
108 146 0
104 144 0
103 143 0
104 144 0
105 145 0
105 145 0
109 147 0
109 147 0
111 148 0
106 145 0
108 147 0
108 147 0
106 146 0
107 146 0
105 145 0
111 148 0
108 147 0
107 146 0
108 146 0
108 146 0
111 148 0
105 144 0
110 147 0
104 144 0
103 143 0
111 148 0
107 146 0
103 144 0
112 149 0
108 147 0
106 145 0
111 148 0
105 145 0
109 147 0
109 147 0
108 147 0
107 146 0
104 144 0
107 146 0
110 148 0
108 147 0
105 145 0
105 145 0
108 146 0
104 144 0
107 146 0
108 147 0
108 147 0
110 148 0
114 150 0
112 149 0
106 145 0
107 146 0
108 146 0
109 147 0
108 146 0
106 145 0
108 147 0
106 145 0
106 146 0
108 146 0
113 150 0
107 146 0
108 147 0
106 146 0
105 145 0
108 146 0
108 147 0
109 147 0
107 146 0
108 147 0
108 146 0
106 145 0
106 145 0
106 145 0
106 145 0
109 147 0
106 145 0
107 146 0
106 145 0
111 149 0
108 146 0
105 145 0
110 148 0
104 144 0
110 148 0
107 146 0
110 148 0
106 145 0
106 145 0
107 146 0
110 148 0
104 144 0
108 146 0
107 146 0
112 149 0
110 148 0
105 144 0
107 146 0
107 146 0
110 148 0
105 144 0
107 146 0
107 146 0
106 146 0
105 145 0
106 145 0
105 145 0
103 144 0
106 146 0
108 146 0
107 146 0
105 145 0
106 146 0
108 146 0
110 148 0
111 149 0
106 145 0
105 144 0
103 143 0
106 145 0
106 146 0
106 145 0
107 146 0
109 147 0
104 144 0
111 148 0
111 148 0
106 145 0
105 145 0
107 146 0
104 144 0
108 146 0
110 147 0
105 144 0
107 146 0
112 149 0
106 145 0
107 146 0
106 145 0
108 146 0
108 147 0
106 145 0
109 147 0
107 146 0
106 145 0
110 148 0
108 147 0
110 148 0
106 145 0
112 149 0
107 146 0
113 150 0
105 145 0
109 147 0
107 146 0
108 146 0
105 145 0
106 145 0
105 145 0
109 147 0
104 144 0
110 148 0
109 147 0
109 147 0
108 147 0
104 144 0
107 146 0
109 147 0
109 147 0
112 149 0
108 146 0
106 146 0
105 145 0
109 147 0
113 149 0
104 144 0
107 146 0
110 148 0
106 145 0
105 144 0
106 146 0
109 147 0
106 145 0
108 147 0
107 146 0
109 147 0
111 148 0
107 146 0
106 145 0
110 148 0
112 149 0
107 146 0
109 147 0
108 147 0
109 147 0
109 147 0
106 145 0
106 145 0
107 146 0
104 144 0
108 146 0
105 144 0
107 146 0
106 145 0
109 147 0
105 145 0
106 146 0
107 146 0
105 145 0
108 147 0
109 147 0
107 146 0
104 144 0
109 147 0
112 149 0
109 147 0
107 146 0
114 150 0
108 146 0
107 146 0
109 147 0
106 145 0
108 146 0
109 147 0
108 146 0
112 149 0
106 145 0
107 146 0
108 146 0
106 146 0
110 148 0
109 147 0
112 149 0
115 151 0
111 148 0
107 146 0
110 147 0
108 146 0
108 147 0
110 148 0
108 147 0
109 147 0
108 146 0
111 148 0
102 143 0
111 148 0
109 147 0
109 147 0
105 145 0
114 150 0
110 148 0
107 146 0
108 147 0
107 146 0
110 147 0
110 148 0
111 148 0
109 147 0
109 147 0
110 148 0
111 148 0
109 147 0
108 146 0
104 144 0
107 146 0
107 146 0
105 144 0
106 145 0
105 145 0
109 147 0
110 148 0
111 148 0
108 147 0
110 148 0
109 147 0
107 146 0
109 147 0
104 144 0
108 146 0
105 145 0
107 146 0
112 149 0
111 149 0
106 145 0
106 145 0
108 146 0
103 144 0
105 145 0
110 148 0
109 147 0
110 148 0
108 146 0
110 148 0
111 148 0
110 148 0
109 147 0
108 147 0
109 147 0
109 147 0
109 147 0
107 146 0
110 148 0
106 145 0
110 148 0
113 149 0
108 147 0
108 147 0
109 147 0
110 148 0
109 147 0
109 147 0
106 145 0
104 144 0
108 146 0
106 146 0
107 146 0
108 147 0
108 147 0
109 147 0
105 145 0
111 149 0
110 147 0
106 145 0
110 148 0
109 147 0
106 145 0
110 148 0
107 146 0
106 145 0
106 146 0
109 147 0
113 149 0
111 149 0
110 148 0
110 148 0
111 148 0
108 146 0
109 147 0
108 147 0
114 150 0
109 147 0
108 146 0
113 150 0
105 144 0
106 145 0
110 148 0
105 145 0
108 146 0
107 146 0
111 148 0
108 147 0
109 147 0
111 148 0
109 147 0
111 149 0
107 146 0
107 146 0
107 146 0
108 147 0
110 148 0
112 149 0
110 148 0
109 147 0
108 147 0
105 145 0
111 148 0
113 149 0
104 144 0
107 146 0
111 148 0
111 148 0
109 147 0
110 148 0
106 145 0
108 146 0
109 147 0
107 146 0
111 149 0
112 149 0
107 146 0
108 147 0
106 145 0
108 147 0
106 145 0
104 144 0
109 147 0
111 148 0
107 146 0
107 146 0
105 145 0
105 144 0
106 145 0
109 147 0
105 145 0
104 144 0
105 145 0
109 147 0
106 145 0
109 147 0
105 144 0
105 145 0
108 146 0
110 148 0
107 146 0
113 149 0
104 144 0
106 146 0
104 144 0
105 145 0
109 147 0
105 145 0
110 148 0
107 146 0
108 147 0
110 148 0
110 147 0
108 147 0
107 146 0
108 147 0
112 149 0
109 147 0
109 147 0
111 148 0
106 145 0
109 147 0
107 146 0
109 147 0
110 148 0
105 144 0
109 147 0
104 144 0
112 149 0
109 147 0
107 146 0
110 147 0
105 145 0
109 147 0
105 145 0
109 147 0
106 146 0
110 148 0
107 146 0
107 146 0
109 147 0
106 146 0
108 147 0
107 146 0
106 146 0
106 145 0
108 147 0
105 145 0
108 147 0
105 145 0
107 146 0
110 147 0
106 145 0
106 145 0
111 148 0
105 145 0
105 145 0
108 147 0
107 146 0
110 148 0
105 145 0
106 145 0
107 146 0
105 145 0
107 146 0
105 145 0
113 150 0
108 147 0
107 146 0
107 146 0
106 145 0
105 145 0
106 145 0
109 147 0
106 146 0
109 147 0
107 146 0
110 148 0
107 146 0
107 146 0
105 145 0
107 146 0
106 145 0
106 146 0
106 145 0
106 145 0
114 150 0
104 144 0
108 146 0
108 147 0
113 149 0
107 146 0
111 148 0
107 146 0
106 145 0
106 146 0
104 144 0
108 146 0
106 145 0
106 145 0
111 148 0
111 148 0
106 145 0
107 146 0
108 147 0
112 149 0
110 148 0
103 144 0
106 145 0
103 143 0
109 147 0
103 143 0
112 149 0
105 145 0
110 148 0
105 145 0
106 145 0
109 147 0
110 148 0
108 147 0
108 147 0
106 145 0
109 147 0
111 148 0
105 145 0
105 145 0
109 147 0
104 144 0
111 148 0
105 144 0
108 147 0
108 146 0
107 146 0
105 144 0
108 146 0
106 145 0
107 146 0
112 149 0
104 144 0
110 148 0
109 147 0
108 147 0
105 145 0
108 147 0
106 145 0
110 148 0
107 146 0
107 146 0
109 147 0
106 145 0
109 147 0
105 145 0
105 145 0
109 147 0
106 145 0
106 145 0
108 146 0
106 145 0
111 149 0
104 144 0
106 145 0
107 146 0
107 146 0
108 146 0
110 148 0
104 144 0
107 146 0
109 147 0
106 145 0
107 146 0
109 147 0
106 146 0
106 145 0
107 146 0
109 147 0
108 146 0
105 145 0
115 150 0
106 145 0
111 148 0
104 144 0
105 145 0
104 144 0
106 145 0
106 145 0
107 146 0
112 149 0
106 145 0
105 144 0
107 146 0
107 146 0
107 146 0
111 148 0
107 146 0
109 147 0
109 147 0
108 146 0
108 147 0
110 148 0
107 146 0
107 146 0
109 147 0
111 148 0
107 146 0
110 147 0
110 148 0
111 148 0
107 146 0
107 146 0
110 147 0
106 145 0
110 148 0
108 146 0
109 147 0
111 148 0
112 149 0
107 146 0
106 146 0
105 145 0
105 145 0
110 148 0
110 148 0
103 144 0
108 147 0
110 148 0
106 145 0
107 146 0
110 148 0
109 147 0
107 146 0
108 147 0
106 145 0
106 145 0
110 148 0
106 145 0
113 149 0
110 148 0
108 147 0
107 146 0
105 145 0
111 148 0
109 147 0
108 146 0
108 147 0
107 146 0
105 145 0
111 148 0
104 144 0
110 148 0
107 146 0
107 146 0
107 146 0
108 146 0
108 146 0
107 146 0
106 145 0
107 146 0
107 146 0
106 146 0
109 147 0
106 145 0
107 146 0
109 147 0
108 146 0
107 146 0
109 147 0
109 147 0
109 147 0
106 146 0
106 145 0
106 145 0
112 149 0
110 148 0
109 147 0
114 150 0
112 149 0
105 145 0
110 148 0
108 147 0
110 147 0
107 146 0
107 146 0
113 149 0
109 147 0
103 144 0
107 146 0
107 146 0
111 148 0
111 148 0
111 148 0
103 144 0
112 149 0
113 150 0
108 147 0
107 146 0
108 146 0
114 150 0
109 147 0
106 146 0
110 148 0
105 145 0
112 149 0
107 146 0
110 148 0
105 145 0
114 150 0
107 146 0
108 146 0
112 149 0
112 149 0
108 147 0
107 146 0
106 145 0
108 147 0
108 146 0
107 146 0
105 145 0
108 146 0
106 145 0
110 148 0
109 147 0
108 147 0
106 145 0
111 148 0
113 150 0
107 146 0
113 149 0
111 148 0
109 147 0
106 145 0
110 148 0
107 146 0
108 147 0
107 146 0
109 147 0
112 149 0
110 148 0
108 146 0
107 146 0
110 148 0
107 146 0
107 146 0
105 145 0
105 145 0
111 148 0
108 147 0
108 146 0
105 145 0
113 150 0
109 147 0
105 144 0
106 146 0
108 147 0
107 146 0
112 149 0
106 146 0
109 147 0
111 148 0
110 148 0
106 145 0
111 148 0
109 147 0
108 146 0
107 146 0
108 147 0
109 147 0
111 148 0
106 145 0
109 147 0
106 145 0
109 147 0
109 147 0
108 147 0
103 144 0
106 145 0
106 145 0
105 145 0
108 146 0
106 145 0
107 146 0
106 146 0
108 147 0
110 148 0
105 145 0
108 147 0
104 144 0
108 146 0
108 146 0
105 145 0
109 147 0
106 145 0
107 146 0
108 146 0
105 145 0
105 145 0
105 145 0
105 145 0
110 147 0
108 147 0
109 147 0
107 146 0
107 146 0
109 147 0
105 145 0
109 147 0
103 144 0
105 145 0
108 147 0
109 147 0
110 148 0
109 147 0
108 147 0
106 145 0
108 147 0
107 146 0
108 147 0
106 145 0
108 147 0
106 145 0
106 145 0
112 149 0
107 146 0
105 145 0
109 147 0
108 147 0
107 146 0
107 146 0
103 144 0
107 146 0
103 144 0
108 147 0
108 147 0
110 148 0
110 148 0
109 147 0
112 149 0
107 146 0
106 146 0
107 146 0
108 147 0
106 145 0
104 144 0
108 147 0
105 145 0
109 147 0
107 146 0
108 146 0
110 148 0
107 146 0
108 147 0
103 144 0
109 147 0
108 147 0
107 146 0
107 146 0
106 145 0
108 146 0
107 146 0
107 146 0
110 148 0
108 146 0
107 146 0
108 147 0
110 147 0
108 147 0
106 145 0
107 146 0
107 146 0
106 146 0
106 145 0
107 146 0
106 145 0
107 146 0
108 146 0
107 146 0
109 147 0
107 146 0
107 146 0
108 146 0
107 146 0
105 145 0
109 147 0
106 145 0
107 146 0
106 145 0
108 146 0
105 145 0
110 147 0
111 148 0
107 146 0
105 145 0
108 146 0
107 146 0
109 147 0
108 147 0
106 145 0
105 145 0
109 147 0
104 144 0
106 145 0
105 145 0
106 146 0
108 147 0
105 145 0
108 146 0
109 147 0
110 148 0
108 147 0
104 144 0
107 146 0
104 144 0
105 145 0
108 147 0
106 145 0
109 147 0
106 145 0
111 148 0
107 146 0
104 144 0
107 146 0
109 147 0
109 147 0
110 148 0
106 145 0
108 147 0
107 146 0
106 146 0
110 148 0
105 145 0
108 147 0
109 147 0
107 146 0
105 145 0
105 145 0
104 144 0
108 146 0
105 145 0
107 146 0
105 145 0
106 146 0
106 145 0
107 146 0
107 146 0
107 146 0
104 144 0
109 147 0
106 145 0
109 147 0
106 145 0
109 147 0
106 145 0
108 146 0
114 150 0
112 149 0
107 146 0
112 149 0
109 147 0
111 148 0
108 146 0
104 144 0
108 147 0
112 149 0
107 146 0
108 147 0
114 150 0
112 149 0
110 147 0
104 144 0
109 147 0
106 146 0
106 146 0
108 147 0
106 146 0
104 144 0
110 148 0
108 147 0
111 148 0
106 145 0
105 145 0
112 149 0
110 148 0
106 145 0
109 147 0
109 147 0
109 147 0
107 146 0
107 146 0
108 146 0
108 147 0
112 149 0
107 146 0
107 146 0
110 148 0
105 145 0
112 149 0
107 146 0
107 146 0
109 147 0
105 145 0
105 145 0
111 149 0
106 146 0
110 148 0
109 147 0
107 146 0
107 146 0
108 146 0
110 148 0
106 145 0
109 147 0
106 145 0
107 146 0
106 145 0
112 149 0
110 148 0
111 149 0
109 147 0
111 149 0
107 146 0
107 146 0
111 149 0
107 146 0
106 145 0
104 144 0
106 145 0
112 149 0
109 147 0
110 148 0
107 146 0
109 147 0
109 147 0
107 146 0
107 146 0
111 148 0
109 147 0
113 149 0
111 149 0
108 147 0
107 146 0
112 149 0
109 147 0
108 147 0
111 148 0
107 146 0
110 147 0
109 147 0
106 146 0
106 145 0
109 147 0
105 145 0
106 146 0
113 149 0
111 148 0
109 147 0
108 146 0
107 146 0
107 146 0
106 145 0
106 145 0
109 147 0
104 144 0
107 146 0
112 149 0
110 148 0
107 146 0
112 149 0
113 150 0
109 147 0
110 148 0
112 149 0
109 147 0
110 148 0
111 148 0
107 146 0
110 148 0
107 146 0
108 146 0
107 146 0
106 145 0
110 148 0
108 146 0
104 144 0
105 145 0
108 146 0
113 149 0
111 148 0
113 149 0
110 148 0
106 146 0
110 148 0
111 148 0
112 149 0
108 147 0
106 145 0
115 151 0
114 150 0
107 146 0
107 146 0
109 147 0
109 147 0
110 148 0
107 146 0
109 147 0
106 145 0
114 150 0
106 146 0
110 148 0
108 146 0
111 148 0
110 148 0
109 147 0
114 150 0
106 145 0
107 146 0
107 146 0
110 147 0
110 148 0
108 147 0
106 145 0
111 148 0
108 146 0
113 150 0
112 149 0
107 146 0
106 145 0
106 146 0
108 147 0
109 147 0
111 148 0
110 148 0
111 148 0
110 148 0
110 148 0
105 145 0
112 149 0
111 148 0
108 146 0
107 146 0
109 147 0
112 149 0
109 147 0
111 148 0
106 146 0
110 147 0
107 146 0
104 144 0
107 146 0
111 148 0
110 148 0
109 147 0
109 147 0
106 145 0
103 144 0
108 147 0
106 145 0
108 147 0
109 147 0
107 146 0
107 146 0
107 146 0
110 148 0
111 148 0
110 148 0
106 145 0
112 149 0
106 145 0
105 144 0
106 145 0
109 147 0
108 146 0
110 148 0
107 146 0
104 144 0
107 146 0
108 147 0
105 145 0
106 145 0
106 145 0
111 149 0
110 148 0
109 147 0
107 146 0
109 147 0
107 146 0
108 147 0
106 146 0
104 144 0
106 145 0
106 146 0
103 144 0
107 146 0
107 146 0
105 145 0
107 146 0
108 146 0
106 145 0
108 146 0
106 145 0
108 146 0
107 146 0
106 145 0
109 147 0
108 146 0
108 146 0
105 145 0
105 145 0
107 146 0
105 145 0
106 146 0
105 145 0
106 145 0
108 147 0
106 145 0
107 146 0
110 148 0
110 148 0
107 146 0
110 148 0
106 145 0
109 147 0
105 145 0
104 144 0
109 147 0
108 147 0
108 146 0
107 146 0
108 147 0
109 147 0
108 147 0
109 147 0
106 145 0
108 146 0
107 146 0
109 147 0
106 145 0
112 149 0
107 146 0
110 148 0
105 145 0
107 146 0
104 144 0
107 146 0
108 147 0
108 147 0
112 149 0
107 146 0
105 145 0
106 145 0
110 148 0
110 148 0
107 146 0
109 147 0
106 145 0
106 145 0
109 147 0
110 148 0
109 147 0
105 145 0
104 144 0
107 146 0
109 147 0
108 146 0
106 146 0
106 145 0
107 146 0
108 147 0
106 145 0
107 146 0
112 149 0
108 146 0
109 147 0
107 146 0
110 147 0
108 146 0
106 145 0
108 147 0
111 148 0
108 147 0
104 144 0
107 146 0
104 144 0
107 146 0
108 146 0
107 146 0
107 146 0
108 147 0
109 147 0
110 148 0
109 147 0
110 148 0
107 146 0
104 144 0
110 148 0
104 144 0
113 149 0
107 146 0
106 145 0
104 144 0
105 145 0
106 145 0
110 148 0
109 147 0
106 145 0
109 147 0
107 146 0
104 144 0
108 146 0
109 147 0
109 147 0
106 145 0
106 146 0
104 144 0
107 146 0
109 147 0
108 147 0
105 145 0
105 145 0
106 146 0
105 145 0
104 144 0
104 144 0
108 147 0
108 147 0
105 145 0
110 148 0
109 147 0
106 145 0
106 146 0
104 144 0
108 146 0
105 145 0
103 143 0
112 149 0
106 145 0
111 148 0
107 146 0
110 147 0
106 146 0
107 146 0
109 147 0
110 147 0
106 145 0
107 146 0
108 147 0
110 148 0
107 146 0
105 145 0
108 146 0
106 146 0
110 148 0
105 145 0
109 147 0
107 146 0
112 149 0
107 146 0
112 149 0
108 146 0
110 148 0
109 147 0
110 148 0
110 148 0
104 144 0
108 146 0
107 146 0
110 148 0
107 146 0
110 148 0
107 146 0
107 146 0
107 146 0
107 146 0
107 146 0
113 149 0
104 144 0
108 147 0
105 145 0
106 145 0
108 147 0
107 146 0
109 147 0
107 146 0
109 147 0
107 146 0
108 146 0
106 146 0
109 147 0
106 146 0
105 145 0
110 148 0
105 145 0
107 146 0
109 147 0
112 149 0
115 151 0
108 147 0
106 146 0
110 148 0
107 146 0
110 148 0
108 147 0
111 148 0
108 146 0
109 147 0
108 146 0
108 147 0
110 147 0
105 145 0
108 147 0
106 145 0
111 148 0
106 145 0
105 145 0
109 147 0
107 146 0
105 145 0
108 147 0
110 148 0
108 147 0
109 147 0
108 147 0
110 148 0
107 146 0
107 146 0
109 147 0
110 148 0
108 147 0
110 148 0
106 145 0
111 149 0
112 149 0
108 146 0
107 146 0
110 148 0
113 149 0
110 147 0
107 146 0
106 145 0
106 145 0
111 149 0
109 147 0
111 148 0
110 147 0
111 148 0
108 147 0
106 146 0
108 147 0
111 148 0
109 147 0
105 145 0
104 144 0
106 145 0
115 151 0
110 148 0
109 147 0
108 146 0
111 149 0
108 146 0
109 147 0
109 147 0
110 147 0
110 148 0
111 148 0
106 145 0
112 149 0
107 146 0
104 144 0
111 148 0
109 147 0
109 147 0
107 146 0
113 149 0
111 148 0
111 148 0
110 148 0
109 147 0
109 147 0
112 149 0
114 150 0
110 148 0
112 149 0
109 147 0
106 146 0
111 149 0
106 145 0
111 148 0
106 145 0
105 145 0
108 146 0
106 145 0
108 146 0
106 145 0
105 145 0
109 147 0
112 149 0
108 146 0
108 147 0
107 146 0
106 145 0
109 147 0
108 147 0
107 146 0
111 148 0
109 147 0
110 148 0
112 149 0
105 145 0
106 145 0
108 147 0
106 145 0
111 148 0
105 145 0
115 150 0
109 147 0
107 146 0
109 147 0
107 146 0
109 147 0
106 145 0
104 144 0
114 150 0
110 148 0
105 145 0
110 148 0
112 149 0
104 144 0
108 147 0
110 148 0
107 146 0
109 147 0
109 147 0
110 148 0
111 148 0
106 145 0
112 149 0
106 146 0
107 146 0
109 147 0
106 145 0
105 145 0
114 150 0
105 144 0
110 148 0
108 146 0
108 146 0
107 146 0
104 144 0
112 149 0
107 146 0
105 145 0
112 149 0
107 146 0
110 148 0
113 149 0
104 144 0
113 149 0
105 145 0
106 146 0
109 147 0
109 147 0
108 146 0
105 145 0
111 148 0
108 146 0
106 145 0
111 148 0
110 148 0
106 145 0
106 145 0
111 148 0
110 148 0
107 146 0
108 147 0
105 145 0
107 146 0
111 149 0
108 147 0
109 147 0
104 144 0
107 146 0
109 147 0
108 147 0
109 147 0
104 144 0
106 146 0
106 145 0
108 147 0
110 148 0
105 145 0
107 146 0
105 145 0
108 147 0
106 145 0
109 147 0
110 148 0
109 147 0
104 144 0
107 146 0
107 146 0
111 148 0
112 149 0
104 144 0
104 144 0
111 148 0
108 147 0
109 147 0
105 145 0
108 147 0
107 146 0
108 147 0
108 147 0
108 146 0
104 144 0
106 145 0
111 148 0
108 147 0
107 146 0
105 145 0
106 145 0
108 147 0
108 146 0
108 146 0
108 147 0
107 146 0
104 144 0
108 147 0
107 146 0
105 144 0
108 147 0
107 146 0
111 148 0
110 147 0
108 147 0
112 149 0
111 148 0
107 146 0
105 145 0
110 148 0
106 145 0
108 146 0
106 145 0
105 145 0
106 145 0
109 147 0
105 145 0
108 146 0
105 145 0
109 147 0
108 146 0
108 146 0
110 148 0
106 145 0
107 146 0
105 145 0
109 147 0
107 146 0
106 145 0
110 148 0
103 144 0
107 146 0
110 148 0
111 148 0
106 145 0
106 145 0
110 148 0
109 147 0
106 145 0
109 147 0
107 146 0
107 146 0
109 147 0
107 146 0
111 148 0
106 145 0
105 145 0
106 146 0
106 145 0
108 147 0
109 147 0
106 146 0
107 146 0
108 146 0
105 145 0
106 146 0
110 148 0
110 147 0
108 146 0
104 144 0
109 147 0
106 145 0
106 145 0
104 144 0
109 147 0
110 148 0
108 146 0
109 147 0
106 145 0
107 146 0
102 143 0
109 147 0
105 144 0
106 145 0
107 146 0
108 147 0
104 144 0
110 147 0
108 146 0
109 147 0
107 146 0
103 144 0
107 146 0
108 146 0
107 146 0
105 145 0
109 147 0
112 149 0
104 144 0
107 146 0
109 147 0
108 146 0
107 146 0
106 145 0
109 147 0
108 146 0
105 145 0
108 147 0
111 148 0
108 146 0
107 146 0
108 146 0
108 147 0
109 147 0
110 148 0
110 148 0
110 148 0
108 146 0
108 147 0
105 145 0
108 147 0
107 146 0
107 146 0
110 148 0
105 145 0
106 146 0
105 145 0
108 146 0
109 147 0
107 146 0
108 146 0
107 146 0
106 145 0
106 145 0
104 144 0
107 146 0
113 150 0
115 151 0
109 147 0
105 145 0
108 147 0
111 148 0
106 145 0
109 147 0
110 148 0
107 146 0
107 146 0
111 148 0
111 149 0
110 148 0
107 146 0
107 146 0
108 146 0
107 146 0
111 148 0
107 146 0
106 146 0
107 146 0
107 146 0
107 146 0
107 146 0
108 146 0
108 146 0
105 145 0
108 146 0
107 146 0
107 146 0
109 147 0
108 147 0
110 148 0
108 146 0
111 149 0
108 146 0
111 148 0
105 145 0
108 147 0
107 146 0
110 148 0
107 146 0
107 146 0
108 147 0
106 145 0
107 146 0
108 147 0
110 147 0
111 148 0
107 146 0
110 148 0
110 148 0
105 145 0
109 147 0
106 145 0
108 146 0
111 148 0
106 146 0
107 146 0
109 147 0
108 147 0
109 147 0
107 146 0
109 147 0
114 150 0
108 146 0
104 144 0
113 150 0
107 146 0
109 147 0
105 145 0
111 148 0
108 146 0
111 149 0
112 149 0
109 147 0
107 146 0
107 146 0
105 145 0
106 145 0
110 148 0
106 145 0
114 150 0
107 146 0
105 145 0
108 147 0
106 145 0
110 148 0
107 146 0
107 146 0
109 147 0
107 146 0
110 148 0
109 147 0
107 146 0
107 146 0
109 147 0
106 145 0
114 150 0
109 147 0
105 145 0
104 144 0
109 147 0
105 145 0
110 148 0
108 146 0
109 147 0
110 147 0
109 147 0
106 145 0
111 148 0
109 147 0
107 146 0
109 147 0
106 145 0
108 147 0
108 146 0
110 148 0
111 148 0
105 145 0
109 147 0
106 145 0
107 146 0
108 146 0
109 147 0
115 151 0
108 147 0
114 150 0
108 147 0
105 145 0
109 147 0
108 147 0
110 148 0
108 146 0
106 145 0
109 147 0
105 145 0
109 147 0
109 147 0
105 144 0
111 148 0
103 144 0
107 146 0
111 148 0
106 145 0
110 148 0
109 147 0
107 146 0
108 146 0
110 147 0
109 147 0
111 148 0
109 147 0
108 146 0
107 146 0
111 148 0
107 146 0
106 145 0
110 148 0
108 146 0
107 146 0
109 147 0
108 147 0
107 146 0
109 147 0
106 145 0
111 148 0
107 146 0
110 148 0
106 145 0
108 147 0
107 146 0
106 145 0
108 147 0
111 148 0
108 147 0
112 149 0
109 147 0
108 146 0
109 147 0
108 146 0
107 146 0
105 145 0
111 148 0
104 144 0
112 149 0
110 148 0
110 148 0
109 147 0
106 145 0
107 146 0
108 147 0
114 150 0
106 145 0
110 148 0
111 149 0
111 148 0
107 146 0
108 147 0
108 147 0
113 150 0
110 148 0
111 148 0
110 148 0
114 150 0
112 149 0
111 148 0
110 148 0
110 147 0
108 147 0
106 145 0
106 145 0
108 146 0
108 147 0
111 148 0
110 148 0
104 144 0
103 144 0
109 147 0
106 146 0
109 147 0
104 144 0
104 144 0
102 143 0
108 147 0
107 146 0
106 146 0
103 144 0
107 146 0
105 145 0
109 147 0
106 145 0
110 148 0
107 146 0
111 148 0
111 148 0
107 146 0
108 146 0
111 148 0
111 148 0
108 146 0
107 146 0
107 146 0
104 144 0
112 149 0
104 144 0
108 146 0
107 146 0
111 148 0
109 147 0
113 149 0
109 147 0
107 146 0
106 145 0
107 146 0
106 145 0
104 144 0
110 148 0
107 146 0
110 148 0
105 144 0
110 148 0
109 147 0
106 145 0
107 146 0
110 148 0
104 144 0
105 145 0
106 145 0
106 145 0
108 147 0
106 145 0
107 146 0
108 147 0
106 145 0
107 146 0
107 146 0
109 147 0
109 147 0
110 148 0
109 147 0
106 146 0
106 145 0
106 145 0
108 147 0
106 145 0
107 146 0
110 148 0
110 148 0
108 146 0
106 145 0
108 147 0
106 145 0
105 145 0
109 147 0
107 146 0
105 144 0
106 145 0
108 147 0
106 146 0
109 147 0
106 145 0
108 147 0
106 145 0
107 146 0
107 146 0
106 146 0
106 146 0
109 147 0
110 148 0
106 145 0
109 147 0
109 147 0
111 148 0
108 147 0
108 147 0
104 144 0
107 146 0
110 147 0
108 146 0
110 148 0
105 145 0
109 147 0
108 146 0
106 145 0
106 145 0
103 144 0
108 146 0
107 146 0
108 147 0
107 146 0
107 146 0
108 146 0
107 146 0
109 147 0
108 147 0
108 147 0
104 144 0
107 146 0
107 146 0
105 145 0
107 146 0
109 147 0
105 145 0
107 146 0
106 145 0
109 147 0
107 146 0
108 147 0
113 149 0
105 144 0
110 148 0
105 145 0
107 146 0
105 145 0
108 146 0
109 147 0
108 147 0
105 145 0
106 145 0
107 146 0
105 145 0
107 146 0
110 147 0
108 146 0
107 146 0
104 144 0
110 148 0
108 147 0
107 146 0
107 146 0
105 145 0
105 145 0
109 147 0
108 146 0
111 148 0
108 146 0
108 147 0
106 146 0
110 148 0
108 147 0
109 147 0
109 147 0
107 146 0
105 145 0
106 145 0
106 145 0
106 145 0
107 146 0
108 146 0
105 145 0
107 146 0
103 144 0
107 146 0
105 145 0
105 145 0
112 149 0
110 148 0
106 145 0
107 146 0
110 148 0
110 148 0
110 148 0
110 148 0
111 148 0
109 147 0
108 147 0
105 145 0
110 148 0
106 146 0
107 146 0
109 147 0
108 146 0
107 146 0
107 146 0
111 148 0
109 147 0
107 146 0
111 148 0
104 144 0
106 145 0
107 146 0
108 147 0
107 146 0
109 147 0
106 145 0
105 145 0
106 146 0
108 146 0
104 144 0
109 147 0
105 145 0
108 147 0
109 147 0
111 148 0
105 145 0
113 149 0
107 146 0
105 145 0
107 146 0
108 146 0
109 147 0
108 146 0
109 147 0
108 147 0
106 145 0
105 145 0
106 145 0
109 147 0
105 145 0
109 147 0
113 149 0
110 148 0
109 147 0
106 146 0
107 146 0
107 146 0
106 146 0
110 148 0
110 147 0
109 147 0
109 147 0
107 146 0
110 148 0
107 146 0
105 145 0
109 147 0
106 145 0
109 147 0
105 145 0
109 147 0
109 147 0
110 148 0
104 144 0
103 144 0
111 149 0
105 145 0
106 145 0
106 145 0
107 146 0
109 147 0
105 145 0
108 147 0
106 145 0
108 146 0
107 146 0
108 147 0
112 149 0
107 146 0
106 145 0
106 145 0
106 145 0
109 147 0
106 145 0
109 147 0
106 145 0
107 146 0
107 146 0
110 148 0
113 150 0
108 147 0
108 147 0
106 145 0
112 149 0
110 148 0
110 148 0
109 147 0
108 147 0
107 146 0
109 147 0
106 145 0
110 148 0
110 148 0
110 148 0
105 145 0
108 146 0
107 146 0
110 148 0
108 147 0
111 148 0
111 149 0
106 146 0
107 146 0
107 146 0
108 146 0
108 146 0
107 146 0
106 145 0
104 144 0
107 146 0
112 149 0
109 147 0
106 146 0
106 145 0
108 147 0
107 146 0
106 145 0
109 147 0
105 145 0
110 148 0
107 146 0
106 146 0
109 147 0
110 148 0
105 145 0
107 146 0
109 147 0
109 147 0
110 147 0
111 148 0
105 145 0
109 147 0
109 147 0
106 145 0
108 147 0
109 147 0
112 149 0
105 145 0
107 146 0
108 146 0
109 147 0
108 146 0
108 147 0
107 146 0
106 145 0
107 146 0
104 144 0
107 146 0
109 147 0
107 146 0
112 149 0
106 146 0
106 145 0
108 146 0
110 148 0
111 148 0
110 148 0
111 148 0
108 146 0
108 147 0
108 146 0
108 147 0
106 145 0
109 147 0
107 146 0
114 150 0
105 144 0
114 150 0
111 148 0
107 146 0
105 145 0
112 149 0
111 148 0
107 146 0
109 147 0
109 147 0
113 149 0
108 146 0
114 150 0
112 149 0
107 146 0
107 146 0
107 146 0
108 146 0
112 149 0
109 147 0
110 148 0
109 147 0
108 147 0
105 144 0
106 145 0
109 147 0
107 146 0
106 145 0
103 144 0
109 147 0
107 146 0
107 146 0
110 147 0
108 146 0
108 146 0
107 146 0
103 144 0
109 147 0
109 147 0
108 146 0
109 147 0
107 146 0
107 146 0
111 148 0
106 145 0
105 145 0
105 145 0
107 146 0
108 146 0
106 146 0
108 147 0
109 147 0
107 146 0
109 147 0
104 144 0
104 144 0
110 148 0
106 145 0
108 147 0
108 146 0
104 144 0
112 149 0
105 145 0
109 147 0
103 144 0
107 146 0
112 149 0
109 147 0
107 146 0
104 144 0
107 146 0
104 144 0
105 145 0
105 145 0
103 144 0
106 146 0
108 146 0
106 145 0
105 145 0
106 145 0
111 148 0
104 144 0
106 146 0
104 144 0
107 146 0
104 144 0
107 146 0
110 148 0
106 145 0
105 144 0
109 147 0
107 146 0
110 148 0
106 145 0
112 149 0
108 147 0
106 145 0
106 146 0
106 145 0
108 146 0
109 147 0
112 149 0
107 146 0
106 146 0
106 145 0
107 146 0
108 146 0
106 145 0
105 145 0
108 147 0
109 147 0
107 146 0
108 147 0
110 148 0
110 148 0
107 146 0
108 147 0
107 146 0
106 145 0
108 146 0
107 146 0
111 148 0
111 148 0
108 147 0
108 147 0
109 147 0
107 146 0
106 145 0
109 147 0
106 145 0
109 147 0
107 146 0
105 144 0
108 147 0
110 148 0
106 145 0
109 147 0
110 148 0
104 144 0
109 147 0
110 148 0
106 145 0
107 146 0
108 147 0
105 145 0
104 144 0
106 145 0
108 146 0
109 147 0
108 146 0
111 148 0
106 145 0
106 146 0
108 146 0
103 143 0
107 146 0
110 147 0
113 150 0
110 147 0
107 146 0
108 146 0
106 146 0
107 146 0
107 146 0
106 145 0
107 146 0
106 146 0
107 146 0
105 145 0
108 146 0
105 145 0
109 147 0
110 147 0
107 146 0
104 144 0
105 145 0
106 145 0
108 146 0
104 144 0
107 146 0
105 144 0
106 145 0
106 145 0
107 146 0
109 147 0
110 148 0
109 147 0
105 145 0
103 144 0
111 148 0
106 145 0
109 147 0
108 147 0
107 146 0
104 144 0
106 146 0
107 146 0
106 146 0
106 145 0
108 147 0
105 145 0
110 148 0
104 144 0
110 147 0
103 144 0
109 147 0
105 145 0
113 149 0
110 147 0
105 145 0
107 146 0
107 146 0
109 147 0
107 146 0
105 145 0
107 146 0
107 146 0
105 145 0
108 147 0
107 146 0
111 148 0
106 145 0
107 146 0
108 146 0
110 148 0
109 147 0
106 145 0
107 146 0
109 147 0
106 145 0
107 146 0
107 146 0
104 144 0
105 145 0
109 147 0
113 149 0
107 146 0
106 146 0
109 147 0
105 145 0
105 145 0
107 146 0
109 147 0
110 148 0
106 145 0
105 145 0
108 147 0
107 146 0
107 146 0
109 147 0
107 146 0
115 150 0
111 148 0
106 146 0
108 146 0
110 148 0
112 149 0
106 146 0
108 147 0
103 144 0
108 147 0
105 145 0
109 147 0
109 147 0
107 146 0
109 147 0
111 148 0
108 146 0
112 149 0
105 145 0
107 146 0
111 148 0
111 149 0
114 150 0
107 146 0
111 148 0
109 147 0
108 146 0
105 145 0
107 146 0
105 145 0
108 146 0
106 145 0
106 145 0
114 150 0
109 147 0
105 144 0
104 144 0
108 146 0
108 146 0
107 146 0
110 148 0
106 146 0
111 149 0
107 146 0
110 148 0
110 148 0
108 146 0
107 146 0
106 145 0
106 145 0
112 149 0
109 147 0
103 144 0
108 146 0
108 147 0
108 146 0
109 147 0
107 146 0
104 144 0
107 146 0
109 147 0
107 146 0
108 147 0
110 148 0
109 147 0
108 147 0
110 147 0
107 146 0
112 149 0
110 147 0
112 149 0
110 148 0
108 147 0
109 147 0
108 147 0
106 146 0
111 148 0
107 146 0
108 146 0
103 144 0
109 147 0
107 146 0
108 146 0
108 146 0
106 146 0
108 147 0
110 148 0
107 146 0
106 146 0
108 146 0
111 148 0
108 146 0
105 145 0
113 150 0
109 147 0
109 147 0
112 149 0
106 145 0
106 146 0
109 147 0
104 144 0
106 145 0
108 146 0
108 146 0
104 144 0
108 147 0
111 148 0
105 145 0
108 146 0
108 146 0
109 147 0
113 150 0
106 145 0
105 145 0
107 146 0
110 147 0
107 146 0
106 145 0
108 146 0
108 146 0
112 149 0
108 146 0
107 146 0
107 146 0
108 147 0
107 146 0
105 145 0
111 148 0
104 144 0
109 147 0
109 147 0
109 147 0
109 147 0
106 145 0
111 148 0
104 144 0
114 150 0
112 149 0
108 147 0
114 150 0
105 145 0
111 148 0
106 145 0
108 147 0
108 146 0
105 145 0
107 146 0
112 149 0
110 148 0
112 149 0
109 147 0
108 146 0
109 147 0
113 150 0
110 148 0
111 148 0
106 145 0
106 145 0
108 147 0
107 146 0
112 149 0
106 145 0
106 145 0
112 149 0
108 147 0
109 147 0
107 146 0
108 147 0
111 148 0
106 145 0
107 146 0
112 149 0
108 147 0
106 145 0
110 148 0
105 145 0
103 143 0
107 146 0
105 145 0
108 146 0
106 146 0
104 144 0
107 146 0
105 145 0
109 147 0
107 146 0
108 147 0
107 146 0
105 144 0
110 148 0
106 145 0
106 146 0
109 147 0
108 146 0
108 146 0
104 144 0
106 145 0
108 147 0
105 145 0
111 149 0
107 146 0
108 146 0
104 144 0
108 146 0
111 148 0
104 144 0
107 146 0
106 146 0
109 147 0
105 145 0
105 145 0
109 147 0
107 146 0
106 145 0
106 145 0
108 147 0
106 145 0
108 147 0
110 148 0
104 144 0
111 148 0
105 145 0
109 147 0
109 147 0
107 146 0
104 144 0
103 143 0
105 144 0
105 145 0
107 146 0
109 147 0
107 146 0
113 150 0
105 145 0
107 146 0
107 146 0
104 144 0
111 148 0
109 147 0
106 146 0
104 144 0
104 144 0
108 146 0
106 145 0
105 145 0
108 146 0
105 144 0
105 145 0
108 146 0
108 146 0
106 145 0
108 146 0
111 148 0
106 145 0
106 145 0
106 145 0
106 145 0
109 147 0
110 148 0
105 145 0
109 147 0
105 145 0
105 145 0
106 145 0
107 146 0
111 149 0
111 148 0
104 144 0
111 149 0
106 145 0
107 146 0
106 146 0
112 149 0
111 149 0
108 147 0
104 144 0
105 145 0
111 148 0
105 145 0
110 147 0
107 146 0
106 145 0
108 146 0
107 146 0
109 147 0
110 148 0
106 145 0
109 147 0
108 147 0
106 146 0
106 145 0
106 145 0
108 146 0
104 144 0
109 147 0
104 144 0
109 147 0
107 146 0
110 148 0
106 145 0
106 145 0
108 147 0
105 145 0
108 146 0
106 146 0
105 145 0
108 146 0
107 146 0
107 146 0
109 147 0
108 147 0
109 147 0
105 145 0
107 146 0
109 147 0
108 147 0
111 148 0
103 144 0
106 146 0
109 147 0
108 147 0
110 148 0
106 146 0
108 147 0
109 147 0
106 145 0
110 148 0
107 146 0
108 146 0
106 145 0
105 145 0
107 146 0
104 144 0
104 144 0
107 146 0
109 147 0
108 146 0
111 148 0
113 149 0
104 144 0
109 147 0
105 144 0
105 145 0
104 144 0
105 145 0
106 145 0
108 146 0
109 147 0
107 146 0
107 146 0
107 146 0
108 147 0
110 148 0
111 149 0
109 147 0
109 147 0
106 145 0
110 148 0
107 146 0
108 146 0
109 147 0
109 147 0
109 147 0
107 146 0
106 146 0
110 148 0
107 146 0
105 145 0
106 145 0
106 146 0
108 146 0
108 146 0
104 144 0
109 147 0
107 146 0
110 148 0
111 148 0
107 146 0
108 147 0
107 146 0
108 146 0
109 147 0
106 145 0
106 145 0
108 147 0
108 147 0
109 147 0
107 146 0
109 147 0
109 147 0
110 148 0
108 147 0
109 147 0
109 147 0
111 148 0
106 146 0
107 146 0
107 146 0
109 147 0
111 148 0
109 147 0
107 146 0
111 148 0
105 145 0
108 147 0
109 147 0
111 148 0
107 146 0
111 149 0
110 148 0
110 148 0
110 148 0
110 148 0
107 146 0
105 145 0
106 145 0
109 147 0
108 147 0
108 147 0
109 147 0
105 144 0
106 145 0
112 149 0
106 146 0
112 149 0
105 145 0
107 146 0
109 147 0
105 145 0
106 145 0
106 145 0
106 145 0
108 147 0
107 146 0
109 147 0
104 144 0
107 146 0
106 145 0
109 147 0
107 146 0
111 148 0
105 145 0
108 147 0
109 147 0
108 147 0
114 150 0
109 147 0
104 144 0
106 145 0
110 147 0
106 145 0
107 146 0
108 146 0
110 148 0
111 148 0
105 145 0
107 146 0
108 147 0
107 146 0
112 149 0
113 150 0
105 145 0
107 146 0
108 147 0
107 146 0
113 150 0
106 145 0
111 148 0
106 145 0
106 145 0
110 148 0
110 148 0
103 144 0
109 147 0
105 145 0
109 147 0
110 148 0
110 148 0
110 148 0
105 145 0
105 145 0
112 149 0
111 148 0
110 148 0
107 146 0
113 150 0
110 148 0
106 145 0
108 147 0
109 147 0
108 146 0
115 151 0
112 149 0
110 148 0
108 146 0
113 149 0
106 145 0
108 146 0
109 147 0
110 148 0
109 147 0
107 146 0
115 151 0
105 145 0
107 146 0
108 147 0
109 147 0
106 145 0
113 149 0
108 147 0
107 146 0
108 147 0
106 145 0
109 147 0
104 144 0
107 146 0
112 149 0
107 146 0
110 148 0
105 145 0
108 146 0
109 147 0
107 146 0
110 148 0
110 148 0
107 146 0
112 149 0
105 145 0
112 149 0
111 149 0
110 148 0
105 145 0
108 147 0
107 146 0
109 147 0
108 147 0
106 145 0
108 147 0
111 148 0
108 146 0
105 144 0
109 147 0
106 145 0
105 145 0
107 146 0
107 146 0
107 146 0
109 147 0
109 147 0
108 146 0
110 148 0
109 147 0
109 147 0
113 149 0
106 146 0
112 149 0
106 145 0
108 147 0
108 147 0
109 147 0
107 146 0
110 148 0
111 148 0
106 145 0
111 148 0
105 145 0
111 148 0
109 147 0
109 147 0
108 146 0
111 149 0
109 147 0
106 145 0
105 145 0
107 146 0
105 145 0
106 145 0
113 149 0
109 147 0
108 147 0
107 146 0
109 147 0
108 147 0
105 145 0
106 146 0
106 146 0
111 148 0
105 145 0
107 146 0
110 148 0
107 146 0
107 146 0
105 145 0
108 146 0
105 145 0
110 148 0
107 146 0
106 145 0
107 146 0
111 148 0
105 145 0
106 146 0
107 146 0
106 145 0
103 144 0
109 147 0
115 151 0
105 145 0
104 144 0
108 146 0
105 145 0
112 149 0
105 145 0
105 144 0
107 146 0
104 144 0
106 145 0
106 145 0
107 146 0
109 147 0
106 146 0
106 145 0
107 146 0
110 148 0
106 145 0
106 145 0
108 146 0
106 145 0
108 147 0
105 145 0
104 144 0
108 146 0
105 145 0
107 146 0
107 146 0
105 145 0
109 147 0
106 145 0
109 147 0
108 146 0
108 147 0
110 148 0
108 147 0
109 147 0
105 145 0
105 144 0
105 145 0
105 145 0
108 146 0
109 147 0
108 147 0
110 148 0
110 148 0
102 143 0
111 148 0
104 144 0
108 146 0
106 145 0
105 144 0
108 147 0
110 148 0
110 148 0
105 145 0
106 146 0
104 144 0
105 145 0
107 146 0
113 150 0
107 146 0
107 146 0
108 147 0
109 147 0
105 145 0
107 146 0
107 146 0
105 145 0
108 146 0
107 146 0
105 145 0
105 144 0
110 148 0
110 148 0
106 146 0
106 145 0
107 146 0
110 148 0
107 146 0
106 146 0
105 145 0
108 146 0
109 147 0
110 147 0
105 145 0
107 146 0
110 148 0
108 146 0
107 146 0
109 147 0
107 146 0
107 146 0
105 144 0
105 145 0
108 146 0
106 145 0
106 145 0
110 147 0
109 147 0
109 147 0
107 146 0
109 147 0
106 145 0
105 145 0
106 145 0
105 145 0
108 146 0
104 144 0
108 147 0
108 147 0
109 147 0
107 146 0
104 144 0
106 146 0
107 146 0
104 144 0
108 146 0
110 148 0
105 145 0
106 145 0
107 146 0
107 146 0
108 146 0
108 146 0
108 146 0
111 148 0
108 146 0
106 145 0
107 146 0
103 144 0
108 147 0
112 149 0
113 149 0
106 146 0
106 146 0
105 145 0
107 146 0
109 147 0
106 145 0
112 149 0
107 146 0
106 145 0
109 147 0
113 150 0
108 147 0
107 146 0
109 147 0
109 147 0
107 146 0
111 149 0
109 147 0
106 145 0
109 147 0
108 146 0
105 145 0
108 146 0
111 148 0
111 148 0
112 149 0
111 148 0
110 148 0
104 144 0
107 146 0
105 145 0
109 147 0
105 145 0
105 145 0
107 146 0
106 145 0
108 146 0
105 145 0
104 144 0
105 144 0
104 144 0
111 148 0
111 148 0
105 145 0
105 145 0
104 144 0
110 147 0
111 148 0
110 148 0
106 146 0
110 148 0
105 145 0
105 145 0
107 146 0
108 146 0
105 145 0
106 145 0
110 148 0
105 145 0
106 145 0
106 146 0
106 146 0
109 147 0
111 148 0
106 145 0
113 149 0
105 145 0
108 147 0
107 146 0
108 146 0
105 145 0
106 145 0
107 146 0
110 148 0
104 144 0
105 145 0
106 145 0
108 146 0
107 146 0
106 145 0
108 147 0
106 146 0
109 147 0
113 149 0
107 146 0
105 145 0
111 148 0
106 145 0
109 147 0
107 146 0
109 147 0
109 147 0
109 147 0
108 146 0
106 145 0
108 147 0
109 147 0
110 147 0
106 145 0
110 148 0
109 147 0
104 144 0
111 148 0
105 145 0
108 146 0
113 149 0
107 146 0
111 148 0
108 147 0
109 147 0
107 146 0
107 146 0
106 145 0
106 145 0
109 147 0
111 148 0
108 146 0
109 147 0
110 148 0
105 145 0
112 149 0
107 146 0
109 147 0
113 150 0
110 148 0
108 147 0
112 149 0
105 145 0
104 144 0
110 148 0
108 146 0
110 148 0
109 147 0
109 147 0
109 147 0
110 148 0
107 146 0
114 150 0
110 147 0
108 147 0
112 149 0
106 145 0
104 144 0
111 148 0
110 148 0
109 147 0
108 146 0
108 146 0
108 147 0
108 146 0
111 149 0
110 148 0
110 147 0
107 146 0
111 149 0
109 147 0
106 145 0
109 147 0
111 148 0
109 147 0
109 147 0
110 148 0
109 147 0
105 145 0
112 149 0
106 145 0
107 146 0
114 150 0
109 147 0
109 147 0
106 145 0
108 146 0
109 147 0
108 147 0
108 146 0
108 146 0
108 146 0
108 147 0
108 147 0
108 146 0
108 146 0
109 147 0
111 148 0
110 147 0
111 148 0
108 147 0
112 149 0
106 146 0
108 147 0
106 145 0
109 147 0
107 146 0
111 148 0
111 149 0
109 147 0
109 147 0
110 147 0
109 147 0
108 146 0
108 147 0
113 150 0
108 147 0
110 147 0
106 145 0
109 147 0
107 146 0
113 150 0
106 145 0
109 147 0
108 147 0
107 146 0
108 146 0
109 147 0
109 147 0
108 147 0
112 149 0
107 146 0
108 146 0
110 148 0
109 147 0
107 146 0
107 146 0
113 150 0
108 147 0
108 147 0
110 148 0
111 148 0
111 148 0
107 146 0
107 146 0
108 146 0
105 144 0
106 145 0
106 146 0
105 145 0
109 147 0
106 145 0
105 145 0
107 146 0
108 146 0
107 146 0
105 145 0
106 145 0
108 147 0
106 145 0
108 147 0
106 145 0
105 145 0
109 147 0
108 146 0
109 147 0
108 146 0
108 146 0
106 145 0
107 146 0
109 147 0
106 145 0
108 146 0
108 147 0
108 146 0
104 144 0
105 144 0
107 146 0
105 145 0
105 145 0
103 144 0
106 145 0
105 144 0
104 144 0
104 144 0
105 144 0
106 146 0
109 147 0
108 146 0
111 148 0
106 145 0
107 146 0
110 148 0
107 146 0
109 147 0
110 148 0
107 146 0
108 146 0
106 145 0
108 146 0
104 144 0
109 147 0
104 144 0
108 146 0
105 145 0
107 146 0
105 145 0
107 146 0
108 147 0
106 146 0
108 146 0
105 145 0
104 144 0
111 148 0
107 146 0
104 144 0
104 144 0
115 151 0
107 146 0
110 147 0
107 146 0
106 145 0
109 147 0
108 147 0
106 146 0
106 146 0
105 145 0
114 150 0
106 146 0
105 145 0
105 145 0
104 144 0
109 147 0
110 148 0
110 148 0
112 149 0
108 146 0
106 145 0
108 146 0
111 149 0
106 145 0
105 145 0
106 145 0
109 147 0
108 147 0
107 146 0
106 145 0
111 148 0
110 148 0
105 145 0
109 147 0
106 145 0
110 148 0
107 146 0
106 145 0
108 146 0
108 146 0
108 147 0
104 144 0
109 147 0
109 147 0
106 145 0
108 147 0
114 150 0
110 148 0
105 145 0
109 147 0
107 146 0
106 145 0
110 148 0
108 147 0
107 146 0
105 145 0
110 148 0
115 151 0
106 145 0
105 145 0
106 146 0
107 146 0
108 147 0
107 146 0
108 146 0
107 146 0
108 146 0
110 148 0
103 144 0
103 144 0
107 146 0
105 145 0
104 144 0
112 149 0
109 147 0
110 148 0
106 146 0
107 146 0
110 148 0
107 146 0
106 145 0
108 146 0
104 144 0
113 150 0
105 145 0
108 147 0
108 147 0
104 144 0
104 144 0
106 146 0
113 149 0
109 147 0
106 146 0
110 147 0
105 144 0
106 145 0
106 145 0
107 146 0
107 146 0
104 144 0
108 147 0
107 146 0
106 145 0
107 146 0
112 149 0
111 148 0
104 144 0
108 146 0
112 149 0
106 145 0
107 146 0
105 145 0
108 147 0
107 146 0
109 147 0
106 145 0
108 147 0
108 146 0
106 145 0
107 146 0
111 148 0
107 146 0
108 146 0
109 147 0
110 148 0
109 147 0
107 146 0
110 148 0
106 146 0
103 143 0
106 145 0
111 148 0
106 146 0
105 145 0
107 146 0
107 146 0
107 146 0
112 149 0
111 148 0
107 146 0
106 145 0
107 146 0
110 148 0
106 145 0
105 145 0
109 147 0
108 147 0
107 146 0
104 144 0
110 147 0
109 147 0
106 145 0
108 146 0
111 148 0
105 145 0
110 148 0
105 145 0
111 148 0
108 146 0
104 144 0
107 146 0
106 146 0
108 146 0
105 145 0
104 144 0
110 148 0
109 147 0
108 146 0
108 147 0
106 145 0
109 147 0
111 148 0
107 146 0
107 146 0
108 146 0
107 146 0
104 144 0
107 146 0
111 148 0
106 146 0
108 146 0
108 147 0
108 147 0
108 147 0
110 147 0
107 146 0
108 147 0
111 148 0
106 146 0
109 147 0
109 147 0
107 146 0
110 148 0
107 146 0
109 147 0
106 146 0
111 148 0
110 148 0
105 145 0
108 147 0
108 146 0
107 146 0
108 146 0
109 147 0
109 147 0
109 147 0
104 144 0
108 147 0
108 147 0
106 145 0
110 148 0
105 145 0
112 149 0
110 148 0
112 149 0
109 147 0
104 144 0
107 146 0
106 145 0
109 147 0
111 148 0
110 148 0
109 147 0
107 146 0
111 148 0
107 146 0
108 146 0
115 151 0
108 146 0
109 147 0
108 147 0
105 145 0
107 146 0
108 146 0
106 145 0
108 146 0
105 145 0
108 147 0
106 145 0
114 150 0
109 147 0
105 145 0
109 147 0
105 145 0
108 147 0
108 147 0
110 148 0
108 147 0
106 145 0
108 147 0
110 148 0
104 144 0
105 145 0
105 144 0
110 148 0
113 149 0
109 147 0
107 146 0
108 147 0
107 146 0
107 146 0
108 146 0
107 146 0
106 146 0
114 150 0
113 150 0
112 149 0
110 147 0
111 148 0
110 148 0
106 145 0
112 149 0
109 147 0
109 147 0
104 144 0
106 145 0
110 148 0
112 149 0
108 147 0
109 147 0
110 148 0
110 148 0
108 146 0
108 147 0
109 147 0
108 146 0
106 146 0
110 148 0
111 148 0
111 149 0
109 147 0
106 145 0
104 144 0
114 150 0
109 147 0
109 147 0
111 148 0
110 148 0
113 150 0
109 147 0
111 148 0
112 149 0
107 146 0
107 146 0
106 145 0
109 147 0
106 146 0
110 148 0
107 146 0
105 145 0
111 148 0
110 148 0
106 145 0
109 147 0
107 146 0
106 145 0
106 145 0
109 147 0
105 145 0
110 148 0
109 147 0
114 150 0
110 147 0
108 147 0
106 146 0
108 146 0
110 147 0
109 147 0
107 146 0
109 147 0
105 145 0
105 145 0
109 147 0
107 146 0
105 145 0
103 144 0
108 147 0
111 148 0
108 147 0
106 145 0
106 146 0
106 145 0
109 147 0
105 145 0
105 145 0
110 148 0
107 146 0
108 146 0
110 148 0
108 147 0
105 145 0
105 145 0
109 147 0
105 145 0
107 146 0
108 146 0
105 145 0
106 145 0
106 145 0
104 144 0
109 147 0
106 145 0
108 147 0
106 145 0
106 145 0
109 147 0
104 144 0
108 147 0
106 145 0
108 146 0
103 143 0
107 146 0
103 144 0
105 145 0
106 145 0
110 147 0
107 146 0
106 145 0
105 145 0
105 145 0
106 146 0
107 146 0
104 144 0
104 144 0
109 147 0
103 144 0
108 146 0
108 146 0
108 147 0
106 145 0
104 144 0
107 146 0
109 147 0
109 147 0
110 148 0
109 147 0
106 145 0
105 145 0
104 144 0
108 146 0
107 146 0
110 148 0
108 147 0
111 148 0
104 144 0
105 145 0
106 145 0
104 144 0
104 144 0
107 146 0
108 146 0
107 146 0
107 146 0
110 148 0
107 146 0
105 144 0
107 146 0
107 146 0
107 146 0
106 146 0
105 145 0
109 147 0
109 147 0
110 148 0
106 145 0
108 147 0
106 145 0
107 146 0
107 146 0
107 146 0
105 145 0
107 146 0
105 145 0
106 146 0
108 146 0
112 149 0
104 144 0
108 146 0
106 146 0
108 147 0
105 145 0
103 144 0
107 146 0
112 149 0
108 147 0
110 148 0
106 145 0
108 147 0
104 144 0
109 147 0
110 148 0
107 146 0
108 147 0
105 145 0
109 147 0
103 143 0
105 145 0
107 146 0
104 144 0
105 145 0
108 146 0
108 146 0
108 147 0
105 145 0
109 147 0
111 148 0
111 148 0
109 147 0
108 147 0
111 148 0
107 146 0
105 145 0
107 146 0
106 145 0
108 146 0
105 145 0
110 148 0
106 145 0
107 146 0
109 147 0
107 146 0
102 143 0
105 145 0
110 147 0
107 146 0
110 148 0
106 145 0
111 148 0
108 146 0
107 146 0
107 146 0
107 146 0
111 148 0
109 147 0
110 148 0
106 145 0
112 149 0
104 144 0
112 149 0
110 148 0
104 144 0
109 147 0
110 147 0
108 147 0
110 148 0
107 146 0
103 144 0
104 144 0
106 145 0
107 146 0
107 146 0
109 147 0
105 145 0
106 145 0
107 146 0
108 146 0
112 149 0
107 146 0
108 146 0
109 147 0
106 146 0
106 146 0
108 147 0
107 146 0
112 149 0
108 146 0
107 146 0
103 144 0
106 145 0
112 149 0
113 149 0
107 146 0
109 147 0
105 145 0
106 145 0
107 146 0
114 150 0
108 146 0
108 147 0
114 150 0
103 144 0
110 148 0
109 147 0
105 145 0
110 148 0
105 145 0
108 147 0
108 147 0
104 144 0
108 146 0
106 145 0
108 146 0
109 147 0
112 149 0
112 149 0
108 147 0
106 145 0
107 146 0
108 147 0
105 145 0
110 148 0
108 147 0
110 148 0
108 146 0
108 147 0
107 146 0
111 148 0
105 145 0
109 147 0
108 147 0
110 147 0
108 147 0
107 146 0
107 146 0
105 145 0
108 146 0
106 145 0
109 147 0
107 146 0
107 146 0
109 147 0
108 147 0
106 146 0
108 147 0
110 147 0
110 148 0
106 145 0
110 148 0
111 148 0
110 148 0
104 144 0
104 144 0
108 147 0
109 147 0
108 146 0
108 146 0
111 148 0
103 144 0
108 146 0
110 148 0
107 146 0
105 145 0
110 148 0
108 147 0
108 146 0
110 148 0
107 146 0
106 145 0
106 145 0
110 148 0
105 144 0
111 149 0
107 146 0
105 144 0
108 147 0
109 147 0
108 147 0
110 148 0
110 147 0
109 147 0
112 149 0
107 146 0
106 145 0
107 146 0
109 147 0
106 146 0
107 146 0
112 149 0
109 147 0
110 148 0
109 147 0
103 143 0
106 145 0
108 147 0
108 146 0
108 146 0
110 148 0
108 146 0
109 147 0
105 145 0
113 149 0
108 146 0
111 148 0
107 146 0
107 146 0
112 149 0
106 145 0
108 147 0
104 144 0
110 148 0
107 146 0
104 144 0
110 148 0
107 146 0
109 147 0
107 146 0
108 146 0
105 145 0
109 147 0
107 146 0
108 146 0
107 146 0
109 147 0
110 148 0
109 147 0
106 145 0
112 149 0
110 147 0
104 144 0
111 149 0
106 146 0
104 144 0
108 146 0
111 148 0
105 145 0
110 148 0
107 146 0
110 148 0
109 147 0
105 145 0
110 148 0
108 147 0
109 147 0
110 148 0
108 146 0
108 147 0
106 146 0
109 147 0
105 145 0
109 147 0
108 146 0
105 145 0
110 148 0
107 146 0
108 147 0
112 149 0
108 146 0
111 148 0
110 147 0
104 144 0
106 146 0
108 147 0
109 147 0
110 148 0
117 152 0
109 147 0
110 148 0
111 148 0
111 149 0
107 146 0
113 149 0
112 149 0
107 146 0
108 146 0
110 148 0
107 146 0
112 149 0
108 146 0
112 149 0
109 147 0
110 148 0
107 146 0
107 146 0
114 150 0
109 147 0
110 148 0
108 147 0
111 148 0
112 149 0
113 149 0
107 146 0
107 146 0
107 146 0
103 144 0
107 146 0
107 146 0
109 147 0
105 145 0
105 145 0
106 145 0
104 144 0
106 145 0
106 145 0
104 144 0
108 147 0
108 146 0
106 146 0
105 145 0
107 146 0
107 146 0
105 144 0
105 145 0
107 146 0
107 146 0
109 147 0
108 146 0
106 145 0
104 144 0
105 145 0
106 145 0
107 146 0
106 146 0
109 147 0
109 147 0
105 145 0
104 144 0
106 145 0
105 145 0
105 145 0
109 147 0
106 145 0
103 144 0
110 148 0
107 146 0
108 147 0
109 147 0
108 146 0
109 147 0
106 145 0
105 145 0
107 146 0
107 146 0
104 144 0
107 146 0
109 147 0
111 148 0
105 145 0
107 146 0
110 148 0
104 144 0
105 145 0
107 146 0
105 145 0
108 147 0
107 146 0
109 147 0
108 147 0
103 144 0
105 145 0
105 145 0
114 150 0
104 144 0
105 145 0
106 145 0
111 148 0
111 148 0
107 146 0
106 145 0
107 146 0
104 144 0
104 144 0
108 147 0
105 145 0
107 146 0
107 146 0
105 145 0
108 147 0
107 146 0
109 147 0
105 145 0
106 145 0
110 148 0
105 145 0
109 147 0
108 146 0
106 145 0
107 146 0
107 146 0
109 147 0
106 145 0
108 146 0
107 146 0
110 148 0
107 146 0
104 144 0
112 149 0
112 149 0
104 144 0
108 147 0
106 145 0
110 148 0
107 146 0
110 148 0
104 144 0
107 146 0
105 145 0
105 145 0
107 146 0
108 146 0
109 147 0
107 146 0
107 146 0
104 144 0
107 146 0
105 145 0
108 147 0
107 146 0
108 147 0
107 146 0
106 145 0
107 146 0
109 147 0
106 145 0
108 146 0
107 146 0
108 147 0
108 147 0
108 146 0
109 147 0
108 147 0
112 149 0
108 146 0
111 148 0
110 148 0
111 148 0
106 145 0
105 145 0
111 148 0
108 146 0
106 146 0
107 146 0
111 148 0
108 146 0
108 146 0
109 147 0
107 146 0
109 147 0
106 145 0
110 148 0
106 145 0
106 145 0
106 145 0
108 147 0
107 146 0
108 147 0
104 144 0
106 145 0
107 146 0
106 145 0
109 147 0
104 144 0
105 145 0
107 146 0
108 147 0
106 145 0
108 147 0
105 145 0
108 146 0
104 144 0
106 145 0
106 145 0
105 144 0
107 146 0
106 145 0
107 146 0
109 147 0
105 145 0
106 145 0
106 145 0
108 146 0
103 144 0
104 144 0
106 145 0
108 146 0
105 145 0
110 148 0
107 146 0
115 151 0
108 146 0
109 147 0
107 146 0
106 145 0
107 146 0
109 147 0
108 146 0
109 147 0
108 147 0
106 145 0
106 146 0
109 147 0
112 149 0
108 147 0
109 147 0
108 147 0
109 147 0
108 146 0
107 146 0
106 146 0
111 148 0
109 147 0
105 145 0
108 147 0
108 147 0
107 146 0
108 147 0
109 147 0
108 147 0
107 146 0
110 148 0
104 144 0
109 147 0
106 145 0
109 147 0
108 146 0
106 145 0
106 145 0
107 146 0
108 146 0
107 146 0
112 149 0
105 145 0
111 148 0
113 149 0
110 148 0
106 146 0
104 144 0
110 148 0
109 147 0
105 145 0
103 144 0
111 149 0
106 145 0
105 145 0
106 145 0
111 149 0
112 149 0
111 148 0
110 148 0
107 146 0
110 148 0
108 147 0
107 146 0
106 145 0
107 146 0
109 147 0
109 147 0
109 147 0
112 149 0
108 146 0
106 145 0
107 146 0
106 145 0
107 146 0
110 148 0
110 147 0
109 147 0
107 146 0
111 148 0
106 145 0
105 145 0
104 144 0
105 145 0
106 145 0
107 146 0
105 145 0
110 148 0
105 145 0
110 148 0
108 146 0
112 149 0
112 149 0
108 147 0
106 145 0
113 150 0
106 145 0
108 147 0
111 148 0
107 146 0
104 144 0
109 147 0
109 147 0
109 147 0
109 147 0
106 145 0
105 145 0
110 148 0
107 146 0
105 145 0
106 145 0
110 148 0
106 145 0
108 147 0
105 145 0
104 144 0
106 145 0
109 147 0
109 147 0
108 146 0
108 147 0
109 147 0
108 147 0
109 147 0
111 149 0
106 145 0
109 147 0
109 147 0
109 147 0
106 145 0
111 148 0
106 146 0
108 147 0
108 147 0
108 147 0
112 149 0
113 150 0
114 150 0
107 146 0
106 145 0
109 147 0
109 147 0
107 146 0
107 146 0
107 146 0
107 146 0
112 149 0
106 145 0
112 149 0
107 146 0
114 150 0
106 146 0
111 148 0
104 144 0
108 147 0
107 146 0
108 147 0
108 146 0
109 147 0
112 149 0
116 151 0
109 147 0
107 146 0
110 148 0
111 148 0
108 146 0
109 147 0
107 146 0
109 147 0
108 146 0
105 145 0
106 145 0
109 147 0
110 148 0
107 146 0
108 147 0
112 149 0
106 145 0
108 146 0
110 148 0
108 147 0
108 147 0
106 146 0
111 148 0
109 147 0
110 148 0
108 146 0
110 148 0
112 149 0
111 148 0
108 146 0
103 144 0
107 146 0
111 148 0
109 147 0
107 146 0
107 146 0
109 147 0
110 148 0
109 147 0
105 145 0
108 146 0
108 147 0
104 144 0
108 146 0
107 146 0
109 147 0
107 146 0
110 148 0
114 150 0
104 144 0
111 148 0
106 146 0
107 146 0
108 147 0
107 146 0
107 146 0
108 147 0
106 146 0
107 146 0
105 144 0
108 147 0
110 148 0
106 145 0
106 146 0
107 146 0
110 147 0
106 145 0
106 145 0
108 146 0
105 145 0
109 147 0
110 148 0
110 148 0
110 148 0
105 144 0
108 146 0
106 145 0
105 145 0
109 147 0
105 145 0
107 146 0
111 148 0
109 147 0
109 147 0
107 146 0
105 145 0
106 146 0
108 147 0
107 146 0
105 145 0
103 144 0
109 147 0
107 146 0
109 147 0
105 145 0
108 147 0
105 145 0
106 145 0
107 146 0
105 145 0
108 147 0
105 145 0
104 144 0
106 145 0
104 144 0
106 145 0
106 145 0
106 145 0
104 144 0
110 148 0
108 146 0
107 146 0
107 146 0
105 145 0
107 146 0
107 146 0
107 146 0
110 147 0
107 146 0
108 147 0
108 147 0
109 147 0
105 145 0
109 147 0
106 145 0
106 145 0
107 146 0
111 148 0
109 147 0
111 148 0
107 146 0
108 147 0
106 145 0
105 145 0
109 147 0
105 145 0
109 147 0
106 146 0
108 146 0
107 146 0
111 148 0
110 148 0
110 147 0
109 147 0
109 147 0
106 145 0
109 147 0
104 144 0
106 145 0
106 145 0
109 147 0
113 150 0
107 146 0
105 145 0
108 147 0
110 148 0
108 146 0
107 146 0
106 145 0
110 148 0
104 144 0
105 145 0
109 147 0
105 144 0
107 146 0
106 146 0
109 147 0
109 147 0
108 147 0
106 145 0
109 147 0
106 145 0
109 147 0
106 145 0
106 145 0
105 145 0
107 146 0
109 147 0
107 146 0
104 144 0
104 144 0
104 144 0
104 144 0
106 145 0
110 148 0
102 143 0
107 146 0
110 148 0
105 145 0
113 150 0
107 146 0
106 145 0
108 146 0
106 146 0
105 145 0
110 148 0
107 146 0
103 144 0
112 149 0
110 148 0
106 146 0
110 148 0
108 146 0
111 149 0
109 147 0
107 146 0
108 146 0
111 148 0
106 145 0
104 144 0
104 144 0
108 146 0
103 143 0
110 148 0
113 150 0
109 147 0
109 147 0
109 147 0
107 146 0
106 146 0
109 147 0
104 144 0
107 146 0
107 146 0
105 145 0
105 145 0
105 145 0
109 147 0
109 147 0
109 147 0
109 147 0
104 144 0
109 147 0
105 144 0
108 146 0
105 145 0
105 145 0
105 145 0
108 147 0
110 148 0
105 145 0
105 144 0
110 148 0
107 146 0
105 144 0
107 146 0
112 149 0
110 148 0
110 148 0
106 145 0
109 147 0
104 144 0
114 150 0
110 148 0
103 143 0
103 144 0
109 147 0
114 150 0
108 146 0
104 144 0
106 145 0
104 144 0
107 146 0
111 148 0
107 146 0
108 147 0
108 147 0
107 146 0
108 147 0
108 147 0
109 147 0
107 146 0
108 147 0
109 147 0
105 145 0
109 147 0
109 147 0
111 148 0
105 145 0
112 149 0
107 146 0
107 146 0
108 146 0
110 148 0
108 146 0
104 144 0
109 147 0
107 146 0
107 146 0
108 146 0
107 146 0
109 147 0
108 146 0
106 145 0
107 146 0
104 144 0
109 147 0
107 146 0
106 146 0
107 146 0
113 150 0
108 146 0
110 147 0
109 147 0
108 147 0
110 148 0
110 148 0
109 147 0
108 146 0
111 148 0
105 145 0
108 147 0
108 146 0
104 144 0
107 146 0
112 149 0
106 146 0
108 146 0
109 147 0
107 146 0
105 145 0
110 148 0
106 146 0
106 145 0
106 145 0
109 147 0
109 147 0
109 147 0
109 147 0
110 148 0
114 150 0
111 148 0
110 148 0
108 146 0
108 146 0
108 147 0
105 145 0
103 143 0
111 148 0
109 147 0
109 147 0
112 149 0
106 145 0
112 149 0
109 147 0
109 147 0
108 146 0
114 150 0
106 145 0
106 146 0
108 147 0
105 144 0
113 150 0
106 146 0
110 148 0
112 149 0
108 146 0
110 147 0
108 147 0
108 147 0
106 145 0
109 147 0
106 145 0
107 146 0
106 146 0
108 147 0
108 146 0
108 147 0
104 144 0
109 147 0
109 147 0
106 145 0
105 145 0
109 147 0
109 147 0
109 147 0
112 149 0
110 148 0
108 147 0
113 149 0
107 146 0
108 146 0
108 146 0
105 145 0
111 148 0
108 146 0
106 145 0
107 146 0
109 147 0
106 145 0
109 147 0
104 144 0
109 147 0
109 147 0
110 148 0
110 147 0
108 147 0
109 147 0
110 147 0
107 146 0
105 145 0
108 146 0
106 145 0
110 147 0
108 147 0
112 149 0
108 146 0
107 146 0
104 144 0
104 144 0
110 147 0
109 147 0
109 147 0
109 147 0
108 146 0
108 146 0
110 148 0
107 146 0
108 147 0
107 146 0
107 146 0
108 146 0
108 147 0
111 148 0
109 147 0
106 145 0
110 147 0
109 147 0
111 148 0
106 145 0
110 148 0
108 146 0
111 148 0
111 148 0
110 148 0
109 147 0
110 148 0
105 144 0
112 149 0
107 146 0
111 148 0
107 146 0
106 145 0
107 146 0
106 145 0
110 147 0
107 146 0
104 144 0
104 144 0
111 148 0
108 146 0
105 144 0
110 148 0
107 146 0
110 147 0
109 147 0
106 145 0
104 144 0
105 145 0
105 144 0
106 145 0
107 146 0
108 147 0
106 145 0
106 145 0
110 148 0
108 147 0
111 148 0
107 146 0
107 146 0
106 145 0
106 145 0
104 144 0
107 146 0
105 145 0
106 146 0
106 145 0
109 147 0
110 148 0
106 146 0
106 145 0
107 146 0
104 144 0
108 146 0
103 144 0
107 146 0
106 145 0
105 145 0
109 147 0
106 145 0
107 146 0
107 146 0
106 145 0
109 147 0
109 147 0
111 148 0
108 147 0
105 145 0
105 145 0
109 147 0
106 145 0
106 145 0
107 146 0
107 146 0
106 146 0
108 146 0
107 146 0
107 146 0
109 147 0
110 148 0
109 147 0
104 144 0
108 147 0
108 146 0
110 148 0
105 145 0
108 147 0
106 145 0
108 147 0
107 146 0
107 146 0
111 148 0
107 146 0
112 149 0
105 144 0
110 148 0
105 145 0
105 145 0
106 145 0
107 146 0
104 144 0
110 148 0
106 146 0
108 146 0
107 146 0
105 145 0
105 145 0
106 145 0
107 146 0
106 145 0
107 146 0
106 145 0
109 147 0
106 145 0
107 146 0
105 145 0
109 147 0
111 148 0
106 146 0
110 148 0
110 148 0
106 145 0
104 144 0
105 145 0
106 145 0
106 145 0
106 145 0
105 145 0
106 145 0
107 146 0
107 146 0
108 147 0
105 145 0
107 146 0
109 147 0
105 145 0
106 145 0
108 147 0
107 146 0
106 145 0
106 145 0
108 147 0
106 146 0
105 145 0
107 146 0
106 145 0
107 146 0
106 146 0
108 147 0
106 145 0
109 147 0
106 145 0
108 147 0
108 147 0
113 150 0
109 147 0
106 145 0
107 146 0
107 146 0
108 146 0
109 147 0
108 147 0
105 145 0
108 147 0
105 145 0
108 147 0
108 147 0
106 145 0
105 145 0
106 146 0
104 144 0
105 144 0
108 146 0
111 149 0
108 146 0
107 146 0
106 145 0
107 146 0
109 147 0
107 146 0
111 149 0
109 147 0
111 148 0
108 147 0
111 148 0
108 147 0
104 144 0
107 146 0
104 144 0
109 147 0
105 145 0
108 147 0
107 146 0
108 146 0
110 148 0
104 144 0
108 146 0
106 145 0
107 146 0
109 147 0
108 147 0
108 147 0
107 146 0
108 146 0
106 146 0
107 146 0
108 147 0
105 145 0
111 148 0
108 146 0
108 146 0
107 146 0
114 150 0
109 147 0
112 149 0
107 146 0
108 147 0
105 145 0
105 145 0
106 145 0
105 144 0
110 148 0
111 148 0
107 146 0
108 147 0
108 147 0
109 147 0
106 145 0
111 149 0
112 149 0
109 147 0
107 146 0
105 145 0
109 147 0
107 146 0
105 145 0
106 146 0
108 146 0
112 149 0
110 147 0
108 146 0
109 147 0
106 145 0
106 145 0
107 146 0
107 146 0
109 147 0
113 149 0
108 147 0
110 148 0
104 144 0
108 147 0
107 146 0
109 147 0
106 146 0
105 145 0
106 145 0
111 149 0
104 144 0
108 147 0
109 147 0
108 147 0
107 146 0
108 147 0
110 148 0
112 149 0
108 147 0
106 146 0
104 144 0
107 146 0
106 145 0
105 145 0
107 146 0
109 147 0
104 144 0
106 145 0
108 146 0
110 148 0
109 147 0
105 145 0
106 145 0
108 147 0
102 143 0
106 145 0
110 148 0
108 146 0
108 147 0
105 145 0
112 149 0
106 145 0
110 148 0
110 148 0
109 147 0
107 146 0
108 146 0
108 147 0
106 145 0
106 145 0
105 145 0
110 148 0
106 145 0
110 148 0
109 147 0
107 146 0
111 148 0
106 145 0
108 147 0
109 147 0
108 146 0
107 146 0
111 148 0
108 146 0
107 146 0
106 145 0
111 148 0
107 146 0
108 147 0
114 150 0
110 148 0
115 151 0
106 145 0
107 146 0
114 150 0
110 148 0
106 145 0
108 147 0
107 146 0
107 146 0
109 147 0
107 146 0
107 146 0
110 148 0
107 146 0
110 148 0
108 146 0
106 145 0
112 149 0
110 148 0
109 147 0
108 146 0
111 148 0
108 146 0
106 146 0
107 146 0
108 147 0
110 148 0
112 149 0
106 145 0
110 148 0
105 145 0
109 147 0
108 146 0
107 146 0
106 145 0
107 146 0
111 148 0
113 149 0
106 145 0
110 148 0
108 147 0
108 147 0
107 146 0
110 148 0
111 148 0
109 147 0
107 146 0
107 146 0
111 149 0
105 145 0
110 148 0
105 145 0
105 145 0
110 147 0
109 147 0
108 146 0
107 146 0
108 147 0
109 147 0
105 144 0
107 146 0
111 148 0
113 149 0
110 148 0
109 147 0
107 146 0
109 147 0
110 147 0
112 149 0
108 147 0
109 147 0
113 150 0
107 146 0
105 145 0
112 149 0
111 148 0
105 145 0
107 146 0
110 148 0
109 147 0
106 145 0
107 146 0
107 146 0
109 147 0
110 148 0
114 150 0
108 147 0
110 148 0
108 147 0
110 148 0
107 146 0
107 146 0
109 147 0
110 147 0
108 147 0
107 146 0
108 146 0
108 147 0
108 146 0
107 146 0
104 144 0
107 146 0
107 146 0
107 146 0
108 147 0
104 144 0
108 147 0
105 145 0
108 146 0
107 146 0
111 148 0
107 146 0
106 145 0
105 145 0
106 145 0
106 145 0
105 145 0
105 144 0
107 146 0
108 147 0
107 146 0
106 145 0
103 144 0
107 146 0
112 149 0
105 145 0
105 145 0
103 144 0
107 146 0
108 146 0
107 146 0
106 145 0
108 146 0
107 146 0
107 146 0
107 146 0
104 144 0
102 143 0
106 145 0
106 145 0
106 145 0
110 148 0
106 145 0
104 144 0
109 147 0
107 146 0
107 146 0
110 148 0
109 147 0
105 145 0
104 144 0
110 148 0
110 148 0
106 145 0
111 148 0
109 147 0
107 146 0
105 145 0
106 145 0
108 146 0
107 146 0
108 147 0
108 147 0
108 146 0
109 147 0
106 145 0
103 144 0
111 148 0
106 145 0
105 145 0
111 148 0
109 147 0
105 145 0
103 144 0
105 145 0
105 145 0
104 144 0
107 146 0
107 146 0
108 147 0
103 144 0
107 146 0
106 145 0
110 148 0
108 147 0
107 146 0
108 147 0
111 148 0
110 148 0
108 146 0
105 145 0
106 145 0
106 145 0
109 147 0
108 146 0
107 146 0
110 148 0
105 145 0
109 147 0
106 146 0
106 145 0
110 148 0
106 145 0
109 147 0
105 145 0
105 145 0
110 148 0
109 147 0
110 148 0
108 146 0
106 145 0
106 145 0
106 146 0
108 147 0
106 145 0
105 144 0
107 146 0
111 148 0
104 144 0
104 144 0
110 147 0
108 146 0
111 148 0
106 145 0
106 145 0
105 145 0
112 149 0
106 145 0
109 147 0
107 146 0
107 146 0
112 149 0
108 147 0
105 145 0
107 146 0
111 148 0
104 144 0
114 150 0
106 146 0
109 147 0
105 145 0
108 147 0
103 144 0
106 145 0
106 146 0
107 146 0
108 147 0
109 147 0
108 146 0
105 145 0
104 144 0
112 149 0
108 146 0
107 146 0
107 146 0
105 145 0
107 146 0
110 148 0
105 145 0
107 146 0
108 147 0
106 145 0
108 147 0
108 147 0
111 148 0
103 144 0
108 147 0
106 145 0
105 145 0
107 146 0
107 146 0
105 145 0
105 145 0
107 146 0
108 146 0
106 145 0
105 145 0
109 147 0
106 145 0
106 145 0
106 146 0
108 147 0
105 145 0
109 147 0
107 146 0
109 147 0
106 146 0
108 146 0
107 146 0
113 149 0
109 147 0
107 146 0
105 145 0
106 145 0
112 149 0
109 147 0
110 148 0
106 145 0
105 145 0
105 144 0
107 146 0
106 145 0
107 146 0
109 147 0
105 145 0
105 145 0
109 147 0
107 146 0
105 145 0
106 145 0
108 146 0
107 146 0
109 147 0
106 145 0
111 148 0
104 144 0
107 146 0
106 145 0
109 147 0
110 148 0
106 145 0
110 148 0
108 147 0
104 144 0
105 145 0
107 146 0
105 145 0
110 148 0
112 149 0
110 148 0
112 149 0
108 147 0
108 146 0
106 145 0
107 146 0
105 145 0
105 145 0
107 146 0
109 147 0
107 146 0
105 145 0
111 148 0
106 146 0
112 149 0
110 148 0
107 146 0
104 144 0
104 144 0
111 148 0
108 147 0
106 145 0
111 148 0
107 146 0
109 147 0
110 148 0
111 149 0
108 147 0
109 147 0
113 149 0
105 145 0
107 146 0
107 146 0
104 144 0
109 147 0
109 147 0
109 147 0
107 146 0
109 147 0
107 146 0
105 145 0
107 146 0
107 146 0
104 144 0
108 147 0
108 147 0
109 147 0
107 146 0
106 146 0
109 147 0
109 147 0
108 147 0
105 145 0
110 147 0
112 149 0
108 146 0
106 145 0
108 147 0
109 147 0
111 149 0
107 146 0
109 147 0
107 146 0
108 147 0
113 149 0
103 144 0
112 149 0
107 146 0
108 147 0
105 145 0
109 147 0
110 148 0
109 147 0
111 148 0
109 147 0
113 149 0
104 144 0
107 146 0
113 150 0
105 145 0
113 150 0
109 147 0
110 148 0
107 146 0
113 149 0
106 145 0
106 145 0
113 150 0
111 148 0
109 147 0
107 146 0
105 144 0
112 149 0
104 144 0
107 146 0
109 147 0
106 145 0
107 146 0
110 148 0
108 147 0
107 146 0
108 146 0
112 149 0
108 146 0
106 145 0
107 146 0
111 149 0
108 147 0
108 147 0
110 148 0
108 147 0
112 149 0
109 147 0
108 146 0
106 145 0
110 148 0
109 147 0
110 147 0
107 146 0
107 146 0
107 146 0
106 145 0
109 147 0
106 145 0
107 146 0
108 146 0
112 149 0
109 147 0
110 148 0
111 148 0
110 148 0
108 146 0
108 146 0
109 147 0
108 146 0
114 150 0
108 146 0
110 148 0
109 147 0
109 147 0
109 147 0
104 144 0
112 149 0
106 145 0
109 147 0
107 146 0
107 146 0
105 145 0
113 149 0
109 147 0
109 147 0
108 146 0
108 146 0
108 147 0
109 147 0
108 147 0
110 148 0
109 147 0
109 147 0
113 149 0
108 147 0
109 147 0
104 144 0
108 147 0
105 145 0
105 145 0
104 144 0
112 149 0
107 146 0
109 147 0
107 146 0
107 146 0
103 144 0
104 144 0
109 147 0
106 145 0
105 145 0
111 148 0
109 147 0
105 145 0
112 149 0
108 147 0
106 145 0
103 144 0
104 144 0
111 149 0
106 145 0
110 148 0
103 144 0
109 147 0
110 148 0
105 145 0
107 146 0
103 144 0
107 146 0
108 147 0
106 146 0
110 148 0
106 145 0
107 146 0
107 146 0
108 146 0
113 150 0
105 145 0
106 145 0
109 147 0
111 148 0
106 145 0
108 146 0
103 144 0
107 146 0
107 146 0
109 147 0
107 146 0
104 144 0
110 148 0
107 146 0
108 147 0
107 146 0
109 147 0
107 146 0
105 145 0
109 147 0
107 146 0
107 146 0
106 145 0
108 146 0
106 145 0
107 146 0
104 144 0
108 147 0
107 146 0
107 146 0
108 147 0
106 145 0
109 147 0
111 148 0
106 145 0
105 145 0
104 144 0
110 148 0
106 146 0
108 146 0
106 145 0
108 146 0
106 145 0
108 147 0
106 146 0
105 145 0
105 145 0
110 148 0
108 146 0
104 144 0
106 145 0
107 146 0
103 144 0
107 146 0
106 145 0
109 147 0
109 147 0
106 145 0
104 144 0
103 144 0
109 147 0
107 146 0
112 149 0
106 145 0
105 145 0
109 147 0
106 146 0
110 148 0
107 146 0
105 145 0
105 145 0
111 148 0
105 145 0
105 145 0
106 146 0
105 145 0
106 145 0
111 149 0
108 147 0
109 147 0
110 148 0
107 146 0
108 147 0
107 146 0
110 148 0
107 146 0
108 146 0
107 146 0
107 146 0
112 149 0
105 145 0
107 146 0
110 148 0
108 146 0
108 147 0
106 145 0
105 145 0
107 146 0
106 145 0
108 147 0
112 149 0
105 145 0
109 147 0
108 147 0
107 146 0
105 145 0
104 144 0
107 146 0
105 145 0
109 147 0
108 146 0
110 148 0
106 146 0
107 146 0
103 144 0
110 148 0
105 145 0
107 146 0
105 145 0
107 146 0
107 146 0
106 145 0
106 145 0
107 146 0
107 146 0
104 144 0
108 146 0
110 148 0
108 146 0
104 144 0
107 146 0
106 145 0
110 147 0
105 145 0
106 145 0
106 145 0
107 146 0
106 146 0
104 144 0
107 146 0
108 147 0
106 146 0
110 148 0
108 147 0
106 145 0
109 147 0
106 146 0
105 145 0
104 144 0
107 146 0
106 145 0
111 148 0
106 145 0
110 148 0
108 146 0
109 147 0
109 147 0
108 147 0
108 146 0
110 148 0
111 148 0
111 148 0
108 146 0
105 145 0
105 145 0
105 145 0
110 148 0
105 145 0
110 148 0
110 148 0
108 146 0
104 144 0
107 146 0
108 147 0
106 146 0
109 147 0
105 145 0
111 148 0
105 145 0
108 147 0
111 148 0
106 145 0
107 146 0
109 147 0
108 147 0
106 145 0
105 145 0
110 148 0
107 146 0
107 146 0
107 146 0
104 144 0
110 148 0
107 146 0
108 146 0
111 148 0
106 145 0
110 148 0
111 148 0
112 149 0
111 149 0
107 146 0
109 147 0
108 146 0
105 145 0
108 146 0
106 145 0
106 145 0
104 144 0
111 148 0
104 144 0
106 145 0
108 146 0
109 147 0
105 145 0
108 146 0
110 148 0
107 146 0
110 148 0
112 149 0
109 147 0
111 148 0
106 145 0
111 148 0
112 149 0
109 147 0
109 147 0
109 147 0
104 144 0
108 147 0
106 145 0
107 146 0
112 149 0
114 150 0
112 149 0
108 147 0
110 147 0
109 147 0
105 145 0
107 146 0
111 148 0
110 148 0
110 148 0
111 148 0
106 145 0
107 146 0
105 145 0
108 147 0
107 146 0
106 145 0
108 147 0
109 147 0
111 148 0
104 144 0
107 146 0
110 148 0
111 148 0
107 146 0
109 147 0
107 146 0
106 145 0
112 149 0
110 148 0
106 145 0
109 147 0
109 147 0
106 145 0
109 147 0
104 144 0
109 147 0
112 149 0
107 146 0
107 146 0
109 147 0
112 149 0
106 145 0
111 148 0
110 148 0
108 146 0
108 146 0
106 145 0
111 148 0
109 147 0
106 145 0
107 146 0
109 147 0
105 145 0
106 146 0
108 147 0
108 147 0
110 148 0
107 146 0
109 147 0
109 147 0
107 146 0
112 149 0
104 144 0
110 148 0
108 147 0
109 147 0
110 148 0
108 147 0
109 147 0
108 146 0
106 146 0
106 145 0
108 146 0
112 149 0
105 145 0
110 148 0
107 146 0
107 146 0
110 148 0
109 147 0
109 147 0
111 148 0
107 146 0
108 147 0
109 147 0
104 144 0
108 146 0
107 146 0
106 145 0
110 147 0
108 146 0
110 148 0
107 146 0
108 146 0
106 145 0
107 146 0
113 150 0
110 148 0
110 148 0
109 147 0
105 145 0
105 145 0
105 144 0
107 146 0
108 146 0
111 149 0
111 148 0
106 145 0
115 151 0
113 149 0
108 146 0
111 148 0
112 149 0
110 148 0
110 147 0
109 147 0
106 146 0
109 147 0
107 146 0
106 145 0
112 149 0
108 147 0
105 145 0
109 147 0
105 145 0
110 148 0
112 149 0
109 147 0
104 144 0
105 145 0
104 144 0
109 147 0
104 144 0
106 145 0
107 146 0
112 149 0
104 144 0
105 145 0
106 145 0
104 144 0
106 145 0
104 144 0
106 146 0
106 146 0
108 146 0
107 146 0
106 145 0
107 146 0
108 146 0
109 147 0
106 145 0
104 144 0
107 146 0
103 143 0
109 147 0
106 145 0
106 145 0
111 148 0
106 146 0
106 145 0
110 147 0
107 146 0
106 145 0
107 146 0
106 145 0
104 144 0
107 146 0
107 146 0
105 145 0
105 145 0
110 147 0
105 145 0
108 147 0
109 147 0
105 145 0
105 145 0
105 145 0
106 145 0
108 146 0
107 146 0
104 144 0
106 145 0
107 146 0
109 147 0
111 148 0
108 147 0
107 146 0
108 147 0
110 148 0
103 143 0
106 145 0
107 146 0
110 148 0
110 148 0
105 145 0
107 146 0
108 146 0
105 145 0
108 147 0
108 147 0
104 144 0
105 145 0
109 147 0
106 146 0
105 145 0
106 145 0
106 145 0
107 146 0
108 146 0
110 147 0
108 146 0
111 148 0
108 146 0
107 146 0
109 147 0
108 146 0
108 147 0
105 145 0
107 146 0
106 145 0
107 146 0
108 147 0
109 147 0
109 147 0
107 146 0
105 145 0
103 144 0
108 147 0
106 146 0
105 144 0
105 145 0
107 146 0
107 146 0
110 148 0
107 146 0
105 145 0
107 146 0
111 148 0
106 145 0
111 148 0
105 145 0
109 147 0
107 146 0
105 145 0
109 147 0
105 145 0
109 147 0
105 145 0
106 145 0
104 144 0
105 145 0
107 146 0
103 144 0
108 147 0
107 146 0
105 145 0
105 145 0
107 146 0
107 146 0
111 148 0
105 145 0
109 147 0
111 148 0
106 145 0
109 147 0
108 146 0
104 144 0
105 145 0
107 146 0
111 148 0
106 145 0
108 146 0
106 145 0
105 145 0
106 146 0
107 146 0
106 145 0
108 146 0
106 145 0
110 148 0
107 146 0
105 145 0
113 150 0
108 147 0
105 145 0
108 146 0
109 147 0
109 147 0
112 149 0
107 146 0
111 148 0
107 146 0
104 144 0
107 146 0
106 145 0
106 145 0
106 145 0
104 144 0
110 147 0
107 146 0
106 145 0
113 150 0
106 146 0
106 146 0
107 146 0
108 146 0
106 145 0
103 144 0
106 146 0
111 148 0
106 145 0
106 146 0
112 149 0
107 146 0
108 146 0
109 147 0
105 145 0
109 147 0
108 146 0
107 146 0
109 147 0
108 147 0
108 147 0
108 146 0
107 146 0
107 146 0
114 150 0
108 147 0
109 147 0
108 147 0
110 148 0
109 147 0
107 146 0
109 147 0
109 147 0
104 144 0
107 146 0
107 146 0
105 145 0
111 148 0
110 148 0
112 149 0
108 147 0
112 149 0
104 144 0
105 145 0
109 147 0
105 145 0
108 147 0
107 146 0
104 144 0
108 146 0
106 145 0
112 149 0
111 148 0
108 147 0
108 146 0
108 147 0
106 146 0
109 147 0
108 147 0
107 146 0
110 147 0
105 145 0
112 149 0
110 147 0
105 145 0
108 147 0
106 145 0
107 146 0
106 145 0
107 146 0
109 147 0
107 146 0
107 146 0
108 147 0
112 149 0
109 147 0
111 149 0
113 149 0
110 148 0
112 149 0
106 145 0
114 150 0
110 148 0
103 144 0
112 149 0
106 145 0
106 145 0
110 148 0
109 147 0
109 147 0
105 145 0
111 148 0
109 147 0
106 145 0
106 145 0
107 146 0
108 147 0
107 146 0
110 148 0
108 146 0
111 148 0
106 145 0
109 147 0
109 147 0
106 145 0
108 146 0
111 148 0
108 147 0
106 145 0
103 144 0
110 148 0
106 145 0
109 147 0
108 147 0
105 145 0
109 147 0
106 145 0
113 149 0
107 146 0
110 148 0
109 147 0
105 145 0
108 147 0
107 146 0
109 147 0
105 145 0
110 148 0
109 147 0
107 146 0
110 148 0
110 147 0
106 145 0
109 147 0
110 148 0
104 144 0
107 146 0
104 144 0
105 145 0
110 148 0
111 149 0
109 147 0
104 144 0
117 152 0
112 149 0
108 146 0
107 146 0
105 145 0
112 149 0
109 147 0
106 145 0
106 145 0
110 148 0
110 148 0
115 151 0
105 145 0
109 147 0
104 144 0
107 146 0
107 146 0
104 144 0
109 147 0
106 146 0
111 148 0
104 144 0
110 148 0
106 145 0
110 147 0
112 149 0
109 147 0
111 148 0
112 149 0
110 148 0
105 145 0
110 148 0
107 146 0
109 147 0
109 147 0
105 145 0
107 146 0
108 147 0
112 149 0
107 146 0
106 145 0
112 149 0
106 146 0
108 147 0
107 146 0
108 146 0
109 147 0
107 146 0
107 146 0
105 145 0
109 147 0
108 146 0
108 147 0
112 149 0
110 148 0
111 149 0
110 148 0
110 148 0
107 146 0
110 148 0
105 145 0
107 146 0
108 146 0
104 144 0
109 147 0
112 149 0
112 149 0
107 146 0
108 146 0
104 144 0
109 147 0
106 145 0
107 146 0
106 145 0
112 149 0
105 145 0
112 149 0
111 148 0
104 144 0
117 152 0
109 147 0
108 146 0
104 144 0
106 145 0
112 149 0
107 146 0
109 147 0
109 147 0
108 147 0
104 144 0
109 147 0
108 146 0
110 148 0
109 147 0
106 145 0
112 149 0
105 145 0
110 148 0
109 147 0
108 147 0
104 144 0
107 146 0
105 145 0
105 144 0
111 148 0
108 146 0
108 147 0
105 145 0
103 143 0
104 144 0
110 148 0
104 144 0
106 145 0
110 147 0
106 146 0
106 146 0
104 144 0
107 146 0
107 146 0
105 145 0
106 145 0
108 146 0
105 145 0
105 145 0
109 147 0
111 148 0
110 148 0
104 144 0
111 148 0
105 145 0
107 146 0
108 147 0
109 147 0
104 144 0
108 146 0
111 149 0
106 145 0
104 144 0
108 146 0
106 145 0
105 144 0
109 147 0
107 146 0
108 146 0
106 145 0
111 148 0
105 145 0
108 147 0
105 145 0
112 149 0
105 144 0
106 145 0
112 149 0
108 146 0
106 145 0
112 149 0
107 146 0
108 146 0
106 145 0
104 144 0
108 147 0
106 146 0
107 146 0
106 145 0
107 146 0
103 144 0
106 146 0
106 145 0
105 145 0
105 145 0
106 145 0
103 144 0
104 144 0
110 148 0
107 146 0
110 148 0
109 147 0
109 147 0
105 145 0
106 145 0
107 146 0
106 145 0
110 147 0
104 144 0
105 145 0
107 146 0
107 146 0
107 146 0
107 146 0
108 146 0
108 146 0
107 146 0
107 146 0
106 145 0
112 149 0
111 148 0
105 145 0
104 144 0
110 148 0
110 148 0
109 147 0
106 145 0
106 145 0
111 148 0
110 148 0
104 144 0
108 146 0
104 144 0
103 144 0
108 147 0
106 145 0
106 145 0
108 146 0
111 148 0
108 147 0
107 146 0
107 146 0
111 148 0
111 148 0
107 146 0
109 147 0
108 146 0
104 144 0
103 144 0
105 145 0
109 147 0
113 150 0
108 146 0
106 145 0
105 145 0
106 145 0
109 147 0
107 146 0
109 147 0
104 144 0
106 145 0
107 146 0
105 144 0
105 145 0
104 144 0
104 144 0
107 146 0
106 145 0
108 147 0
105 145 0
107 146 0
106 145 0
104 144 0
105 145 0
110 147 0
109 147 0
109 147 0
110 148 0
104 144 0
108 146 0
106 145 0
112 149 0
105 145 0
107 146 0
109 147 0
111 148 0
110 148 0
106 145 0
105 145 0
107 146 0
108 147 0
103 144 0
107 146 0
106 145 0
110 148 0
108 147 0
109 147 0
109 147 0
108 146 0
107 146 0
107 146 0
103 144 0
108 147 0
107 146 0
107 146 0
107 146 0
110 148 0
103 144 0
109 147 0
107 146 0
105 145 0
106 145 0
111 148 0
108 147 0
110 148 0
109 147 0
105 145 0
106 146 0
110 148 0
103 143 0
110 148 0
109 147 0
108 146 0
107 146 0
110 148 0
108 147 0
111 148 0
104 144 0
105 144 0
108 146 0
109 147 0
104 144 0
107 146 0
106 145 0
107 146 0
106 145 0
107 146 0
110 148 0
107 146 0
111 148 0
102 143 0
108 147 0
109 147 0
108 147 0
108 147 0
111 148 0
108 146 0
107 146 0
109 147 0
108 147 0
106 145 0
106 146 0
106 146 0
107 146 0
105 145 0
108 146 0
104 144 0
103 144 0
110 147 0
108 146 0
106 145 0
105 145 0
105 145 0
108 147 0
108 147 0
106 145 0
106 146 0
112 149 0
107 146 0
107 146 0
105 145 0
112 149 0
108 146 0
115 151 0
105 145 0
109 147 0
104 144 0
108 146 0
105 145 0
106 145 0
112 149 0
105 145 0
110 147 0
110 148 0
111 149 0
112 149 0
105 145 0
106 145 0
111 148 0
115 151 0
107 146 0
105 145 0
112 149 0
108 146 0
111 149 0
108 147 0
105 145 0
108 146 0
107 146 0
109 147 0
108 146 0
106 145 0
109 147 0
111 148 0
108 146 0
110 148 0
106 145 0
108 147 0
109 147 0
110 148 0
106 146 0
109 147 0
106 146 0
107 146 0
108 146 0
107 146 0
106 145 0
105 145 0
109 147 0
107 146 0
110 148 0
111 148 0
110 148 0
105 144 0
113 150 0
111 148 0
109 147 0
107 146 0
110 148 0
106 145 0
107 146 0
108 146 0
109 147 0
112 149 0
107 146 0
107 146 0
105 145 0
107 146 0
108 146 0
107 146 0
107 146 0
107 146 0
109 147 0
109 147 0
108 147 0
106 145 0
108 147 0
111 149 0
106 145 0
109 147 0
110 148 0
107 146 0
104 144 0
105 145 0
111 149 0
112 149 0
107 146 0
109 147 0
109 147 0
107 146 0
110 147 0
109 147 0
105 144 0
106 145 0
109 147 0
111 148 0
112 149 0
107 146 0
107 146 0
104 144 0
112 149 0
107 146 0
111 148 0
108 147 0
107 146 0
107 146 0
111 148 0
108 146 0
109 147 0
104 144 0
108 147 0
109 147 0
106 145 0
112 149 0
107 146 0
109 147 0
109 147 0
108 146 0
111 148 0
110 148 0
106 146 0
112 149 0
110 148 0
115 150 0
110 148 0
107 146 0
109 147 0
107 146 0
111 148 0
113 150 0
110 148 0
109 147 0
106 146 0
107 146 0
108 147 0
111 148 0
111 148 0
105 145 0
108 146 0
105 145 0
111 149 0
103 143 0
108 146 0
112 149 0
106 145 0
107 146 0
104 144 0
108 146 0
111 148 0
106 145 0
107 146 0
109 147 0
104 144 0
107 146 0
104 144 0
108 147 0
108 146 0
105 145 0
105 145 0
106 145 0
106 145 0
105 145 0
107 146 0
113 150 0
109 147 0
104 144 0
105 145 0
107 146 0
107 146 0
108 146 0
107 146 0
109 147 0
105 145 0
110 148 0
110 148 0
107 146 0
108 147 0
105 145 0
105 145 0
107 146 0
109 147 0
107 146 0
105 145 0
107 146 0
104 144 0
105 145 0
107 146 0
108 146 0
107 146 0
110 147 0
105 145 0
105 145 0
107 146 0
106 145 0
109 147 0
107 146 0
104 144 0
105 145 0
110 148 0
109 147 0
107 146 0
107 146 0
105 145 0
107 146 0
106 145 0
109 147 0
103 144 0
107 146 0
108 147 0
103 144 0
108 146 0
104 144 0
106 145 0
108 147 0
107 146 0
107 146 0
110 148 0
106 145 0
106 145 0
108 147 0
107 146 0
104 144 0
105 145 0
108 147 0
106 145 0
108 146 0
106 145 0
107 146 0
108 146 0
107 146 0
105 145 0
107 146 0
109 147 0
110 148 0
110 148 0
109 147 0
109 147 0
105 144 0
107 146 0
108 146 0
107 146 0
107 146 0
105 145 0
107 146 0
111 148 0
108 146 0
106 145 0
107 146 0
104 144 0
113 149 0
109 147 0
107 146 0
106 145 0
107 146 0
108 147 0
106 146 0
106 146 0
108 146 0
107 146 0
106 145 0
105 145 0
107 146 0
106 145 0
107 146 0
105 145 0
107 146 0
105 144 0
106 146 0
106 145 0
108 147 0
106 145 0
107 146 0
108 146 0
106 145 0
108 147 0
107 146 0
107 146 0
108 146 0
107 146 0
107 146 0
110 148 0
110 147 0
109 147 0
107 146 0
105 145 0
109 147 0
107 146 0
110 148 0
105 145 0
112 149 0
107 146 0
111 148 0
105 144 0
105 145 0
106 146 0
106 146 0
109 147 0
108 147 0
111 148 0
105 145 0
106 145 0
105 145 0
110 148 0
104 144 0
107 146 0
110 148 0
106 145 0
109 147 0
106 145 0
103 144 0
108 146 0
107 146 0
107 146 0
110 148 0
107 146 0
109 147 0
111 148 0
112 149 0
111 149 0
106 145 0
103 144 0
105 145 0
104 144 0
108 146 0
105 145 0
111 148 0
104 144 0
104 144 0
111 148 0
104 144 0
107 146 0
107 146 0
106 145 0
105 145 0
103 144 0
108 147 0
104 144 0
109 147 0
114 150 0
104 144 0
109 147 0
108 146 0
110 148 0
106 146 0
106 145 0
108 147 0
109 147 0
106 145 0
109 147 0
104 144 0
108 147 0
109 147 0
105 144 0
107 146 0
106 145 0
108 147 0
105 145 0
108 146 0
110 148 0
108 146 0
110 148 0
108 146 0
108 147 0
111 148 0
106 145 0
108 146 0
111 148 0
111 148 0
107 146 0
108 146 0
108 147 0
109 147 0
108 147 0
105 145 0
109 147 0
110 148 0
107 146 0
109 147 0
109 147 0
109 147 0
106 146 0
108 146 0
109 147 0
106 145 0
108 147 0
110 148 0
109 147 0
110 148 0
107 146 0
106 145 0
109 147 0
109 147 0
110 148 0
108 147 0
106 145 0
110 148 0
109 147 0
111 149 0
108 146 0
107 146 0
108 146 0
111 148 0
113 149 0
107 146 0
104 144 0
107 146 0
106 145 0
106 146 0
108 147 0
108 147 0
108 146 0
107 146 0
112 149 0
107 146 0
111 148 0
112 149 0
107 146 0
109 147 0
104 144 0
108 146 0
104 144 0
105 145 0
106 146 0
109 147 0
109 147 0
107 146 0
109 147 0
111 148 0
109 147 0
106 145 0
108 147 0
109 147 0
109 147 0
108 146 0
111 148 0
106 145 0
114 150 0
106 145 0
109 147 0
112 149 0
106 145 0
109 147 0
107 146 0
108 146 0
108 146 0
108 147 0
114 150 0
113 150 0
112 149 0
107 146 0
109 147 0
109 147 0
105 145 0
105 145 0
111 148 0
107 146 0
105 145 0
107 146 0
112 149 0
108 147 0
112 149 0
106 145 0
108 147 0
112 149 0
110 148 0
111 148 0
111 148 0
107 146 0
108 146 0
109 147 0
111 148 0
111 148 0
111 148 0
107 146 0
107 146 0
109 147 0
112 149 0
110 148 0
113 150 0
111 149 0
107 146 0
111 148 0
108 147 0
108 146 0
106 146 0
110 148 0
109 147 0
106 146 0
111 148 0
110 148 0
104 144 0
105 145 0
108 146 0
114 150 0
105 145 0
104 144 0
109 147 0
112 149 0
110 148 0
111 148 0
109 147 0
107 146 0
109 147 0
104 144 0
108 146 0
107 146 0
112 149 0
107 146 0
111 148 0
113 150 0
106 146 0
108 147 0
108 146 0
109 147 0
110 147 0
115 151 0
110 148 0
107 146 0
107 146 0
110 148 0
110 148 0
103 143 0
109 147 0
108 146 0
110 148 0
112 149 0
108 147 0
107 146 0
112 149 0
111 149 0
116 151 0
106 146 0
109 147 0
112 149 0
108 147 0
110 148 0
109 147 0
108 147 0
107 146 0
105 145 0
108 147 0
107 146 0
107 146 0
106 145 0
104 144 0
108 146 0
108 147 0
105 145 0
106 145 0
106 145 0
109 147 0
106 145 0
105 144 0
105 145 0
102 143 0
106 145 0
107 146 0
112 149 0
107 146 0
110 148 0
105 145 0
106 145 0
104 144 0
103 144 0
105 145 0
105 144 0
104 144 0
106 146 0
106 145 0
106 145 0
108 147 0
106 145 0
104 144 0
108 146 0
110 147 0
104 144 0
106 145 0
108 146 0
107 146 0
111 148 0
104 144 0
106 146 0
107 146 0
105 145 0
108 147 0
109 147 0
104 144 0
107 146 0
106 145 0
105 145 0
104 144 0
104 144 0
110 147 0
109 147 0
103 144 0
108 147 0
105 145 0
104 144 0
107 146 0
108 147 0
107 146 0
105 145 0
105 145 0
106 146 0
110 148 0
110 148 0
110 148 0
105 145 0
109 147 0
107 146 0
104 144 0
105 145 0
109 147 0
106 145 0
108 146 0
106 146 0
108 147 0
107 146 0
105 144 0
108 147 0
104 144 0
104 144 0
106 145 0
105 145 0
107 146 0
108 147 0
106 145 0
107 146 0
110 147 0
104 144 0
106 145 0
110 148 0
106 145 0
103 144 0
107 146 0
106 145 0
105 145 0
105 145 0
106 145 0
105 145 0
105 145 0
109 147 0
108 146 0
108 147 0
108 147 0
104 144 0
108 146 0
107 146 0
103 144 0
105 145 0
110 148 0
107 146 0
109 147 0
106 145 0
105 145 0
105 145 0
104 144 0
106 145 0
109 147 0
109 147 0
104 144 0
105 145 0
105 145 0
105 145 0
109 147 0
109 147 0
112 149 0
107 146 0
106 145 0
107 146 0
107 146 0
108 147 0
108 147 0
103 144 0
107 146 0
106 145 0
106 146 0
107 146 0
107 146 0
108 147 0
104 144 0
107 146 0
104 144 0
110 148 0
107 146 0
106 145 0
106 145 0
109 147 0
104 144 0
103 143 0
105 145 0
105 145 0
106 146 0
108 147 0
106 146 0
109 147 0
109 147 0
108 147 0
108 147 0
108 146 0
108 147 0
107 146 0
105 145 0
107 146 0
104 144 0
109 147 0
103 144 0
105 145 0
108 146 0
105 145 0
109 147 0
105 145 0
106 145 0
108 147 0
107 146 0
111 149 0
107 146 0
107 146 0
109 147 0
108 147 0
110 147 0
108 147 0
108 147 0
106 146 0
106 145 0
108 147 0
107 146 0
108 146 0
107 146 0
108 147 0
110 148 0
109 147 0
106 145 0
107 146 0
112 149 0
109 147 0
109 147 0
109 147 0
108 147 0
111 148 0
108 146 0
107 146 0
107 146 0
110 148 0
105 145 0
107 146 0
108 146 0
109 147 0
105 145 0
106 145 0
105 144 0
106 146 0
106 145 0
106 145 0
108 146 0
109 147 0
106 145 0
111 148 0
107 146 0
108 146 0
103 144 0
105 145 0
109 147 0
107 146 0
110 148 0
107 146 0
106 146 0
110 147 0
109 147 0
111 148 0
106 145 0
109 147 0
107 146 0
107 146 0
110 148 0
108 146 0
108 147 0
106 145 0
107 146 0
107 146 0
108 146 0
112 149 0
110 147 0
104 144 0
106 146 0
109 147 0
110 147 0
107 146 0
110 148 0
109 147 0
106 145 0
109 147 0
111 148 0
110 148 0
109 147 0
105 145 0
107 146 0
108 147 0
107 146 0
111 148 0
106 145 0
106 145 0
104 144 0
111 148 0
113 150 0
110 148 0
104 144 0
110 148 0
104 144 0
113 150 0
103 144 0
106 145 0
107 146 0
111 148 0
110 148 0
107 146 0
114 150 0
104 144 0
111 148 0
111 148 0
106 145 0
110 148 0
110 148 0
113 149 0
112 149 0
105 145 0
106 146 0
109 147 0
109 147 0
108 146 0
105 145 0
109 147 0
109 147 0
109 147 0
109 147 0
109 147 0
106 145 0
105 145 0
107 146 0
110 148 0
105 145 0
107 146 0
109 147 0
107 146 0
112 149 0
104 144 0
107 146 0
108 147 0
108 146 0
110 148 0
105 144 0
107 146 0
107 146 0
112 149 0
109 147 0
106 145 0
108 146 0
112 149 0
109 147 0
107 146 0
108 147 0
110 148 0
111 148 0
111 148 0
109 147 0
104 144 0
110 148 0
111 148 0
105 145 0
111 149 0
107 146 0
113 150 0
106 145 0
108 147 0
108 146 0
111 148 0
108 146 0
105 145 0
106 145 0
108 147 0
108 147 0
113 149 0
108 147 0
113 149 0
107 146 0
110 148 0
113 150 0
108 146 0
111 148 0
111 148 0
105 145 0
103 144 0
107 146 0
108 147 0
110 148 0
108 146 0
108 146 0
106 146 0
105 145 0
110 148 0
113 149 0
108 146 0
109 147 0
107 146 0
110 148 0
107 146 0
113 150 0
110 148 0
106 145 0
108 146 0
106 145 0
106 145 0
107 146 0
110 147 0
106 145 0
106 146 0
105 145 0
109 147 0
104 144 0
111 148 0
114 150 0
112 149 0
108 146 0
110 147 0
110 148 0
107 146 0
110 148 0
109 147 0
113 149 0
114 150 0
109 147 0
109 147 0
109 147 0
109 147 0
108 147 0
115 151 0
108 146 0
108 147 0
107 146 0
105 145 0
104 144 0
106 145 0
107 146 0
108 146 0
106 145 0
108 146 0
104 144 0
107 146 0
112 149 0
104 144 0
109 147 0
107 146 0
105 145 0
104 144 0
107 146 0
104 144 0
105 145 0
104 144 0
108 147 0
107 146 0
107 146 0
110 148 0
108 146 0
105 145 0
109 147 0
111 148 0
107 146 0
108 146 0
107 146 0
107 146 0
107 146 0
108 147 0
107 146 0
104 144 0
105 145 0
104 144 0
105 145 0
112 149 0
108 146 0
106 146 0
107 146 0
112 149 0
108 146 0
106 146 0
107 146 0
107 146 0
108 147 0
108 147 0
103 144 0
107 146 0
107 146 0
107 146 0
106 146 0
109 147 0
107 146 0
109 147 0
108 146 0
111 148 0
109 147 0
105 145 0
108 147 0
109 147 0
104 144 0
111 149 0
106 145 0
110 148 0
109 147 0
108 147 0
106 146 0
107 146 0
104 144 0
108 146 0
106 145 0
107 146 0
105 145 0
104 144 0
111 148 0
108 146 0
105 145 0
108 146 0
105 145 0
108 147 0
107 146 0
108 147 0
108 147 0
105 144 0
108 146 0
105 145 0
104 144 0
105 145 0
108 146 0
105 145 0
107 146 0
108 147 0
104 144 0
110 147 0
107 146 0
105 145 0
108 147 0
103 143 0
104 144 0
107 146 0
106 145 0
105 145 0
105 145 0
105 145 0
104 144 0
106 145 0
107 146 0
106 145 0
109 147 0
106 145 0
104 144 0
105 144 0
106 145 0
107 146 0
108 147 0
105 145 0
109 147 0
106 145 0
112 149 0
106 145 0
108 147 0
110 148 0
110 148 0
110 148 0
107 146 0
110 148 0
107 146 0
105 145 0
108 146 0
105 144 0
112 149 0
108 146 0
105 145 0
106 146 0
106 145 0
108 147 0
108 146 0
103 143 0
105 145 0
105 145 0
106 145 0
107 146 0
106 145 0
107 146 0
108 147 0
108 147 0
107 146 0
107 146 0
105 145 0
108 146 0
107 146 0
107 146 0
104 144 0
110 148 0
109 147 0
109 147 0
107 146 0
105 145 0
110 148 0
109 147 0
113 150 0
110 148 0
103 144 0
107 146 0
107 146 0
105 145 0
105 145 0
106 145 0
105 144 0
110 148 0
108 147 0
108 147 0
106 145 0
108 147 0
110 148 0
110 148 0
106 145 0
105 145 0
107 146 0
104 144 0
106 146 0
106 146 0
111 148 0
111 148 0
112 149 0
105 145 0
107 146 0
108 147 0
107 146 0
108 146 0
107 146 0
107 146 0
106 145 0
111 148 0
107 146 0
103 143 0
108 147 0
104 144 0
107 146 0
107 146 0
108 146 0
108 146 0
106 145 0
110 147 0
105 145 0
111 148 0
109 147 0
106 146 0
109 147 0
105 145 0
107 146 0
106 145 0
106 146 0
108 147 0
106 145 0
105 145 0
110 148 0
106 145 0
109 147 0
105 145 0
106 146 0
108 146 0
108 146 0
107 146 0
105 144 0
108 147 0
105 145 0
110 148 0
106 145 0
109 147 0
105 145 0
106 145 0
110 148 0
113 150 0
105 145 0
109 147 0
111 148 0
107 146 0
111 148 0
105 145 0
109 147 0
106 145 0
107 146 0
110 148 0
108 147 0
113 150 0
108 147 0
105 145 0
108 147 0
106 145 0
107 146 0
106 145 0
104 144 0
106 145 0
105 145 0
109 147 0
104 144 0
112 149 0
109 147 0
105 144 0
107 146 0
103 144 0
111 148 0
110 148 0
105 145 0
110 148 0
105 145 0
108 146 0
109 147 0
108 147 0
108 146 0
109 147 0
106 146 0
110 148 0
107 146 0
115 151 0
107 146 0
106 145 0
108 146 0
104 144 0
111 148 0
109 147 0
105 145 0
114 150 0
106 145 0
107 146 0
108 147 0
106 145 0
112 149 0
106 145 0
105 144 0
110 148 0
109 147 0
107 146 0
115 151 0
110 147 0
105 145 0
105 145 0
105 144 0
109 147 0
110 148 0
107 146 0
106 145 0
105 145 0
107 146 0
107 146 0
106 145 0
107 146 0
107 146 0
108 146 0
109 147 0
109 147 0
106 145 0
109 147 0
106 145 0
106 145 0
108 147 0
107 146 0
109 147 0
111 148 0
109 147 0
109 147 0
110 148 0
109 147 0
107 146 0
110 148 0
109 147 0
106 145 0
109 147 0
106 145 0
107 146 0
106 146 0
107 146 0
110 148 0
104 144 0
109 147 0
109 147 0
108 146 0
107 146 0
111 149 0
105 145 0
111 148 0
106 145 0
105 145 0
107 146 0
108 147 0
109 147 0
111 148 0
109 147 0
109 147 0
111 148 0
106 145 0
109 147 0
108 147 0
110 148 0
108 147 0
110 148 0
110 147 0
111 148 0
108 147 0
109 147 0
106 145 0
107 146 0
108 147 0
108 146 0
108 147 0
106 145 0
108 147 0
107 146 0
111 148 0
108 147 0
109 147 0
105 145 0
108 146 0
110 148 0
107 146 0
109 147 0
108 147 0
105 145 0
106 145 0
110 148 0
107 146 0
111 149 0
110 148 0
114 150 0
107 146 0
109 147 0
115 151 0
114 150 0
111 148 0
110 147 0
109 147 0
106 146 0
109 147 0
108 146 0
106 145 0
107 146 0
105 145 0
104 144 0
104 144 0
106 145 0
104 144 0
107 146 0
110 147 0
104 144 0
105 145 0
106 145 0
108 147 0
106 145 0
108 147 0
105 145 0
106 146 0
106 145 0
107 146 0
106 145 0
105 145 0
105 144 0
107 146 0
106 145 0
108 146 0
109 147 0
105 145 0
106 145 0
109 147 0
107 146 0
108 146 0
105 144 0
104 144 0
110 147 0
111 148 0
107 146 0
105 145 0
107 146 0
110 148 0
109 147 0
107 146 0
108 147 0
103 144 0
109 147 0
105 145 0
108 146 0
111 148 0
107 146 0
109 147 0
110 148 0
105 145 0
106 145 0
107 146 0
108 146 0
105 145 0
108 147 0
106 145 0
107 146 0
104 144 0
108 147 0
108 147 0
105 145 0
105 145 0
107 146 0
109 147 0
105 145 0
110 147 0
111 149 0
107 146 0
108 147 0
111 148 0
103 144 0
107 146 0
109 147 0
108 147 0
102 143 0
106 145 0
106 146 0
107 146 0
109 147 0
108 147 0
109 147 0
110 148 0
105 145 0
107 146 0
105 145 0
105 145 0
108 146 0
105 144 0
107 146 0
104 144 0
106 145 0
106 145 0
112 149 0
106 145 0
109 147 0
112 149 0
105 145 0
105 145 0
105 145 0
106 145 0
107 146 0
107 146 0
105 145 0
108 147 0
108 147 0
107 146 0
106 145 0
108 146 0
106 145 0
108 146 0
108 147 0
105 145 0
108 146 0
108 147 0
110 148 0
109 147 0
106 146 0
111 149 0
104 144 0
110 148 0
111 148 0
105 145 0
108 147 0
103 143 0
106 146 0
110 148 0
103 144 0
106 145 0
104 144 0
106 145 0
107 146 0
107 146 0
109 147 0
105 145 0
108 147 0
107 146 0
108 146 0
111 148 0
108 146 0
108 146 0
107 146 0
105 144 0
111 148 0
106 145 0
105 145 0
104 144 0
109 147 0
106 145 0
106 145 0
107 146 0
106 145 0
103 143 0
107 146 0
106 145 0
107 146 0
109 147 0
106 146 0
106 145 0
107 146 0
107 146 0
104 144 0
109 147 0
110 148 0
106 145 0
107 146 0
107 146 0
107 146 0
111 148 0
107 146 0
106 145 0
106 145 0
109 147 0
107 146 0
109 147 0
106 145 0
105 144 0
111 148 0
110 148 0
104 144 0
105 144 0
105 145 0
107 146 0
107 146 0
106 145 0
105 145 0
105 145 0
110 148 0
109 147 0
106 145 0
105 145 0
104 144 0
106 146 0
107 146 0
108 147 0
110 148 0
106 145 0
109 147 0
106 145 0
105 145 0
105 145 0
107 146 0
108 147 0
108 146 0
111 149 0
108 147 0
108 146 0
106 145 0
110 148 0
106 145 0
106 145 0
107 146 0
105 145 0
112 149 0
108 147 0
111 148 0
104 144 0
107 146 0
107 146 0
110 147 0
107 146 0
107 146 0
110 147 0
112 149 0
107 146 0
104 144 0
108 147 0
108 147 0
108 147 0
103 144 0
106 145 0
107 146 0
111 148 0
107 146 0
109 147 0
110 148 0
108 146 0
106 145 0
106 145 0
109 147 0
108 147 0
108 146 0
109 147 0
105 144 0
108 147 0
110 148 0
105 145 0
108 146 0
109 147 0
110 148 0
106 145 0
107 146 0
110 148 0
109 147 0
107 146 0
108 147 0
110 147 0
110 148 0
106 146 0
106 146 0
109 147 0
115 151 0
109 147 0
104 144 0
106 145 0
107 146 0
110 148 0
103 143 0
106 146 0
113 149 0
112 149 0
108 147 0
108 146 0
108 146 0
108 146 0
114 150 0
109 147 0
107 146 0
110 148 0
112 149 0
110 148 0
114 150 0
105 145 0
106 145 0
107 146 0
109 147 0
104 144 0
111 148 0
107 146 0
107 146 0
110 148 0
106 145 0
111 148 0
105 145 0
108 146 0
109 147 0
110 148 0
107 146 0
108 146 0
108 146 0
111 148 0
110 148 0
109 147 0
112 149 0
110 148 0
108 147 0
105 145 0
103 144 0
112 149 0
111 149 0
107 146 0
108 146 0
107 146 0
111 148 0
108 146 0
112 149 0
109 147 0
107 146 0
108 147 0
108 146 0
107 146 0
111 148 0
108 147 0
113 150 0
108 146 0
112 149 0
110 148 0
105 145 0
108 146 0
106 145 0
112 149 0
111 149 0
105 145 0
110 148 0
108 147 0
113 149 0
112 149 0
107 146 0
109 147 0
111 149 0
108 147 0
108 146 0
107 146 0
107 146 0
110 147 0
115 151 0
105 145 0
109 147 0
107 146 0
111 148 0
106 145 0
111 148 0
109 147 0
108 146 0
111 149 0
106 146 0
108 146 0
111 148 0
111 148 0
109 147 0
113 150 0
106 145 0
110 148 0
107 146 0
110 147 0
106 145 0
109 147 0
108 147 0
108 147 0
109 147 0
113 150 0
105 145 0
105 145 0
114 150 0
107 146 0
109 147 0
108 147 0
108 147 0
112 149 0
106 146 0
109 147 0
107 146 0
111 148 0
105 145 0
109 147 0
112 149 0
107 146 0
109 147 0
110 148 0
111 149 0
108 147 0
109 147 0
109 147 0
111 148 0
109 147 0
108 146 0
106 145 0
107 146 0
106 145 0
108 147 0
104 144 0
109 147 0
108 146 0
109 147 0
107 146 0
110 148 0
105 144 0
105 145 0
105 145 0
113 150 0
106 145 0
103 144 0
110 147 0
108 146 0
107 146 0
108 146 0
108 146 0
112 149 0
108 146 0
106 145 0
108 147 0
106 146 0
107 146 0
106 145 0
107 146 0
108 147 0
105 145 0
106 145 0
108 146 0
109 147 0
109 147 0
109 147 0
106 145 0
111 148 0
106 145 0
106 145 0
108 147 0
109 147 0
109 147 0
107 146 0
104 144 0
108 146 0
104 144 0
107 146 0
112 149 0
107 146 0
110 148 0
109 147 0
109 147 0
105 145 0
109 147 0
109 147 0
105 145 0
109 147 0
106 146 0
108 146 0
107 146 0
107 146 0
111 148 0
105 145 0
110 147 0
106 145 0
110 148 0
108 147 0
107 146 0
106 146 0
106 146 0
104 144 0
107 146 0
107 146 0
107 146 0
109 147 0
105 145 0
105 145 0
105 145 0
106 146 0
103 144 0
108 147 0
107 146 0
105 145 0
106 145 0
105 145 0
104 144 0
104 144 0
105 145 0
109 147 0
109 147 0
107 146 0
109 147 0
104 144 0
103 144 0
110 148 0
106 145 0
107 146 0
106 145 0
106 145 0
108 146 0
109 147 0
110 148 0
111 148 0
108 146 0
107 146 0
105 145 0
112 149 0
109 147 0
103 143 0
106 145 0
109 147 0
105 145 0
110 148 0
108 146 0
103 144 0
108 146 0
109 147 0
107 146 0
109 147 0
104 144 0
110 148 0
105 145 0
109 147 0
106 145 0
109 147 0
107 146 0
104 144 0
106 145 0
110 147 0
104 144 0
111 148 0
104 144 0
106 145 0
106 145 0
105 145 0
107 146 0
112 149 0
103 144 0
106 146 0
105 145 0
111 148 0
106 145 0
109 147 0
107 146 0
112 149 0
107 146 0
111 148 0
105 145 0
106 145 0
108 146 0
106 145 0
109 147 0
106 145 0
107 146 0
110 148 0
108 146 0
106 145 0
109 147 0
104 144 0
109 147 0
105 145 0
109 147 0
106 145 0
108 146 0
112 149 0
108 146 0
110 148 0
107 146 0
105 145 0
104 144 0
111 148 0
104 144 0
109 147 0
108 147 0
106 146 0
107 146 0
107 146 0
106 145 0
105 145 0
110 148 0
110 148 0
108 147 0
112 149 0
107 146 0
107 146 0
108 146 0
108 146 0
111 148 0
111 149 0
106 145 0
104 144 0
106 145 0
106 146 0
108 146 0
107 146 0
109 147 0
108 147 0
108 147 0
105 145 0
108 147 0
107 146 0
107 146 0
107 146 0
105 144 0
110 148 0
106 145 0
112 149 0
107 146 0
112 149 0
111 149 0
105 145 0
110 147 0
109 147 0
106 145 0
109 147 0
104 144 0
107 146 0
110 148 0
109 147 0
105 145 0
107 146 0
107 146 0
110 148 0
106 145 0
107 146 0
106 145 0
106 145 0
105 145 0
107 146 0
111 148 0
106 146 0
106 146 0
107 146 0
108 147 0
108 147 0
106 146 0
107 146 0
109 147 0
109 147 0
106 145 0
109 147 0
111 148 0
110 148 0
108 147 0
111 149 0
110 148 0
110 148 0
107 146 0
109 147 0
107 146 0
107 146 0
106 145 0
110 148 0
111 148 0
111 148 0
107 146 0
113 149 0
107 146 0
111 148 0
108 147 0
108 147 0
106 145 0
110 148 0
108 147 0
109 147 0
106 145 0
112 149 0
107 146 0
106 146 0
110 148 0
108 147 0
109 147 0
105 145 0
110 148 0
104 144 0
108 146 0
107 146 0
112 149 0
110 147 0
107 146 0
108 147 0
110 147 0
108 146 0
109 147 0
107 146 0
108 146 0
103 143 0
108 146 0
109 147 0
108 146 0
108 147 0
107 146 0
113 149 0
106 145 0
109 147 0
106 146 0
107 146 0
113 149 0
106 146 0
109 147 0
108 147 0
105 145 0
108 147 0
107 146 0
110 148 0
111 148 0
108 147 0
109 147 0
108 146 0
109 147 0
108 146 0
113 149 0
107 146 0
109 147 0
110 148 0
105 145 0
109 147 0
108 147 0
110 148 0
108 147 0
111 148 0
108 146 0
105 144 0
106 145 0
110 148 0
111 149 0
108 146 0
106 146 0
108 146 0
108 147 0
113 150 0
107 146 0
105 145 0
111 148 0
108 147 0
112 149 0
108 146 0
108 147 0
111 148 0
111 148 0
110 148 0
106 145 0
107 146 0
106 145 0
107 146 0
107 146 0
109 147 0
108 146 0
109 147 0
110 148 0
107 146 0
109 147 0
108 147 0
104 144 0
110 148 0
107 146 0
108 146 0
107 146 0
109 147 0
112 149 0
109 147 0
112 149 0
110 148 0
106 145 0
107 146 0
105 145 0
106 146 0
104 144 0
109 147 0
108 147 0
108 147 0
109 147 0
104 144 0
107 146 0
107 146 0
105 144 0
105 145 0
111 149 0
108 146 0
107 146 0
105 145 0
113 149 0
107 146 0
111 148 0
108 146 0
110 148 0
108 147 0
105 145 0
109 147 0
110 148 0
109 147 0
109 147 0
106 146 0
111 148 0
109 147 0
107 146 0
113 149 0
109 147 0
111 148 0
108 147 0
108 146 0
110 148 0
105 145 0
105 145 0
109 147 0
103 144 0
106 145 0
103 143 0
105 145 0
109 147 0
103 143 0
110 148 0
110 148 0
109 147 0
105 145 0
105 145 0
106 145 0
104 144 0
110 147 0
106 146 0
108 147 0
106 145 0
104 144 0
109 147 0
109 147 0
107 146 0
107 146 0
103 144 0
105 145 0
106 145 0
106 146 0
107 146 0
106 145 0
108 147 0
107 146 0
108 146 0
108 147 0
105 145 0
107 146 0
107 146 0
108 147 0
109 147 0
108 146 0
109 147 0
107 146 0
106 145 0
106 145 0
103 144 0
106 145 0
109 147 0
106 145 0
107 146 0
105 145 0
105 145 0
104 144 0
109 147 0
105 145 0
110 148 0
105 145 0
105 145 0
106 146 0
107 146 0
110 148 0
105 144 0
106 146 0
107 146 0
106 145 0
104 144 0
107 146 0
108 147 0
103 144 0
108 146 0
106 146 0
103 144 0
104 144 0
107 146 0
108 147 0
104 144 0
107 146 0
108 146 0
109 147 0
104 144 0
103 144 0
108 146 0
109 147 0
105 145 0
108 146 0
104 144 0
108 147 0
111 148 0
109 147 0
105 144 0
103 143 0
104 144 0
106 146 0
109 147 0
108 146 0
109 147 0
110 147 0
105 145 0
109 147 0
105 145 0
109 147 0
105 145 0
108 146 0
106 145 0
108 146 0
110 148 0
106 145 0
108 147 0
107 146 0
108 146 0
110 148 0
106 146 0
107 146 0
109 147 0
103 144 0
105 145 0
105 145 0
106 146 0
109 147 0
113 150 0
108 146 0
107 146 0
112 149 0
108 147 0
104 144 0
105 145 0
112 149 0
110 148 0
106 145 0
106 145 0
108 146 0
109 147 0
109 147 0
110 148 0
104 144 0
111 148 0
106 145 0
110 148 0
108 146 0
107 146 0
107 146 0
107 146 0
105 145 0
108 147 0
107 146 0
108 147 0
105 145 0
104 144 0
106 145 0
106 145 0
108 146 0
105 145 0
111 148 0
107 146 0
104 144 0
106 145 0
107 146 0
107 146 0
106 145 0
107 146 0
105 145 0
108 147 0
104 144 0
106 145 0
105 145 0
110 148 0
106 145 0
108 147 0
110 148 0
105 145 0
107 146 0
103 144 0
107 146 0
110 148 0
109 147 0
110 148 0
107 146 0
109 147 0
110 148 0
108 146 0
106 146 0
107 146 0
106 146 0
106 145 0
109 147 0
105 145 0
105 144 0
109 147 0
106 145 0
112 149 0
105 145 0
113 149 0
106 146 0
106 146 0
110 148 0
115 151 0
105 145 0
108 146 0
108 146 0
106 145 0
104 144 0
105 145 0
109 147 0
107 146 0
109 147 0
108 146 0
104 144 0
110 148 0
106 145 0
107 146 0
111 148 0
107 146 0
105 145 0
110 147 0
110 148 0
109 147 0
114 150 0
108 146 0
110 148 0
109 147 0
105 145 0
107 146 0
105 145 0
111 148 0
108 147 0
112 149 0
111 148 0
109 147 0
111 148 0
111 148 0
104 144 0
109 147 0
116 151 0
105 145 0
112 149 0
112 149 0
107 146 0
108 147 0
109 147 0
108 146 0
112 149 0
109 147 0
108 146 0
105 145 0
107 146 0
107 146 0
107 146 0
106 145 0
108 146 0
106 145 0
108 146 0
109 147 0
109 147 0
107 146 0
108 146 0
112 149 0
107 146 0
107 146 0
112 149 0
104 144 0
111 148 0
111 148 0
108 147 0
108 146 0
108 147 0
107 146 0
108 147 0
109 147 0
110 148 0
106 145 0
109 147 0
111 148 0
108 146 0
111 148 0
110 148 0
105 145 0
109 147 0
106 146 0
112 149 0
110 148 0
109 147 0
106 145 0
110 148 0
109 147 0
109 147 0
114 150 0
109 147 0
110 148 0
109 147 0
110 148 0
108 147 0
106 146 0
107 146 0
112 149 0
114 150 0
108 146 0
108 147 0
108 147 0
112 149 0
104 144 0
108 146 0
109 147 0
105 145 0
106 146 0
107 146 0
110 148 0
102 143 0
110 148 0
109 147 0
106 145 0
108 146 0
109 147 0
110 148 0
108 147 0
108 147 0
107 146 0
109 147 0
111 148 0
105 144 0
105 145 0
107 146 0
109 147 0
110 147 0
112 149 0
107 146 0
106 145 0
112 149 0
106 145 0
108 147 0
108 146 0
107 146 0
105 145 0
110 148 0
108 146 0
110 148 0
111 148 0
108 146 0
110 148 0
110 148 0
115 151 0
107 146 0
107 146 0
108 147 0
108 146 0
111 148 0
106 146 0
109 147 0
111 148 0
110 148 0
109 147 0
108 147 0
107 146 0
108 147 0
114 150 0
106 146 0
111 148 0
107 146 0
104 144 0
110 148 0
107 146 0
108 146 0
111 148 0
107 146 0
107 146 0
113 149 0
110 148 0
112 149 0
108 146 0
108 147 0
110 148 0
107 146 0
114 150 0
109 147 0
110 148 0
108 146 0
109 147 0
110 147 0
110 148 0
104 144 0
106 146 0
109 147 0
106 145 0
109 147 0
109 147 0
107 146 0
109 147 0
112 149 0
108 147 0
110 147 0
107 146 0
111 148 0
107 146 0
112 149 0
107 146 0
109 147 0
107 146 0
111 148 0
110 148 0
106 145 0
109 147 0
111 148 0
109 147 0
104 144 0
104 144 0
109 147 0
106 145 0
106 145 0
108 146 0
108 146 0
108 146 0
107 146 0
106 145 0
108 147 0
106 145 0
104 144 0
105 145 0
108 147 0
109 147 0
105 145 0
110 147 0
109 147 0
107 146 0
109 147 0
104 144 0
107 146 0
106 145 0
103 144 0
107 146 0
105 145 0
105 145 0
105 145 0
109 147 0
105 144 0
108 146 0
106 145 0
110 148 0
104 144 0
104 144 0
107 146 0
105 145 0
111 148 0
105 145 0
112 149 0
105 144 0
108 146 0
102 143 0
106 145 0
106 145 0
109 147 0
110 148 0
110 147 0
109 147 0
108 147 0
108 147 0
104 144 0
106 145 0
112 149 0
106 145 0
106 145 0
108 146 0
106 145 0
105 145 0
108 147 0
108 146 0
105 145 0
104 144 0
104 144 0
105 145 0
107 146 0
105 145 0
107 146 0
109 147 0
107 146 0
105 145 0
110 147 0
111 148 0
109 147 0
105 145 0
107 146 0
107 146 0
105 145 0
105 144 0
108 146 0
112 149 0
106 145 0
104 144 0
110 148 0
109 147 0
105 145 0
104 144 0
106 145 0
104 144 0
104 144 0
104 144 0
111 148 0
107 146 0
104 144 0
104 144 0
106 145 0
111 148 0
104 144 0
110 148 0
107 146 0
109 147 0
103 143 0
103 144 0
109 147 0
109 147 0
107 146 0
105 145 0
104 144 0
106 145 0
108 146 0
104 144 0
105 145 0
107 146 0
110 148 0
110 148 0
106 146 0
110 148 0
111 148 0
109 147 0
106 145 0
105 145 0
112 149 0
105 145 0
106 146 0
107 146 0
107 146 0
108 146 0
106 145 0
106 145 0
105 145 0
106 145 0
107 146 0
111 148 0
106 145 0
105 145 0
104 144 0
106 146 0
106 145 0
106 145 0
105 145 0
104 144 0
105 145 0
105 145 0
108 146 0
108 147 0
108 147 0
104 144 0
106 145 0
110 147 0
107 146 0
107 146 0
104 144 0
109 147 0
106 146 0
108 146 0
107 146 0
106 145 0
111 148 0
108 147 0
105 145 0
107 146 0
104 144 0
108 146 0
107 146 0
107 146 0
109 147 0
104 144 0
108 147 0
108 146 0
108 146 0
107 146 0
106 145 0
108 146 0
109 147 0
105 145 0
106 145 0
106 145 0
111 148 0
106 145 0
105 145 0
106 146 0
106 145 0
104 144 0
105 145 0
107 146 0
102 143 0
105 144 0
108 147 0
106 145 0
108 147 0
111 148 0
109 147 0
112 149 0
104 144 0
107 146 0
111 149 0
108 146 0
106 145 0
106 145 0
106 145 0
106 145 0
105 145 0
107 146 0
112 149 0
109 147 0
110 148 0
108 147 0
107 146 0
107 146 0
107 146 0
106 145 0
106 145 0
110 147 0
106 145 0
110 148 0
107 146 0
109 147 0
109 147 0
107 146 0
108 146 0
107 146 0
107 146 0
107 146 0
106 146 0
107 146 0
107 146 0
107 146 0
109 147 0
107 146 0
112 149 0
107 146 0
105 145 0
109 147 0
111 148 0
107 146 0
110 148 0
106 145 0
110 148 0
108 147 0
109 147 0
109 147 0
105 145 0
113 150 0
107 146 0
106 145 0
114 150 0
111 148 0
109 147 0
108 147 0
108 147 0
108 147 0
104 144 0
109 147 0
108 147 0
109 147 0
106 145 0
106 145 0
110 148 0
105 145 0
105 144 0
107 146 0
106 145 0
108 147 0
105 145 0
110 148 0
111 148 0
111 148 0
103 144 0
106 145 0
106 146 0
108 146 0
110 148 0
106 145 0
108 147 0
106 146 0
109 147 0
110 148 0
104 144 0
110 148 0
110 148 0
109 147 0
108 147 0
107 146 0
108 147 0
113 149 0
109 147 0
106 146 0
111 148 0
109 147 0
109 147 0
105 145 0
106 146 0
107 146 0
114 150 0
108 146 0
109 147 0
110 148 0
109 147 0
109 147 0
106 146 0
111 148 0
110 148 0
105 145 0
106 146 0
109 147 0
112 149 0
109 147 0
110 147 0
110 148 0
107 146 0
115 150 0
109 147 0
106 146 0
106 146 0
113 149 0
109 147 0
107 146 0
109 147 0
111 148 0
107 146 0
113 150 0
105 145 0
109 147 0
106 145 0
105 145 0
112 149 0
108 146 0
110 148 0
111 148 0
104 144 0
110 148 0
112 149 0
111 149 0
104 144 0
108 147 0
107 146 0
110 148 0
112 149 0
110 148 0
107 146 0
108 147 0
108 147 0
111 149 0
108 147 0
106 145 0
115 151 0
109 147 0
110 148 0
108 147 0
106 146 0
112 149 0
114 150 0
108 147 0
111 148 0
109 147 0
111 148 0
105 145 0
109 147 0
109 147 0
107 146 0
109 147 0
109 147 0
113 150 0
111 148 0
112 149 0
107 146 0
109 147 0
110 148 0
108 146 0
106 145 0
106 145 0
109 147 0
107 146 0
107 146 0
108 146 0
106 145 0
107 146 0
108 147 0
108 147 0
106 145 0
111 148 0
106 145 0
108 147 0
109 147 0
108 147 0
111 148 0
109 147 0
106 146 0
115 151 0
109 147 0
110 147 0
110 148 0
108 146 0
108 146 0
108 147 0
109 147 0
109 147 0
106 145 0
104 144 0
110 147 0
104 144 0
110 147 0
107 146 0
105 145 0
105 145 0
104 144 0
107 146 0
108 147 0
107 146 0
104 144 0
106 145 0
107 146 0
114 150 0
106 145 0
107 146 0
106 145 0
107 146 0
106 145 0
108 146 0
108 146 0
103 144 0
110 147 0
106 145 0
106 145 0
103 144 0
108 146 0
106 145 0
104 144 0
108 146 0
106 145 0
106 146 0
104 144 0
107 146 0
106 146 0
106 145 0
107 146 0
107 146 0
105 145 0
103 143 0
110 148 0
105 145 0
103 144 0
105 145 0
108 146 0
107 146 0
106 145 0
110 148 0
106 145 0
106 145 0
107 146 0
106 145 0
107 146 0
106 146 0
109 147 0
109 147 0
108 147 0
108 147 0
104 144 0
110 148 0
105 145 0
108 147 0
106 146 0
106 145 0
105 145 0
102 143 0
107 146 0
110 148 0
108 146 0
106 145 0
107 146 0
105 145 0
104 144 0
108 147 0
106 145 0
107 146 0
106 145 0
104 144 0
106 145 0
105 145 0
103 144 0
109 147 0
108 146 0
107 146 0
106 145 0
104 144 0
106 145 0
106 145 0
109 147 0
106 145 0
106 145 0
106 145 0
105 145 0
107 146 0
109 147 0
104 144 0
103 144 0
107 146 0
108 147 0
108 147 0
106 145 0
108 146 0
104 144 0
105 145 0
106 145 0
104 144 0
107 146 0
108 146 0
107 146 0
111 148 0
106 145 0
105 145 0
105 145 0
110 148 0
110 148 0
108 146 0
109 147 0
103 143 0
104 144 0
107 146 0
106 145 0
105 145 0
109 147 0
105 145 0
105 145 0
109 147 0
109 147 0
105 145 0
104 144 0
111 148 0
107 146 0
105 145 0
107 146 0
106 146 0
104 144 0
108 147 0
105 145 0
103 143 0
109 147 0
108 147 0
108 147 0
105 145 0
106 145 0
105 145 0
105 145 0
105 145 0
107 146 0
105 145 0
104 144 0
107 146 0
104 144 0
107 146 0
110 148 0
114 150 0
107 146 0
106 145 0
107 146 0
108 147 0
103 143 0
103 144 0
110 148 0
108 146 0
109 147 0
110 148 0
105 145 0
107 146 0
106 146 0
104 144 0
105 145 0
105 145 0
103 144 0
104 144 0
105 145 0
106 145 0
105 145 0
113 150 0
107 146 0
103 144 0
108 147 0
107 146 0
110 148 0
107 146 0
107 146 0
106 145 0
107 146 0
107 146 0
111 148 0
109 147 0
112 149 0
106 145 0
112 149 0
107 146 0
108 147 0
107 146 0
108 147 0
108 147 0
106 145 0
106 145 0
109 147 0
109 147 0
107 146 0
111 148 0
105 145 0
111 148 0
110 148 0
106 145 0
103 143 0
112 149 0
106 145 0
109 147 0
108 146 0
108 147 0
112 149 0
107 146 0
108 147 0
106 145 0
106 146 0
110 148 0
114 150 0
110 147 0
108 147 0
105 145 0
109 147 0
109 147 0
108 147 0
105 145 0
108 146 0
106 146 0
105 145 0
106 145 0
108 146 0
108 147 0
107 146 0
108 147 0
106 145 0
106 146 0
109 147 0
105 145 0
106 145 0
107 146 0
105 145 0
109 147 0
110 148 0
110 148 0
107 146 0
106 145 0
109 147 0
107 146 0
114 150 0
110 148 0
112 149 0
108 146 0
108 146 0
106 145 0
107 146 0
107 146 0
105 145 0
110 148 0
106 146 0
110 148 0
106 145 0
106 145 0
106 145 0
108 147 0
110 148 0
107 146 0
113 150 0
107 146 0
110 148 0
111 148 0
108 147 0
110 148 0
112 149 0
107 146 0
110 148 0
104 144 0
111 148 0
106 145 0
110 148 0
109 147 0
107 146 0
110 148 0
108 146 0
111 149 0
106 145 0
106 146 0
108 147 0
108 147 0
109 147 0
107 146 0
106 145 0
108 146 0
109 147 0
109 147 0
105 145 0
105 145 0
106 146 0
109 147 0
106 145 0
110 148 0
111 148 0
108 147 0
110 148 0
107 146 0
109 147 0
109 147 0
108 146 0
105 145 0
110 148 0
108 147 0
107 146 0
112 149 0
106 145 0
109 147 0
109 147 0
107 146 0
106 145 0
109 147 0
108 147 0
106 145 0
111 148 0
108 147 0
109 147 0
112 149 0
109 147 0
107 146 0
109 147 0
108 146 0
108 147 0
109 147 0
109 147 0
106 145 0
108 147 0
108 147 0
108 146 0
107 146 0
113 150 0
114 150 0
108 147 0
111 149 0
106 146 0
107 146 0
106 145 0
109 147 0
109 147 0
112 149 0
112 149 0
110 148 0
107 146 0
107 146 0
110 148 0
107 146 0
109 147 0
108 146 0
107 146 0
107 146 0
109 147 0
107 146 0
110 147 0
109 147 0
104 144 0
108 146 0
112 149 0
110 148 0
108 147 0
112 149 0
108 146 0
107 146 0
110 148 0
110 148 0
107 146 0
114 150 0
109 147 0
108 146 0
105 145 0
106 146 0
111 148 0
110 148 0
112 149 0
107 146 0
112 149 0
109 147 0
109 147 0
112 149 0
114 150 0
111 149 0
112 149 0
111 148 0
105 145 0
113 149 0
107 146 0
107 146 0
108 146 0
110 147 0
109 147 0
110 147 0
110 148 0
107 146 0
110 147 0
109 147 0
104 144 0
110 148 0
106 145 0
111 148 0
106 145 0
107 146 0
108 147 0
107 146 0
108 147 0
105 145 0
107 146 0
109 147 0
103 144 0
105 145 0
106 146 0
106 145 0
109 147 0
108 147 0
107 146 0
108 146 0
108 147 0
108 146 0
106 145 0
105 144 0
104 144 0
104 144 0
106 145 0
107 146 0
108 147 0
105 145 0
106 146 0
107 146 0
108 146 0
110 148 0
104 144 0
104 144 0
106 146 0
110 148 0
108 146 0
108 147 0
107 146 0
105 145 0
104 144 0
104 144 0
111 148 0
105 145 0
108 146 0
104 144 0
107 146 0
108 146 0
107 146 0
103 144 0
104 144 0
107 146 0
103 144 0
105 145 0
109 147 0
104 144 0
105 145 0
106 145 0
109 147 0
106 146 0
106 145 0
106 146 0
108 147 0
106 145 0
107 146 0
106 145 0
106 145 0
108 146 0
105 145 0
105 145 0
104 144 0
105 145 0
108 146 0
108 146 0
107 146 0
104 144 0
108 146 0
109 147 0
107 146 0
109 147 0
106 146 0
109 147 0
106 145 0
106 146 0
105 145 0
110 148 0
110 147 0
109 147 0
104 144 0
108 146 0
106 145 0
105 144 0
107 146 0
105 144 0
108 147 0
105 145 0
108 146 0
105 145 0
104 144 0
104 144 0
108 146 0
107 146 0
105 145 0
112 149 0
111 148 0
104 144 0
106 146 0
105 145 0
105 145 0
108 146 0
104 144 0
107 146 0
108 146 0
107 146 0
107 146 0
105 145 0
108 147 0
105 144 0
106 145 0
111 148 0
109 147 0
107 146 0
103 144 0
108 146 0
106 145 0
107 146 0
106 145 0
106 145 0
110 147 0
109 147 0
104 144 0
109 147 0
105 145 0
104 144 0
109 147 0
105 145 0
109 147 0
107 146 0
106 145 0
105 145 0
105 144 0
109 147 0
107 146 0
107 146 0
110 148 0
105 145 0
106 145 0
107 146 0
106 145 0
109 147 0
111 148 0
108 147 0
108 147 0
108 147 0
107 146 0
109 147 0
113 149 0
105 145 0
108 146 0
105 144 0
107 146 0
108 147 0
107 146 0
108 147 0
109 147 0
106 145 0
109 147 0
108 147 0
106 145 0
107 146 0
103 144 0
106 146 0
107 146 0
106 145 0
108 147 0
106 145 0
106 145 0
105 145 0
106 145 0
108 147 0
106 145 0
110 147 0
106 145 0
108 146 0
109 147 0
109 147 0
107 146 0
104 144 0
106 145 0
106 145 0
108 146 0
109 147 0
103 144 0
103 144 0
104 144 0
109 147 0
106 145 0
109 147 0
113 149 0
108 146 0
108 146 0
106 145 0
107 146 0
106 145 0
103 143 0
107 146 0
105 144 0
105 145 0
104 144 0
107 146 0
106 146 0
109 147 0
108 146 0
108 147 0
109 147 0
106 145 0
105 145 0
108 147 0
108 146 0
108 146 0
111 148 0
107 146 0
105 145 0
111 148 0
107 146 0
107 146 0
109 147 0
111 148 0
117 152 0
107 146 0
109 147 0
108 147 0
106 145 0
106 145 0
105 145 0
112 149 0
109 147 0
111 148 0
110 148 0
109 147 0
109 147 0
108 147 0
107 146 0
110 148 0
108 146 0
107 146 0
106 145 0
107 146 0
108 146 0
108 147 0
103 144 0
107 146 0
108 147 0
112 149 0
110 147 0
105 145 0
106 145 0
113 149 0
106 145 0
107 146 0
104 144 0
112 149 0
109 147 0
107 146 0
109 147 0
108 147 0
106 145 0
109 147 0
108 147 0
109 147 0
110 148 0
105 144 0
111 148 0
110 148 0
109 147 0
109 147 0
111 148 0
106 145 0
109 147 0
109 147 0
113 150 0
106 145 0
105 144 0
105 145 0
106 145 0
109 147 0
105 145 0
114 150 0
106 145 0
107 146 0
108 146 0
111 148 0
110 148 0
108 147 0
106 146 0
111 148 0
105 145 0
109 147 0
107 146 0
108 147 0
105 145 0
109 147 0
107 146 0
108 147 0
105 145 0
107 146 0
110 148 0
107 146 0
107 146 0
105 145 0
109 147 0
107 146 0
110 148 0
112 149 0
113 149 0
106 146 0
108 147 0
108 147 0
109 147 0
107 146 0
108 147 0
107 146 0
108 146 0
107 146 0
110 148 0
109 147 0
108 146 0
106 145 0
112 149 0
111 148 0
109 147 0
111 148 0
112 149 0
109 147 0
111 148 0
110 148 0
110 148 0
112 149 0
106 145 0
108 147 0
109 147 0
105 145 0
107 146 0
107 146 0
108 146 0
106 146 0
110 147 0
114 150 0
109 147 0
107 146 0
108 146 0
111 148 0
109 147 0
112 149 0
114 150 0
104 144 0
110 148 0
111 149 0
112 149 0
103 144 0
108 146 0
107 146 0
109 147 0
111 148 0
109 147 0
106 145 0
108 146 0
105 145 0
109 147 0
106 145 0
110 148 0
107 146 0
110 148 0
110 148 0
110 148 0
108 146 0
109 147 0
112 149 0
110 148 0
113 149 0
108 147 0
110 148 0
112 149 0
113 149 0
106 145 0
110 148 0
111 148 0
107 146 0
105 145 0
116 151 0
106 146 0
108 146 0
107 146 0
110 147 0
110 148 0
110 148 0
108 147 0
105 145 0
107 146 0
107 146 0
106 145 0
107 146 0
109 147 0
107 146 0
105 145 0
109 147 0
106 146 0
107 146 0
105 145 0
108 147 0
104 144 0
105 144 0
108 146 0
106 146 0
109 147 0
108 146 0
104 144 0
108 146 0
104 144 0
108 146 0
106 146 0
105 144 0
103 143 0
106 145 0
110 148 0
106 145 0
104 144 0
106 146 0
105 144 0
111 148 0
106 145 0
104 144 0
108 146 0
106 145 0
104 144 0
103 144 0
105 145 0
107 146 0
104 144 0
105 145 0
106 145 0
108 146 0
103 144 0
107 146 0
111 149 0
106 145 0
106 145 0
105 145 0
108 146 0
107 146 0
107 146 0
106 146 0
106 145 0
106 145 0
106 145 0
106 145 0
107 146 0
106 145 0
105 145 0
103 144 0
104 144 0
104 144 0
112 149 0
104 144 0
110 148 0
107 146 0
106 145 0
109 147 0
108 147 0
107 146 0
106 145 0
108 147 0
107 146 0
110 147 0
107 146 0
107 146 0
105 145 0
107 146 0
107 146 0
105 144 0
109 147 0
104 144 0
110 148 0
104 144 0
103 144 0
105 145 0
111 148 0
104 144 0
105 145 0
107 146 0
110 148 0
104 144 0
104 144 0
104 144 0
107 146 0
104 144 0
107 146 0
103 144 0
111 148 0
106 145 0
110 148 0
103 144 0
113 150 0
107 146 0
105 145 0
103 144 0
106 145 0
104 144 0
107 146 0
104 144 0
104 144 0
108 146 0
103 143 0
105 145 0
105 145 0
106 145 0
109 147 0
107 146 0
104 144 0
111 148 0
105 145 0
109 147 0
106 145 0
105 145 0
106 145 0
112 149 0
107 146 0
105 145 0
109 147 0
107 146 0
108 146 0
107 146 0
105 145 0
107 146 0
106 145 0
104 144 0
110 148 0
105 145 0
107 146 0
106 145 0
108 147 0
107 146 0
105 145 0
106 145 0
108 147 0
106 145 0
110 148 0
110 148 0
110 148 0
107 146 0
107 146 0
104 144 0
112 149 0
111 148 0
106 145 0
105 145 0
106 145 0
109 147 0
110 148 0
106 145 0
109 147 0
110 148 0
107 146 0
106 145 0
111 149 0
106 146 0
108 146 0
104 144 0
107 146 0
108 146 0
114 150 0
107 146 0
110 148 0
106 145 0
106 145 0
111 148 0
110 148 0
106 145 0
106 145 0
106 146 0
104 144 0
107 146 0
108 147 0
113 149 0
110 147 0
106 145 0
106 145 0
108 147 0
113 149 0
108 146 0
105 145 0
106 145 0
109 147 0
104 144 0
111 148 0
105 145 0
105 144 0
108 146 0
106 146 0
109 147 0
104 144 0
105 145 0
106 145 0
106 146 0
107 146 0
110 148 0
108 146 0
105 145 0
106 145 0
109 147 0
109 147 0
110 147 0
108 147 0
105 145 0
105 145 0
105 145 0
106 145 0
105 145 0
103 144 0
105 145 0
108 146 0
104 144 0
108 146 0
109 147 0
106 145 0
108 146 0
107 146 0
108 146 0
108 146 0
108 147 0
108 147 0
106 145 0
108 147 0
108 147 0
109 147 0
108 147 0
107 146 0
102 143 0
106 145 0
110 148 0
107 146 0
106 146 0
109 147 0
106 145 0
106 146 0
107 146 0
111 148 0
110 148 0
112 149 0
106 145 0
114 150 0
104 144 0
106 145 0
108 146 0
107 146 0
109 147 0
108 147 0
109 147 0
110 148 0
103 144 0
109 147 0
109 147 0
108 146 0
104 144 0
111 148 0
110 147 0
109 147 0
106 145 0
110 148 0
108 147 0
109 147 0
110 148 0
107 146 0
108 146 0
107 146 0
108 147 0
108 147 0
111 148 0
109 147 0
107 146 0
112 149 0
112 149 0
111 149 0
111 148 0
108 147 0
112 149 0
107 146 0
108 147 0
107 146 0
106 145 0
109 147 0
109 147 0
113 149 0
108 147 0
108 146 0
105 145 0
107 146 0
106 145 0
108 147 0
104 144 0
106 145 0
104 144 0
109 147 0
107 146 0
105 144 0
107 146 0
109 147 0
110 148 0
108 147 0
109 147 0
107 146 0
106 146 0
110 148 0
107 146 0
105 145 0
106 145 0
109 147 0
108 147 0
105 145 0
108 147 0
109 147 0
111 148 0
107 146 0
106 145 0
110 148 0
114 150 0
107 146 0
115 151 0
107 146 0
111 148 0
110 148 0
112 149 0
109 147 0
106 146 0
113 149 0
106 145 0
111 148 0
110 148 0
105 145 0
103 143 0
105 145 0
114 150 0
112 149 0
110 148 0
106 145 0
108 146 0
107 146 0
114 150 0
105 144 0
108 147 0
115 151 0
111 148 0
108 147 0
110 147 0
108 146 0
109 147 0
111 148 0
108 147 0
108 147 0
105 145 0
109 147 0
106 145 0
112 149 0
111 148 0
108 146 0
108 147 0
110 148 0
107 146 0
108 147 0
112 149 0
111 148 0
107 146 0
110 148 0
106 145 0
108 147 0
109 147 0
107 146 0
107 146 0
113 150 0
109 147 0
112 149 0
109 147 0
112 149 0
110 148 0
107 146 0
106 146 0
113 149 0
106 146 0
107 146 0
107 146 0
106 145 0
112 149 0
110 148 0
110 148 0
107 146 0
108 147 0
111 148 0
107 146 0
105 145 0
108 147 0
106 145 0
107 146 0
111 149 0
103 144 0
107 146 0
106 145 0
109 147 0
104 144 0
107 146 0
110 147 0
112 149 0
106 145 0
107 146 0
107 146 0
107 146 0
107 146 0
106 145 0
106 145 0
108 146 0
104 144 0
106 146 0
110 147 0
109 147 0
107 146 0
110 148 0
108 147 0
109 147 0
105 145 0
106 145 0
104 144 0
108 147 0
106 145 0
105 145 0
107 146 0
104 144 0
105 145 0
107 146 0
108 147 0
104 144 0
103 143 0
104 144 0
105 145 0
107 146 0
110 148 0
105 145 0
109 147 0
111 148 0
104 144 0
109 147 0
107 146 0
104 144 0
107 146 0
107 146 0
108 146 0
105 145 0
107 146 0
108 147 0
104 144 0
109 147 0
106 146 0
106 146 0
109 147 0
106 145 0
103 144 0
105 145 0
109 147 0
108 146 0
110 147 0
104 144 0
106 145 0
107 146 0
105 145 0
111 148 0
110 148 0
105 145 0
110 148 0
104 144 0
109 147 0
106 145 0
108 146 0
110 148 0
103 143 0
105 145 0
108 147 0
107 146 0
113 149 0
107 146 0
104 144 0
103 143 0
106 145 0
105 145 0
104 144 0
105 145 0
105 145 0
107 146 0
104 144 0
108 146 0
112 149 0
108 147 0
106 145 0
107 146 0
109 147 0
106 145 0
112 149 0
106 145 0
105 145 0
109 147 0
108 147 0
102 143 0
106 145 0
110 147 0
106 145 0
104 144 0
104 144 0
107 146 0
108 147 0
109 147 0
103 144 0
108 147 0
104 144 0
105 144 0
108 147 0
103 144 0
107 146 0
106 145 0
105 145 0
106 145 0
107 146 0
105 145 0
105 145 0
105 145 0
103 144 0
107 146 0
106 145 0
106 145 0
106 145 0
106 145 0
107 146 0
105 145 0
106 145 0
107 146 0
107 146 0
107 146 0
110 147 0
107 146 0
106 146 0
106 145 0
106 145 0
106 145 0
108 146 0
109 147 0
108 147 0
105 145 0
109 147 0
105 145 0
110 148 0
103 144 0
107 146 0
108 146 0
108 146 0
108 146 0
106 145 0
107 146 0
106 145 0
109 147 0
107 146 0
107 146 0
108 147 0
104 144 0
107 146 0
105 144 0
107 146 0
106 145 0
108 146 0
109 147 0
105 145 0
109 147 0
108 146 0
109 147 0
107 146 0
107 146 0
106 145 0
110 147 0
108 147 0
105 145 0
112 149 0
109 147 0
106 145 0
108 147 0
112 149 0
106 145 0
110 148 0
109 147 0
108 146 0
108 146 0
106 145 0
109 147 0
107 146 0
106 145 0
109 147 0
104 144 0
108 146 0
105 145 0
105 145 0
104 144 0
103 144 0
106 145 0
107 146 0
107 146 0
111 148 0
106 145 0
107 146 0
107 146 0
106 145 0
110 147 0
108 146 0
106 145 0
112 149 0
107 146 0
106 145 0
108 146 0
104 144 0
109 147 0
110 148 0
106 145 0
106 145 0
109 147 0
110 148 0
105 145 0
107 146 0
105 145 0
110 148 0
107 146 0
105 145 0
110 148 0
106 145 0
106 145 0
107 146 0
107 146 0
108 146 0
107 146 0
107 146 0
108 147 0
109 147 0
109 147 0
108 146 0
110 148 0
108 147 0
106 145 0
106 145 0
109 147 0
108 146 0
109 147 0
110 148 0
107 146 0
109 147 0
107 146 0
109 147 0
109 147 0
107 146 0
106 145 0
107 146 0
110 148 0
106 145 0
106 145 0
104 144 0
111 148 0
106 145 0
105 145 0
107 146 0
107 146 0
108 147 0
108 146 0
112 149 0
105 145 0
111 148 0
110 148 0
109 147 0
108 147 0
110 148 0
105 145 0
106 146 0
108 146 0
107 146 0
114 150 0
110 148 0
106 145 0
105 145 0
111 148 0
114 150 0
111 148 0
110 148 0
106 145 0
111 148 0
107 146 0
107 146 0
105 145 0
111 148 0
109 147 0
109 147 0
110 148 0
112 149 0
108 146 0
107 146 0
107 146 0
111 148 0
105 145 0
110 148 0
110 147 0
111 148 0
112 149 0
105 145 0
116 151 0
110 148 0
110 147 0
107 146 0
109 147 0
110 148 0
110 148 0
106 146 0
107 146 0
106 145 0
115 151 0
107 146 0
106 146 0
108 147 0
108 146 0
114 150 0
106 146 0
107 146 0
112 149 0
105 145 0
108 147 0
106 145 0
109 147 0
106 146 0
112 149 0
106 145 0
105 144 0
114 150 0
110 147 0
110 148 0
110 148 0
105 145 0
108 147 0
111 148 0
107 146 0
109 147 0
105 145 0
106 145 0
109 147 0
105 145 0
107 146 0
111 148 0
108 147 0
108 147 0
111 148 0
108 147 0
111 148 0
105 145 0
108 146 0
109 147 0
107 146 0
108 146 0
108 146 0
105 145 0
108 147 0
104 144 0
110 148 0
112 149 0
110 148 0
112 149 0
108 147 0
111 148 0
111 148 0
111 148 0
105 145 0
106 146 0
110 148 0
109 147 0
106 145 0
111 148 0
108 146 0
110 148 0
107 146 0
110 148 0
111 148 0
111 148 0
110 148 0
111 148 0
105 145 0
107 146 0
108 147 0
111 149 0
111 148 0
108 146 0
109 147 0
107 146 0
105 145 0
108 146 0
102 143 0
110 148 0
105 145 0
111 148 0
104 144 0
107 146 0
106 145 0
109 147 0
108 147 0
109 147 0
104 144 0
107 146 0
108 147 0
103 144 0
106 145 0
109 147 0
106 145 0
102 143 0
110 148 0
110 148 0
107 146 0
107 146 0
104 144 0
109 147 0
107 146 0
105 145 0
105 144 0
109 147 0
109 147 0
105 145 0
112 149 0
109 147 0
104 144 0
107 146 0
104 144 0
108 147 0
107 146 0
106 145 0
105 145 0
104 144 0
107 146 0
107 146 0
108 147 0
109 147 0
106 145 0
105 145 0
105 145 0
107 146 0
106 145 0
105 145 0
107 146 0
106 145 0
104 144 0
103 143 0
106 146 0
109 147 0
108 146 0
106 145 0
108 147 0
103 143 0
107 146 0
106 145 0
105 145 0
106 145 0
105 145 0
104 144 0
109 147 0
106 145 0
104 144 0
105 145 0
103 144 0
107 146 0
106 145 0
106 145 0
104 144 0
107 146 0
104 144 0
104 144 0
106 145 0
106 146 0
108 147 0
108 147 0
108 146 0
104 144 0
106 145 0
106 146 0
107 146 0
104 144 0
105 145 0
111 149 0
106 145 0
108 146 0
107 146 0
108 147 0
107 146 0
108 146 0
109 147 0
105 145 0
109 147 0
108 146 0
109 147 0
104 144 0
107 146 0
108 146 0
106 145 0
106 145 0
106 145 0
107 146 0
106 145 0
106 145 0
104 144 0
106 145 0
110 148 0
108 147 0
107 146 0
104 144 0
104 144 0
106 145 0
107 146 0
107 146 0
107 146 0
106 146 0
105 145 0
104 144 0
105 145 0
105 145 0
105 145 0
110 148 0
105 145 0
107 146 0
105 145 0
108 147 0
106 146 0
106 145 0
106 145 0
106 145 0
104 144 0
109 147 0
108 146 0
107 146 0
106 145 0
106 145 0
104 144 0
103 143 0
110 147 0
105 145 0
106 145 0
107 146 0
109 147 0
108 146 0
107 146 0
105 145 0
105 145 0
106 145 0
106 145 0
105 145 0
108 146 0
107 146 0
104 144 0
108 147 0
110 148 0
106 145 0
106 145 0
106 145 0
106 145 0
111 148 0
109 147 0
108 146 0
106 145 0
110 148 0
106 145 0
105 145 0
107 146 0
108 147 0
110 148 0
108 146 0
106 145 0
109 147 0
105 145 0
110 148 0
111 148 0
106 145 0
104 144 0
108 146 0
107 146 0
104 144 0
105 145 0
105 145 0
106 145 0
106 145 0
109 147 0
107 146 0
107 146 0
106 146 0
108 146 0
104 144 0
107 146 0
108 147 0
108 147 0
106 145 0
108 146 0
108 146 0
107 146 0
105 145 0
111 148 0
108 146 0
109 147 0
107 146 0
105 145 0
111 148 0
114 150 0
109 147 0
111 149 0
111 148 0
107 146 0
104 144 0
108 146 0
108 146 0
109 147 0
107 146 0
108 146 0
107 146 0
108 146 0
109 147 0
105 145 0
109 147 0
111 148 0
110 148 0
109 147 0
104 144 0
108 146 0
104 144 0
107 146 0
112 149 0
106 146 0
106 145 0
109 147 0
111 148 0
113 150 0
107 146 0
106 145 0
103 144 0
111 148 0
112 149 0
111 149 0
111 148 0
107 146 0
109 147 0
108 147 0
109 147 0
106 145 0
108 147 0
109 147 0
105 145 0
106 145 0
107 146 0
108 146 0
111 148 0
107 146 0
113 150 0
109 147 0
107 146 0
111 148 0
107 146 0
110 147 0
107 146 0
106 146 0
109 147 0
106 146 0
107 146 0
107 146 0
108 147 0
110 147 0
111 148 0
109 147 0
109 147 0
107 146 0
106 145 0
108 146 0
105 145 0
106 146 0
106 145 0
110 148 0
111 148 0
107 146 0
109 147 0
108 146 0
108 147 0
107 146 0
108 147 0
106 145 0
109 147 0
105 145 0
110 148 0
105 145 0
105 145 0
108 147 0
109 147 0
109 147 0
109 147 0
109 147 0
108 147 0
107 146 0
108 146 0
110 148 0
110 148 0
110 148 0
106 145 0
108 146 0
107 146 0
110 148 0
109 147 0
116 151 0
108 147 0
111 148 0
109 147 0
111 148 0
109 147 0
107 146 0
105 145 0
111 148 0
108 146 0
106 146 0
110 148 0
112 149 0
107 146 0
112 149 0
113 150 0
108 147 0
110 147 0
105 145 0
113 150 0
107 146 0
114 150 0
114 150 0
113 150 0
107 146 0
112 149 0
112 149 0
111 148 0
107 146 0
109 147 0
108 147 0
107 146 0
110 147 0
111 148 0
109 147 0
110 147 0
105 145 0
105 145 0
108 147 0
107 146 0
106 145 0
111 149 0
106 145 0
110 148 0
110 148 0
109 147 0
119 153 0
110 148 0
111 148 0
105 145 0
106 145 0
106 145 0
113 149 0
103 144 0
110 148 0
111 148 0
106 145 0
109 147 0
114 150 0
105 145 0
109 147 0
112 149 0
107 146 0
105 145 0
108 146 0
110 148 0
112 149 0
108 146 0
107 146 0
108 147 0
112 149 0
109 147 0
109 147 0
114 150 0
118 152 0
110 148 0
106 145 0
111 148 0
110 147 0
108 147 0
109 147 0
107 146 0
108 146 0
109 147 0
112 149 0
104 144 0
106 145 0
107 146 0
108 146 0
106 145 0
107 146 0
104 144 0
103 144 0
104 144 0
106 145 0
106 146 0
110 148 0
112 149 0
104 144 0
107 146 0
107 146 0
106 145 0
104 144 0
105 145 0
106 145 0
105 145 0
107 146 0
105 145 0
105 145 0
110 148 0
104 144 0
105 145 0
109 147 0
105 145 0
105 144 0
108 146 0
108 146 0
110 148 0
105 145 0
111 148 0
111 148 0
104 144 0
108 146 0
105 145 0
106 146 0
105 145 0
106 146 0
103 143 0
107 146 0
108 146 0
107 146 0
110 148 0
106 146 0
106 146 0
104 144 0
104 144 0
108 147 0
110 148 0
105 145 0
108 146 0
107 146 0
105 144 0
106 145 0
106 145 0
106 146 0
106 146 0
107 146 0
108 147 0
109 147 0
104 144 0
111 148 0
108 146 0
107 146 0
108 146 0
107 146 0
105 145 0
106 146 0
104 144 0
106 146 0
104 144 0
109 147 0
106 145 0
107 146 0
106 145 0
106 146 0
108 147 0
104 144 0
106 145 0
111 148 0
107 146 0
107 146 0
105 144 0
104 144 0
104 144 0
106 146 0
104 144 0
106 145 0
104 144 0
105 145 0
104 144 0
109 147 0
107 146 0
104 144 0
111 148 0
104 144 0
108 146 0
110 148 0
108 146 0
108 147 0
105 144 0
104 144 0
106 145 0
105 145 0
106 145 0
107 146 0
108 146 0
105 145 0
103 144 0
104 144 0
111 148 0
107 146 0
104 144 0
104 144 0
109 147 0
105 145 0
107 146 0
106 146 0
107 146 0
109 147 0
103 144 0
106 145 0
106 145 0
104 144 0
105 145 0
107 146 0
107 146 0
108 147 0
107 146 0
108 146 0
108 147 0
108 146 0
107 146 0
108 146 0
106 145 0
104 144 0
106 145 0
109 147 0
110 148 0
106 145 0
105 145 0
109 147 0
104 144 0
107 146 0
106 145 0
107 146 0
109 147 0
103 144 0
105 145 0
109 147 0
107 146 0
103 144 0
106 145 0
105 144 0
110 147 0
109 147 0
105 145 0
107 146 0
109 147 0
106 145 0
104 144 0
104 144 0
106 145 0
111 148 0
107 146 0
106 145 0
107 146 0
109 147 0
110 148 0
107 146 0
106 146 0
108 147 0
107 146 0
111 148 0
103 143 0
111 148 0
104 144 0
110 148 0
106 146 0
105 145 0
107 146 0
104 144 0
106 145 0
108 146 0
107 146 0
108 147 0
107 146 0
105 145 0
104 144 0
106 145 0
105 145 0
106 145 0
106 146 0
107 146 0
107 146 0
108 147 0
105 145 0
111 148 0
112 149 0
108 147 0
110 148 0
110 148 0
109 147 0
105 145 0
110 148 0
110 148 0
106 145 0
109 147 0
109 147 0
105 145 0
105 145 0
107 146 0
106 145 0
108 146 0
109 147 0
107 146 0
106 145 0
106 145 0
110 148 0
109 147 0
109 147 0
108 146 0
106 145 0
106 145 0
110 147 0
108 147 0
111 148 0
108 147 0
107 146 0
107 146 0
109 147 0
106 145 0
114 150 0
110 148 0
104 144 0
105 145 0
108 147 0
107 146 0
104 144 0
106 145 0
108 147 0
108 147 0
108 147 0
107 146 0
105 145 0
106 145 0
106 145 0
105 144 0
111 148 0
105 145 0
110 148 0
111 148 0
111 148 0
107 146 0
105 145 0
106 145 0
111 148 0
106 145 0
108 147 0
107 146 0
112 149 0
113 149 0
107 146 0
108 147 0
104 144 0
105 145 0
108 147 0
108 146 0
111 148 0
105 145 0
109 147 0
108 146 0
108 146 0
113 149 0
106 145 0
112 149 0
110 148 0
110 147 0
107 146 0
108 146 0
105 145 0
103 143 0
106 146 0
109 147 0
107 146 0
106 145 0
107 146 0
108 146 0
114 150 0
107 146 0
108 147 0
110 147 0
110 148 0
109 147 0
107 146 0
115 151 0
108 147 0
110 148 0
105 145 0
105 145 0
110 147 0
107 146 0
110 148 0
108 147 0
110 148 0
105 145 0
113 149 0
108 146 0
109 147 0
105 145 0
109 147 0
109 147 0
113 150 0
110 148 0
111 148 0
108 147 0
109 147 0
110 148 0
105 145 0
108 147 0
108 146 0
107 146 0
109 147 0
110 148 0
106 146 0
106 145 0
111 148 0
107 146 0
111 149 0
113 150 0
107 146 0
110 148 0
110 148 0
107 146 0
109 147 0
108 147 0
110 148 0
110 148 0
107 146 0
110 148 0
113 149 0
108 146 0
109 147 0
106 145 0
108 146 0
106 145 0
107 146 0
114 150 0
111 148 0
112 149 0
113 149 0
104 144 0
106 145 0
110 148 0
111 148 0
106 146 0
112 149 0
112 149 0
116 151 0
111 148 0
106 145 0
108 147 0
110 148 0
108 147 0
109 147 0
107 146 0
110 148 0
108 146 0
107 146 0
106 145 0
105 144 0
113 149 0
111 148 0
111 148 0
112 149 0
111 148 0
107 146 0
110 148 0
108 147 0
108 147 0
110 148 0
117 152 0
111 148 0
108 147 0
110 148 0
110 148 0
108 147 0
110 148 0
112 149 0
113 149 0
104 144 0
106 146 0
117 152 0
109 147 0
112 149 0
108 147 0
109 147 0
107 146 0
106 145 0
111 148 0
104 144 0
110 148 0
112 149 0
103 144 0
106 145 0
107 146 0
111 148 0
108 146 0
106 145 0
105 145 0
103 144 0
106 145 0
106 145 0
110 148 0
105 145 0
106 146 0
108 146 0
106 146 0
105 145 0
106 146 0
105 145 0
108 147 0
109 147 0
109 147 0
107 146 0
105 145 0
107 146 0
105 145 0
105 144 0
108 147 0
103 144 0
104 144 0
105 145 0
108 146 0
105 145 0
106 146 0
107 146 0
110 148 0
108 147 0
107 146 0
105 145 0
105 145 0
106 145 0
110 148 0
107 146 0
107 146 0
106 145 0
107 146 0
107 146 0
109 147 0
106 145 0
104 144 0
110 148 0
109 147 0
107 146 0
106 145 0
105 145 0
107 146 0
108 146 0
109 147 0
103 144 0
108 147 0
109 147 0
108 147 0
104 144 0
108 147 0
109 147 0
104 144 0
107 146 0
103 143 0
106 145 0
109 147 0
107 146 0
110 148 0
106 146 0
103 144 0
108 146 0
107 146 0
109 147 0
106 146 0
108 147 0
106 145 0
106 145 0
107 146 0
105 145 0
105 145 0
107 146 0
107 146 0
106 145 0
104 144 0
105 145 0
110 148 0
106 145 0
105 145 0
111 148 0
106 145 0
105 145 0
104 144 0
108 146 0
106 145 0
112 149 0
104 144 0
107 146 0
106 145 0
107 146 0
107 146 0
104 144 0
107 146 0
107 146 0
109 147 0
106 146 0
105 145 0
108 146 0
104 144 0
106 146 0
103 144 0
108 147 0
104 144 0
105 145 0
105 144 0
106 145 0
106 145 0
107 146 0
105 145 0
107 146 0
108 146 0
106 145 0
109 147 0
104 144 0
105 145 0
107 146 0
104 144 0
108 146 0
106 145 0
105 144 0
107 146 0
105 145 0
106 146 0
107 146 0
105 145 0
106 145 0
105 145 0
107 146 0
108 147 0
110 148 0
103 144 0
104 144 0
105 145 0
105 145 0
107 146 0
105 145 0
105 145 0
113 149 0
105 145 0
110 148 0
106 145 0
105 145 0
106 145 0
108 146 0
105 145 0
106 145 0
106 145 0
107 146 0
109 147 0
105 145 0
106 145 0
105 145 0
108 146 0
105 144 0
113 149 0
105 145 0
105 145 0
106 145 0
108 146 0
109 147 0
106 146 0
103 144 0
105 145 0
105 145 0
110 148 0
105 144 0
104 144 0
106 145 0
108 146 0
109 147 0
106 145 0
103 144 0
110 148 0
108 146 0
109 147 0
105 145 0
110 148 0
110 148 0
106 145 0
106 145 0
109 147 0
106 145 0
105 145 0
108 147 0
107 146 0
109 147 0
107 146 0
111 148 0
107 146 0
109 147 0
111 148 0
109 147 0
104 144 0
109 147 0
103 144 0
107 146 0
109 147 0
110 148 0
105 145 0
106 145 0
103 144 0
106 145 0
106 145 0
106 145 0
112 149 0
105 145 0
111 148 0
110 148 0
105 145 0
107 146 0
106 145 0
112 149 0
105 145 0
109 147 0
109 147 0
109 147 0
106 145 0
108 146 0
107 146 0
108 146 0
104 144 0
109 147 0
110 148 0
105 145 0
105 145 0
111 149 0
107 146 0
105 145 0
111 148 0
107 146 0
104 144 0
111 149 0
108 146 0
110 148 0
107 146 0
106 145 0
106 146 0
108 146 0
107 146 0
106 146 0
106 146 0
109 147 0
108 146 0
106 145 0
112 149 0
109 147 0
110 148 0
107 146 0
106 145 0
108 146 0
109 147 0
111 148 0
111 148 0
108 147 0
104 144 0
110 148 0
109 147 0
106 146 0
108 146 0
107 146 0
111 149 0
110 148 0
107 146 0
107 146 0
109 147 0
110 148 0
112 149 0
112 149 0
107 146 0
112 149 0
110 148 0
113 149 0
107 146 0
107 146 0
109 147 0
107 146 0
109 147 0
104 144 0
108 147 0
111 148 0
106 146 0
107 146 0
111 148 0
110 148 0
112 149 0
108 147 0
105 144 0
108 147 0
109 147 0
106 145 0
107 146 0
113 149 0
111 148 0
107 146 0
106 145 0
108 147 0
111 148 0
112 149 0
110 148 0
109 147 0
110 148 0
107 146 0
109 147 0
109 147 0
111 148 0
107 146 0
107 146 0
109 147 0
106 146 0
107 146 0
110 148 0
108 147 0
108 146 0
111 149 0
106 145 0
108 146 0
108 147 0
113 150 0
107 146 0
111 149 0
107 146 0
112 149 0
109 147 0
107 146 0
107 146 0
114 150 0
110 148 0
109 147 0
112 149 0
111 148 0
110 148 0
106 145 0
108 147 0
112 149 0
108 146 0
109 147 0
107 146 0
112 149 0
106 145 0
113 150 0
113 150 0
107 146 0
105 145 0
111 148 0
107 146 0
113 150 0
110 148 0
111 148 0
107 146 0
106 145 0
108 146 0
111 148 0
108 146 0
107 146 0
107 146 0
114 150 0
110 148 0
112 149 0
107 146 0
110 147 0
111 148 0
104 144 0
112 149 0
106 145 0
110 148 0
109 147 0
107 146 0
109 147 0
106 145 0
112 149 0
110 147 0
110 148 0
105 145 0
108 147 0
108 146 0
112 149 0
115 151 0
111 148 0
111 148 0
114 150 0
109 147 0
105 144 0
107 146 0
107 146 0
104 144 0
102 143 0
107 146 0
105 145 0
110 148 0
108 146 0
106 146 0
106 145 0
104 144 0
109 147 0
107 146 0
109 147 0
110 148 0
105 145 0
105 145 0
105 145 0
106 145 0
105 145 0
105 145 0
106 145 0
106 145 0
106 145 0
107 146 0
105 145 0
104 144 0
111 148 0
107 146 0
109 147 0
106 145 0
106 145 0
105 145 0
105 145 0
105 145 0
105 145 0
107 146 0
103 144 0
102 143 0
103 143 0
107 146 0
110 148 0
107 146 0
104 144 0
108 146 0
105 145 0
107 146 0
109 147 0
109 147 0
107 146 0
106 145 0
109 147 0
108 146 0
104 144 0
104 144 0
112 149 0
105 145 0
109 147 0
108 146 0
103 144 0
110 147 0
104 144 0
106 145 0
108 147 0
107 146 0
105 145 0
108 146 0
107 146 0
105 145 0
105 145 0
104 144 0
105 145 0
104 144 0
110 148 0
107 146 0
107 146 0
104 144 0
105 145 0
107 146 0
104 144 0
105 145 0
107 146 0
105 144 0
106 146 0
106 145 0
105 145 0
108 147 0
105 144 0
109 147 0
105 144 0
105 145 0
105 145 0
108 146 0
106 145 0
107 146 0
107 146 0
108 146 0
106 145 0
108 147 0
110 147 0
107 146 0
105 145 0
106 145 0
107 146 0
111 149 0
104 144 0
106 145 0
108 146 0
103 144 0
107 146 0
107 146 0
104 144 0
107 146 0
107 146 0
108 146 0
105 145 0
111 148 0
108 147 0
106 145 0
107 146 0
105 145 0
106 146 0
111 148 0
108 146 0
107 146 0
104 144 0
109 147 0
103 144 0
109 147 0
109 147 0
106 145 0
109 147 0
103 144 0
107 146 0
105 145 0
106 145 0
106 146 0
107 146 0
103 144 0
106 145 0
106 145 0
104 144 0
107 146 0
107 146 0
108 146 0
105 145 0
110 148 0
106 145 0
105 145 0
104 144 0
107 146 0
103 144 0
104 144 0
106 145 0
104 144 0
106 146 0
110 148 0
110 148 0
108 147 0
104 144 0
107 146 0
108 146 0
110 148 0
106 145 0
110 148 0
108 146 0
106 145 0
107 146 0
107 146 0
109 147 0
109 147 0
106 145 0
106 145 0
110 147 0
109 147 0
105 145 0
109 147 0
106 145 0
108 146 0
105 144 0
110 147 0
108 147 0
105 145 0
109 147 0
108 146 0
109 147 0
106 145 0
106 145 0
107 146 0
108 146 0
104 144 0
109 147 0
107 146 0
110 147 0
104 144 0
106 145 0
106 145 0
108 147 0
107 146 0
104 144 0
108 147 0
106 145 0
107 146 0
109 147 0
109 147 0
107 146 0
106 145 0
111 148 0
108 147 0
105 145 0
106 145 0
108 146 0
104 144 0
109 147 0
109 147 0
111 148 0
107 146 0
110 148 0
104 144 0
107 146 0
107 146 0
105 144 0
106 146 0
108 147 0
107 146 0
104 144 0
106 145 0
107 146 0
106 145 0
106 145 0
107 146 0
110 148 0
108 147 0
110 148 0
108 147 0
105 145 0
108 146 0
108 146 0
114 150 0
106 145 0
108 146 0
107 146 0
109 147 0
110 147 0
110 148 0
112 149 0
108 146 0
107 146 0
107 146 0
110 148 0
111 148 0
107 146 0
111 149 0
106 146 0
106 146 0
106 146 0
104 144 0
109 147 0
107 146 0
109 147 0
111 148 0
113 149 0
116 151 0
107 146 0
108 147 0
105 145 0
107 146 0
109 147 0
106 145 0
104 144 0
107 146 0
110 148 0
108 146 0
107 146 0
109 147 0
111 148 0
114 150 0
108 147 0
106 145 0
108 147 0
104 144 0
106 145 0
109 147 0
108 147 0
105 145 0
105 145 0
105 145 0
108 146 0
105 145 0
109 147 0
109 147 0
110 148 0
108 146 0
111 148 0
108 147 0
108 146 0
110 148 0
108 146 0
110 148 0
108 146 0
110 148 0
106 145 0
109 147 0
107 146 0
109 147 0
106 145 0
106 146 0
107 146 0
112 149 0
107 146 0
108 146 0
110 147 0
109 147 0
108 147 0
107 146 0
110 148 0
106 146 0
105 145 0
109 147 0
109 147 0
106 145 0
110 147 0
106 146 0
107 146 0
110 148 0
109 147 0
107 146 0
111 148 0
114 150 0
107 146 0
107 146 0
109 147 0
112 149 0
109 147 0
106 145 0
110 148 0
110 148 0
110 148 0
107 146 0
105 145 0
112 149 0
109 147 0
115 151 0
109 147 0
104 144 0
110 147 0
110 148 0
104 144 0
108 146 0
109 147 0
110 148 0
112 149 0
109 147 0
106 146 0
106 146 0
109 147 0
106 145 0
114 150 0
114 150 0
106 145 0
109 147 0
111 148 0
112 149 0
107 146 0
109 147 0
109 147 0
110 147 0
113 149 0
108 147 0
108 146 0
109 147 0
107 146 0
105 145 0
110 148 0
106 145 0
107 146 0
107 146 0
110 147 0
110 148 0
107 146 0
111 148 0
110 148 0
107 146 0
106 146 0
112 149 0
114 150 0
111 148 0
105 144 0
115 150 0
115 151 0
110 148 0
109 147 0
108 147 0
107 146 0
110 148 0
105 145 0
109 147 0
111 148 0
107 146 0
105 145 0
104 144 0
106 146 0
110 148 0
105 145 0
107 146 0
111 148 0
105 145 0
105 145 0
108 146 0
105 145 0
106 145 0
105 145 0
103 144 0
108 147 0
105 145 0
107 146 0
107 146 0
106 145 0
105 145 0
103 144 0
105 145 0
107 146 0
104 144 0
109 147 0
107 146 0
104 144 0
109 147 0
109 147 0
106 145 0
105 145 0
108 147 0
107 146 0
104 144 0
106 145 0
109 147 0
108 147 0
107 146 0
108 146 0
106 146 0
104 144 0
108 147 0
107 146 0
105 144 0
105 145 0
107 146 0
106 145 0
107 146 0
104 144 0
113 149 0
107 146 0
105 145 0
106 145 0
106 145 0
106 145 0
112 149 0
104 144 0
105 144 0
110 147 0
107 146 0
107 146 0
103 144 0
107 146 0
109 147 0
104 144 0
106 146 0
106 145 0
112 149 0
106 145 0
107 146 0
108 146 0
107 146 0
111 148 0
107 146 0
106 145 0
109 147 0
107 146 0
107 146 0
108 146 0
108 146 0
103 144 0
105 144 0
106 145 0
105 145 0
105 145 0
105 145 0
103 144 0
108 147 0
108 147 0
107 146 0
110 148 0
106 145 0
109 147 0
112 149 0
105 144 0
105 145 0
106 145 0
106 145 0
107 146 0
104 144 0
104 144 0
108 147 0
107 146 0
105 144 0
108 147 0
105 145 0
103 143 0
107 146 0
105 145 0
106 145 0
107 146 0
109 147 0
105 145 0
107 146 0
105 145 0
108 146 0
109 147 0
110 148 0
107 146 0
105 145 0
108 146 0
106 145 0
107 146 0
104 144 0
108 147 0
107 146 0
107 146 0
104 144 0
107 146 0
106 145 0
105 145 0
106 145 0
111 148 0
104 144 0
104 144 0
107 146 0
104 144 0
106 145 0
103 144 0
104 144 0
105 145 0
109 147 0
105 145 0
106 146 0
110 148 0
106 145 0
107 146 0
107 146 0
106 146 0
108 146 0
106 145 0
107 146 0
104 144 0
107 146 0
105 144 0
108 146 0
109 147 0
108 147 0
105 145 0
104 144 0
109 147 0
105 145 0
107 146 0
104 144 0
109 147 0
106 145 0
108 146 0
104 144 0
106 145 0
107 146 0
104 144 0
105 145 0
107 146 0
109 147 0
105 145 0
110 148 0
108 147 0
106 145 0
103 143 0
110 148 0
106 145 0
106 145 0
107 146 0
111 148 0
106 145 0
107 146 0
107 146 0
111 148 0
106 145 0
107 146 0
109 147 0
111 148 0
106 145 0
107 146 0
106 146 0
105 145 0
108 147 0
105 144 0
105 145 0
105 145 0
109 147 0
107 146 0
105 145 0
106 146 0
109 147 0
109 147 0
105 145 0
109 147 0
110 147 0
104 144 0
107 146 0
113 149 0
108 146 0
109 147 0
107 146 0
109 147 0
107 146 0
110 147 0
108 147 0
107 146 0
107 146 0
105 145 0
108 146 0
106 145 0
110 148 0
109 147 0
106 145 0
108 147 0
106 146 0
108 146 0
106 145 0
113 149 0
110 148 0
111 148 0
105 145 0
107 146 0
104 144 0
109 147 0
105 144 0
107 146 0
108 146 0
107 146 0
107 146 0
106 145 0
106 145 0
108 146 0
108 147 0
110 148 0
111 148 0
105 145 0
106 145 0
106 145 0
107 146 0
111 148 0
111 148 0
110 147 0
111 148 0
107 146 0
108 146 0
110 148 0
108 146 0
110 148 0
109 147 0
106 146 0
107 146 0
111 148 0
104 144 0
106 146 0
107 146 0
109 147 0
109 147 0
108 147 0
110 148 0
109 147 0
106 145 0
110 148 0
111 148 0
111 148 0
108 146 0
112 149 0
106 145 0
108 146 0
107 146 0
111 148 0
110 147 0
115 151 0
106 145 0
113 150 0
106 145 0
107 146 0
111 149 0
107 146 0
108 146 0
111 148 0
115 151 0
110 148 0
107 146 0
114 150 0
108 147 0
111 148 0
107 146 0
110 148 0
108 147 0
107 146 0
107 146 0
108 147 0
106 146 0
109 147 0
109 147 0
110 148 0
113 150 0
108 146 0
109 147 0
110 148 0
109 147 0
106 145 0
111 148 0
111 149 0
107 146 0
111 148 0
109 147 0
114 150 0
111 148 0
107 146 0
109 147 0
113 150 0
110 148 0
110 148 0
111 148 0
114 150 0
106 145 0
109 147 0
113 149 0
109 147 0
111 148 0
109 147 0
110 148 0
109 147 0
110 148 0
108 146 0
117 152 0
108 146 0
110 148 0
107 146 0
110 148 0
109 147 0
112 149 0
110 148 0
110 148 0
112 149 0
107 146 0
110 148 0
110 147 0
109 147 0
108 146 0
107 146 0
108 146 0
108 146 0
115 151 0
107 146 0
108 147 0
113 149 0
110 148 0
108 147 0
106 145 0
109 147 0
109 147 0
110 147 0
109 147 0
111 148 0
107 146 0
107 146 0
109 147 0
109 147 0
110 147 0
106 146 0
110 148 0
110 147 0
118 152 0
114 150 0
109 147 0
109 147 0
109 147 0
108 146 0
114 150 0
106 145 0
108 146 0
110 148 0
105 145 0
108 147 0
112 149 0
109 147 0
107 146 0
110 147 0
108 147 0
114 150 0
110 148 0
115 151 0
109 147 0
108 146 0
108 146 0
103 144 0
107 146 0
110 147 0
108 146 0
104 144 0
109 147 0
108 147 0
109 147 0
104 144 0
111 148 0
107 146 0
106 145 0
105 145 0
105 145 0
106 145 0
105 145 0
108 146 0
108 146 0
106 145 0
106 145 0
108 147 0
107 146 0
108 146 0
104 144 0
109 147 0
104 144 0
105 145 0
107 146 0
106 145 0
106 146 0
103 143 0
106 146 0
106 145 0
113 150 0
105 145 0
106 146 0
106 145 0
106 145 0
104 144 0
104 144 0
105 145 0
105 145 0
106 145 0
107 146 0
106 145 0
105 145 0
108 147 0
107 146 0
108 146 0
103 144 0
109 147 0
106 145 0
107 146 0
105 144 0
109 147 0
106 145 0
107 146 0
106 145 0
105 145 0
106 145 0
108 146 0
105 145 0
105 145 0
106 145 0
110 147 0
106 145 0
104 144 0
104 144 0
107 146 0
107 146 0
108 147 0
105 145 0
108 146 0
106 146 0
105 145 0
108 147 0
106 146 0
104 144 0
107 146 0
104 144 0
109 147 0
104 144 0
105 144 0
110 148 0
108 147 0
108 146 0
106 145 0
106 145 0
106 145 0
108 147 0
107 146 0
107 146 0
107 146 0
104 144 0
106 145 0
104 144 0
107 146 0
105 145 0
107 146 0
105 145 0
108 146 0
106 145 0
106 146 0
107 146 0
107 146 0
104 144 0
108 147 0
105 144 0
114 150 0
106 145 0
107 146 0
108 146 0
105 144 0
113 149 0
106 145 0
109 147 0
108 147 0
106 145 0
104 144 0
105 145 0
104 144 0
107 146 0
107 146 0
108 146 0
110 147 0
106 146 0
109 147 0
105 144 0
105 145 0
106 145 0
109 147 0
105 145 0
105 145 0
108 147 0
107 146 0
107 146 0
109 147 0
106 145 0
106 145 0
107 146 0
108 147 0
111 148 0
106 146 0
108 147 0
104 144 0
103 143 0
107 146 0
104 144 0
104 144 0
104 144 0
104 144 0
110 148 0
110 148 0
108 146 0
108 147 0
111 148 0
107 146 0
109 147 0
105 145 0
111 148 0
105 145 0
106 145 0
111 148 0
106 145 0
103 144 0
110 148 0
109 147 0
105 145 0
109 147 0
104 144 0
105 144 0
104 144 0
107 146 0
107 146 0
107 146 0
105 145 0
110 148 0
107 146 0
107 146 0
104 144 0
107 146 0
106 145 0
105 145 0
105 145 0
107 146 0
109 147 0
105 145 0
104 144 0
104 144 0
107 146 0
107 146 0
106 145 0
108 146 0
110 148 0
106 145 0
107 146 0
103 144 0
107 146 0
106 145 0
105 145 0
108 146 0
105 145 0
109 147 0
105 145 0
107 146 0
104 144 0
108 146 0
109 147 0
107 146 0
107 146 0
110 148 0
109 147 0
105 144 0
107 146 0
106 145 0
110 147 0
110 148 0
105 145 0
106 146 0
109 147 0
106 145 0
107 146 0
107 146 0
109 147 0
107 146 0
105 145 0
110 148 0
106 146 0
106 145 0
108 147 0
109 147 0
106 145 0
108 146 0
110 148 0
105 145 0
109 147 0
104 144 0
106 145 0
107 146 0
113 150 0
107 146 0
106 145 0
111 148 0
106 145 0
117 152 0
114 150 0
107 146 0
107 146 0
109 147 0
111 149 0
109 147 0
108 147 0
108 146 0
111 148 0
106 145 0
107 146 0
109 147 0
111 148 0
106 145 0
106 145 0
107 146 0
111 148 0
108 147 0
105 145 0
108 147 0
110 148 0
107 146 0
108 146 0
109 147 0
111 148 0
109 147 0
107 146 0
106 145 0
109 147 0
108 147 0
106 146 0
108 147 0
111 148 0
107 146 0
108 146 0
107 146 0
113 150 0
109 147 0
107 146 0
114 150 0
115 151 0
109 147 0
109 147 0
111 148 0
111 148 0
109 147 0
108 146 0
104 144 0
108 147 0
110 148 0
108 147 0
111 148 0
110 148 0
106 145 0
111 148 0
111 148 0
111 148 0
107 146 0
107 146 0
108 146 0
108 147 0
107 146 0
112 149 0
111 148 0
111 148 0
113 150 0
104 144 0
112 149 0
106 146 0
113 150 0
114 150 0
108 146 0
108 146 0
107 146 0
109 147 0
109 147 0
109 147 0
108 147 0
111 148 0
109 147 0
108 147 0
109 147 0
109 147 0
107 146 0
111 148 0
112 149 0
109 147 0
108 147 0
107 146 0
108 147 0
108 146 0
105 144 0
111 149 0
111 148 0
109 147 0
110 148 0
109 147 0
111 148 0
106 145 0
107 146 0
106 146 0
108 147 0
109 147 0
108 146 0
110 148 0
112 149 0
111 148 0
114 150 0
106 145 0
109 147 0
114 150 0
110 148 0
110 148 0
111 148 0
109 147 0
112 149 0
106 146 0
107 146 0
107 146 0
109 147 0
110 147 0
109 147 0
110 148 0
107 146 0
112 149 0
110 148 0
112 149 0
109 147 0
111 148 0
109 147 0
108 146 0
111 148 0
109 147 0
105 145 0
108 146 0
107 146 0
110 147 0
108 146 0
112 149 0
107 146 0
112 149 0
108 146 0
110 148 0
107 146 0
104 144 0
115 151 0
106 145 0
105 145 0
107 146 0
108 147 0
106 145 0
113 149 0
108 147 0
108 147 0
109 147 0
108 147 0
107 146 0
110 148 0
103 144 0
107 146 0
104 144 0
108 147 0
107 146 0
106 145 0
107 146 0
105 145 0
103 144 0
108 146 0
104 144 0
108 146 0
104 144 0
106 145 0
103 144 0
105 145 0
104 144 0
105 145 0
104 144 0
106 145 0
107 146 0
108 146 0
107 146 0
107 146 0
105 145 0
105 144 0
108 146 0
105 145 0
105 145 0
107 146 0
104 144 0
107 146 0
107 146 0
108 147 0
106 145 0
104 144 0
107 146 0
105 145 0
107 146 0
107 146 0
108 147 0
106 145 0
107 146 0
107 146 0
107 146 0
108 146 0
110 148 0
104 144 0
106 145 0
106 146 0
108 147 0
105 144 0
107 146 0
104 144 0
111 148 0
107 146 0
104 144 0
107 146 0
105 145 0
107 146 0
106 145 0
107 146 0
110 148 0
105 145 0
102 143 0
107 146 0
106 145 0
109 147 0
106 145 0
111 148 0
109 147 0
108 147 0
105 145 0
106 145 0
105 145 0
104 144 0
106 145 0
105 145 0
105 145 0
106 145 0
110 148 0
106 146 0
104 144 0
105 144 0
106 145 0
107 146 0
104 144 0
105 145 0
106 145 0
106 145 0
105 145 0
105 145 0
103 144 0
104 144 0
111 148 0
105 145 0
106 145 0
105 145 0
106 145 0
104 144 0
105 145 0
107 146 0
104 144 0
103 144 0
103 144 0
106 145 0
106 145 0
105 145 0
106 145 0
109 147 0
108 147 0
106 145 0
108 147 0
111 148 0
108 146 0
107 146 0
108 146 0
102 143 0
106 145 0
110 148 0
108 146 0
106 145 0
103 143 0
109 147 0
104 144 0
104 144 0
106 145 0
105 144 0
105 145 0
111 148 0
106 145 0
106 145 0
106 145 0
107 146 0
103 144 0
107 146 0
107 146 0
103 144 0
105 145 0
109 147 0
105 145 0
106 145 0
107 146 0
105 145 0
109 147 0
106 145 0
107 146 0
108 146 0
106 145 0
108 146 0
105 145 0
104 144 0
107 146 0
103 144 0
107 146 0
108 146 0
104 144 0
109 147 0
109 147 0
107 146 0
105 145 0
105 145 0
103 143 0
106 145 0
105 145 0
107 146 0
107 146 0
106 145 0
110 148 0
106 145 0
106 145 0
108 147 0
106 145 0
109 147 0
104 144 0
105 145 0
105 145 0
111 148 0
108 147 0
109 147 0
103 144 0
107 146 0
109 147 0
108 146 0
107 146 0
106 145 0
106 145 0
108 146 0
108 146 0
109 147 0
106 145 0
108 146 0
107 146 0
107 146 0
108 146 0
106 145 0
108 146 0
103 143 0
104 144 0
106 145 0
107 146 0
111 148 0
108 146 0
109 147 0
111 148 0
112 149 0
111 148 0
106 145 0
104 144 0
110 148 0
110 148 0
108 147 0
106 145 0
108 147 0
108 146 0
110 148 0
106 145 0
106 146 0
112 149 0
109 147 0
108 147 0
109 147 0
115 150 0
110 148 0
106 145 0
109 147 0
106 146 0
107 146 0
106 146 0
116 151 0
107 146 0
108 146 0
107 146 0
106 145 0
106 145 0
107 146 0
106 146 0
105 145 0
106 145 0
107 146 0
107 146 0
106 145 0
107 146 0
108 147 0
106 145 0
105 145 0
110 148 0
108 147 0
109 147 0
111 148 0
107 146 0
108 147 0
107 146 0
110 148 0
110 148 0
105 145 0
106 146 0
114 150 0
110 148 0
107 146 0
109 147 0
110 148 0
108 146 0
108 146 0
105 145 0
108 147 0
106 145 0
106 145 0
109 147 0
108 147 0
111 148 0
104 144 0
109 147 0
107 146 0
108 147 0
111 149 0
110 148 0
109 147 0
110 148 0
110 148 0
107 146 0
106 146 0
111 148 0
105 145 0
111 148 0
109 147 0
111 148 0
105 145 0
106 145 0
105 144 0
109 147 0
111 148 0
107 146 0
108 146 0
112 149 0
113 149 0
106 145 0
107 146 0
114 150 0
111 149 0
110 148 0
111 149 0
108 146 0
110 148 0
105 145 0
106 145 0
112 149 0
108 147 0
106 145 0
113 149 0
110 148 0
109 147 0
107 146 0
109 147 0
111 148 0
105 145 0
110 147 0
106 145 0
110 148 0
112 149 0
109 147 0
110 148 0
111 149 0
110 148 0
112 149 0
110 148 0
107 146 0
109 147 0
108 146 0
106 145 0
108 146 0
105 145 0
111 148 0
105 145 0
107 146 0
111 148 0
107 146 0
110 147 0
111 148 0
105 145 0
115 151 0
108 147 0
107 146 0
113 149 0
106 145 0
109 147 0
109 147 0
107 146 0
106 145 0
107 146 0
112 149 0
115 151 0
113 149 0
106 145 0
110 148 0
112 149 0
109 147 0
106 145 0
110 148 0
114 150 0
109 147 0
112 149 0
109 147 0
110 148 0
106 145 0
112 149 0
111 148 0
107 146 0
113 149 0
112 149 0
111 148 0
111 148 0
117 152 0
107 146 0
106 146 0
110 147 0
105 144 0
110 148 0
111 148 0
106 145 0
110 147 0
108 147 0
106 145 0
109 147 0
110 148 0
103 144 0
107 146 0
110 148 0
107 146 0
111 148 0
107 146 0
108 146 0
110 147 0
107 146 0
106 145 0
107 146 0
105 145 0
107 146 0
109 147 0
106 145 0
108 147 0
103 144 0
106 145 0
106 146 0
108 147 0
106 145 0
107 146 0
108 147 0
105 145 0
107 146 0
109 147 0
106 145 0
106 145 0
105 145 0
104 144 0
107 146 0
107 146 0
106 146 0
110 148 0
107 146 0
105 145 0
106 146 0
108 146 0
104 144 0
106 145 0
105 145 0
107 146 0
103 144 0
104 144 0
107 146 0
111 148 0
108 146 0
108 147 0
107 146 0
106 145 0
106 145 0
108 146 0
107 146 0
105 145 0
108 146 0
107 146 0
105 145 0
104 144 0
105 144 0
104 144 0
107 146 0
105 144 0
106 145 0
106 145 0
107 146 0
107 146 0
106 145 0
106 145 0
104 144 0
102 143 0
107 146 0
106 145 0
106 145 0
106 145 0
105 145 0
104 144 0
104 144 0
106 146 0
108 146 0
108 147 0
107 146 0
109 147 0
110 148 0
107 146 0
105 145 0
106 145 0
111 148 0
105 145 0
105 144 0
110 148 0
106 146 0
103 144 0
103 144 0
106 145 0
104 144 0
110 148 0
108 147 0
105 145 0
104 144 0
105 145 0
108 147 0
108 146 0
106 145 0
107 146 0
105 144 0
109 147 0
106 145 0
104 144 0
104 144 0
107 146 0
106 146 0
110 148 0
106 145 0
107 146 0
107 146 0
104 144 0
108 147 0
104 144 0
107 146 0
107 146 0
106 145 0
105 145 0
108 147 0
108 146 0
107 146 0
106 145 0
104 144 0
111 148 0
106 146 0
107 146 0
104 144 0
104 144 0
106 145 0
103 144 0
106 145 0
106 145 0
109 147 0
107 146 0
108 146 0
105 145 0
104 144 0
103 144 0
106 145 0
108 146 0
104 144 0
109 147 0
105 144 0
106 146 0
105 145 0
104 144 0
107 146 0
110 148 0
104 144 0
108 146 0
106 145 0
107 146 0
105 145 0
108 147 0
105 145 0
105 145 0
107 146 0
105 145 0
106 145 0
108 146 0
110 148 0
111 148 0
105 145 0
109 147 0
106 145 0
106 145 0
107 146 0
105 145 0
104 144 0
108 146 0
105 144 0
105 145 0
102 143 0
105 145 0
103 144 0
112 149 0
109 147 0
109 147 0
109 147 0
106 145 0
104 144 0
107 146 0
108 147 0
107 146 0
105 145 0
105 144 0
109 147 0
108 146 0
110 148 0
106 145 0
103 143 0
103 144 0
105 144 0
105 145 0
106 145 0
104 144 0
107 146 0
109 147 0
104 144 0
106 145 0
103 144 0
107 146 0
109 147 0
105 145 0
108 147 0
106 146 0
109 147 0
109 147 0
105 144 0
107 146 0
108 146 0
115 150 0
105 145 0
106 145 0
107 146 0
106 145 0
108 146 0
106 146 0
108 146 0
110 147 0
107 146 0
106 145 0
107 146 0
108 146 0
108 147 0
103 143 0
107 146 0
108 146 0
109 147 0
107 146 0
106 145 0
108 146 0
110 148 0
108 147 0
107 146 0
112 149 0
104 144 0
111 148 0
107 146 0
109 147 0
107 146 0
110 147 0
107 146 0
106 146 0
104 144 0
109 147 0
111 149 0
105 144 0
108 146 0
109 147 0
108 146 0
111 148 0
109 147 0
111 148 0
106 146 0
106 145 0
109 147 0
111 148 0
111 148 0
107 146 0
109 147 0
110 148 0
108 146 0
107 146 0
109 147 0
109 147 0
105 145 0
111 148 0
107 146 0
107 146 0
106 145 0
105 145 0
105 145 0
108 147 0
111 148 0
110 148 0
107 146 0
107 146 0
106 145 0
104 144 0
109 147 0
107 146 0
111 149 0
103 144 0
108 147 0
106 145 0
107 146 0
110 147 0
110 148 0
108 146 0
110 148 0
105 145 0
109 147 0
110 148 0
110 148 0
109 147 0
109 147 0
108 147 0
108 146 0
109 147 0
107 146 0
108 146 0
110 148 0
111 148 0
107 146 0
114 150 0
109 147 0
109 147 0
109 147 0
105 145 0
110 148 0
109 147 0
108 146 0
115 151 0
109 147 0
109 147 0
106 146 0
108 146 0
103 144 0
112 149 0
104 144 0
111 148 0
110 147 0
109 147 0
106 145 0
105 145 0
108 147 0
105 145 0
111 149 0
112 149 0
108 147 0
109 147 0
104 144 0
112 149 0
109 147 0
106 145 0
108 147 0
109 147 0
108 147 0
111 148 0
105 145 0
109 147 0
113 150 0
113 150 0
108 147 0
108 146 0
109 147 0
109 147 0
107 146 0
110 148 0
107 146 0
114 150 0
109 147 0
114 150 0
108 146 0
109 147 0
112 149 0
107 146 0
110 147 0
111 148 0
112 149 0
106 145 0
108 147 0
112 149 0
107 146 0
110 147 0
110 148 0
108 147 0
104 144 0
111 148 0
107 146 0
109 147 0
110 148 0
108 147 0
108 146 0
113 150 0
108 146 0
114 150 0
104 144 0
113 149 0
107 146 0
113 149 0
106 145 0
107 146 0
106 145 0
109 147 0
114 150 0
110 148 0
111 148 0
108 147 0
111 148 0
107 146 0
112 149 0
109 147 0
108 147 0
115 151 0
110 148 0
111 148 0
109 147 0
108 146 0
112 149 0
110 148 0
110 147 0
107 146 0
112 149 0
109 147 0
109 147 0
104 144 0
104 144 0
106 145 0
108 147 0
107 146 0
107 146 0
103 143 0
105 145 0
104 144 0
108 146 0
108 146 0
104 144 0
110 148 0
107 146 0
105 145 0
105 145 0
110 148 0
106 145 0
106 145 0
106 146 0
104 144 0
104 144 0
112 149 0
105 145 0
105 145 0
106 145 0
105 145 0
106 145 0
108 147 0
106 145 0
109 147 0
106 145 0
105 145 0
108 146 0
108 146 0
109 147 0
110 148 0
105 145 0
106 146 0
110 148 0
106 145 0
109 147 0
104 144 0
107 146 0
103 143 0
109 147 0
103 144 0
105 145 0
107 146 0
105 145 0
108 146 0
106 145 0
106 145 0
105 145 0
107 146 0
106 145 0
104 144 0
108 147 0
109 147 0
108 146 0
104 144 0
104 144 0
105 144 0
104 144 0
106 145 0
105 145 0
104 144 0
104 144 0
107 146 0
106 145 0
106 145 0
106 145 0
106 145 0
102 143 0
106 146 0
107 146 0
108 146 0
106 146 0
107 146 0
105 145 0
108 147 0
106 145 0
106 145 0
110 148 0
107 146 0
107 146 0
109 147 0
105 145 0
106 145 0
110 147 0
103 144 0
107 146 0
107 146 0
103 144 0
104 144 0
104 144 0
106 145 0
106 145 0
105 145 0
103 144 0
103 144 0
108 147 0
103 143 0
107 146 0
111 148 0
104 144 0
105 145 0
105 145 0
105 145 0
105 145 0
104 144 0
104 144 0
105 144 0
105 145 0
109 147 0
109 147 0
107 146 0
109 147 0
107 146 0
109 147 0
107 146 0
106 145 0
108 146 0
103 144 0
109 147 0
105 145 0
105 144 0
105 145 0
106 146 0
106 145 0
111 148 0
105 145 0
107 146 0
110 148 0
109 147 0
108 147 0
105 145 0
104 144 0
105 145 0
105 145 0
102 143 0
109 147 0
106 145 0
113 149 0
108 146 0
107 146 0
102 143 0
112 149 0
106 145 0
105 145 0
105 145 0
102 143 0
102 143 0
107 146 0
107 146 0
108 146 0
105 145 0
108 146 0
106 145 0
107 146 0
106 145 0
106 145 0
105 145 0
106 145 0
108 147 0
103 144 0
108 146 0
107 146 0
106 145 0
109 147 0
111 148 0
104 144 0
110 148 0
106 145 0
105 144 0
105 145 0
108 146 0
108 146 0
109 147 0
109 147 0
105 145 0
106 145 0
105 145 0
104 144 0
106 145 0
107 146 0
104 144 0
106 145 0
106 145 0
110 148 0
109 147 0
107 146 0
108 146 0
107 146 0
104 144 0
105 145 0
106 145 0
105 145 0
105 145 0
107 146 0
106 145 0
113 150 0
107 146 0
107 146 0
108 146 0
108 146 0
109 147 0
107 146 0
106 146 0
111 148 0
106 145 0
107 146 0
109 147 0
103 144 0
107 146 0
106 145 0
107 146 0
108 146 0
110 148 0
105 145 0
107 146 0
109 147 0
108 146 0
105 145 0
108 146 0
110 148 0
107 146 0
105 145 0
105 145 0
104 144 0
106 145 0
109 147 0
111 148 0
106 145 0
105 145 0
107 146 0
105 145 0
111 148 0
104 144 0
105 145 0
108 147 0
108 147 0
108 147 0
114 150 0
112 149 0
106 146 0
104 144 0
107 146 0
109 147 0
108 146 0
107 146 0
106 145 0
111 148 0
106 146 0
111 148 0
106 145 0
108 146 0
108 146 0
105 145 0
109 147 0
111 148 0
106 145 0
108 147 0
107 146 0
108 146 0
108 146 0
111 148 0
109 147 0
108 146 0
108 146 0
107 146 0
109 147 0
110 148 0
106 145 0
106 145 0
108 146 0
106 146 0
107 146 0
112 149 0
110 148 0
105 145 0
105 145 0
108 146 0
108 147 0
107 146 0
105 145 0
110 148 0
108 146 0
109 147 0
111 148 0
108 147 0
108 146 0
110 148 0
107 146 0
105 145 0
110 148 0
115 151 0
110 147 0
106 146 0
112 149 0
107 146 0
112 149 0
105 145 0
109 147 0
112 149 0
110 148 0
106 145 0
107 146 0
112 149 0
106 145 0
108 146 0
105 145 0
108 147 0
111 148 0
114 150 0
112 149 0
111 149 0
109 147 0
111 148 0
112 149 0
108 147 0
115 150 0
107 146 0
110 148 0
107 146 0
104 144 0
109 147 0
106 145 0
109 147 0
109 147 0
107 146 0
109 147 0
114 150 0
105 145 0
108 147 0
113 149 0
115 151 0
106 146 0
109 147 0
107 146 0
109 147 0
107 146 0
105 145 0
112 149 0
109 147 0
112 149 0
104 144 0
112 149 0
110 148 0
108 146 0
111 149 0
112 149 0
111 148 0
113 149 0
112 149 0
110 148 0
113 149 0
105 145 0
113 149 0
107 146 0
106 145 0
111 148 0
112 149 0
108 146 0
109 147 0
108 146 0
111 148 0
110 148 0
110 148 0
105 145 0
104 144 0
111 148 0
111 148 0
108 146 0
108 146 0
108 147 0
109 147 0
113 150 0
115 150 0
110 148 0
112 149 0
107 146 0
113 150 0
110 148 0
109 147 0
109 147 0
109 147 0
111 149 0
109 147 0
107 146 0
107 146 0
112 149 0
107 146 0
108 147 0
106 145 0
110 148 0
105 145 0
107 146 0
107 146 0
107 146 0
104 144 0
103 144 0
107 146 0
107 146 0
105 145 0
106 145 0
106 145 0
105 145 0
106 145 0
105 145 0
107 146 0
105 145 0
105 145 0
109 147 0
105 144 0
107 146 0
106 145 0
107 146 0
106 145 0
105 145 0
104 144 0
105 145 0
104 144 0
106 146 0
107 146 0
107 146 0
107 146 0
105 145 0
108 147 0
104 144 0
108 146 0
106 145 0
104 144 0
105 145 0
104 144 0
107 146 0
104 144 0
106 145 0
105 145 0
105 145 0
114 150 0
105 145 0
106 146 0
105 145 0
106 146 0
103 144 0
106 145 0
108 146 0
108 147 0
106 145 0
106 145 0
105 145 0
105 145 0
108 147 0
105 145 0
107 146 0
107 146 0
106 145 0
103 143 0
105 145 0
111 148 0
108 146 0
105 145 0
106 145 0
105 145 0
104 144 0
109 147 0
105 145 0
105 145 0
105 145 0
109 147 0
106 145 0
105 145 0
105 145 0
104 144 0
106 145 0
105 145 0
106 145 0
107 146 0
108 146 0
102 143 0
104 144 0
108 147 0
103 143 0
109 147 0
105 145 0
106 146 0
107 146 0
107 146 0
108 146 0
105 145 0
107 146 0
109 147 0
105 145 0
107 146 0
106 145 0
104 144 0
106 145 0
105 145 0
104 144 0
102 143 0
104 144 0
107 146 0
106 145 0
104 144 0
106 145 0
107 146 0
108 146 0
106 146 0
109 147 0
106 146 0
104 144 0
102 143 0
107 146 0
105 145 0
106 145 0
108 146 0
105 144 0
106 145 0
107 146 0
103 144 0
106 145 0
107 146 0
105 145 0
107 146 0
103 144 0
106 145 0
106 145 0
107 146 0
105 145 0
106 146 0
106 145 0
108 146 0
104 144 0
103 143 0
103 144 0
106 145 0
107 146 0
106 146 0
105 145 0
104 144 0
105 145 0
104 144 0
108 147 0
105 145 0
107 146 0
107 146 0
107 146 0
107 146 0
106 145 0
107 146 0
109 147 0
103 144 0
105 145 0
106 145 0
105 145 0
105 145 0
110 148 0
107 146 0
107 146 0
108 146 0
109 147 0
105 145 0
105 145 0
104 144 0
107 146 0
107 146 0
105 145 0
104 144 0
106 145 0
109 147 0
107 146 0
108 146 0
109 147 0
109 147 0
107 146 0
103 144 0
105 145 0
107 146 0
106 145 0
104 144 0
106 146 0
106 146 0
105 145 0
108 146 0
109 147 0
106 146 0
103 144 0
107 146 0
104 144 0
107 146 0
107 146 0
105 145 0
106 145 0
107 146 0
106 145 0
106 145 0
106 145 0
107 146 0
107 146 0
104 144 0
107 146 0
109 147 0
107 146 0
106 145 0
107 146 0
106 145 0
107 146 0
107 146 0
108 146 0
104 144 0
105 145 0
107 146 0
106 145 0
104 144 0
109 147 0
111 148 0
108 147 0
107 146 0
107 146 0
109 147 0
105 145 0
111 148 0
112 149 0
105 145 0
108 147 0
107 146 0
108 147 0
104 144 0
105 145 0
111 148 0
105 145 0
109 147 0
108 147 0
107 146 0
108 147 0
105 145 0
109 147 0
106 145 0
108 146 0
104 144 0
104 144 0
109 147 0
106 145 0
112 149 0
107 146 0
105 145 0
106 145 0
107 146 0
110 148 0
110 148 0
109 147 0
112 149 0
114 150 0
105 145 0
109 147 0
110 148 0
105 144 0
109 147 0
111 148 0
109 147 0
113 149 0
106 146 0
106 145 0
112 149 0
105 145 0
104 144 0
108 146 0
107 146 0
108 146 0
110 148 0
105 145 0
107 146 0
106 145 0
110 148 0
109 147 0
111 148 0
117 152 0
107 146 0
108 147 0
107 146 0
113 150 0
104 144 0
110 147 0
106 146 0
110 148 0
109 147 0
112 149 0
108 146 0
106 145 0
109 147 0
113 149 0
107 146 0
109 147 0
108 146 0
106 145 0
104 144 0
108 147 0
107 146 0
109 147 0
109 147 0
109 147 0
105 145 0
110 148 0
112 149 0
107 146 0
116 151 0
106 145 0
110 148 0
111 148 0
109 147 0
108 147 0
111 148 0
110 148 0
109 147 0
110 147 0
104 144 0
108 146 0
110 148 0
107 146 0
109 147 0
111 148 0
114 150 0
107 146 0
107 146 0
109 147 0
107 146 0
109 147 0
114 150 0
110 148 0
110 148 0
109 147 0
110 148 0
107 146 0
110 148 0
107 146 0
111 148 0
109 147 0
113 149 0
119 153 0
110 148 0
109 147 0
109 147 0
110 148 0
111 148 0
109 147 0
107 146 0
111 148 0
108 146 0
109 147 0
117 152 0
109 147 0
106 145 0
106 145 0
110 148 0
107 146 0
107 146 0
110 148 0
108 146 0
109 147 0
115 151 0
107 146 0
110 148 0
110 148 0
113 150 0
111 148 0
106 145 0
111 148 0
108 147 0
113 149 0
112 149 0
109 147 0
117 152 0
108 147 0
107 146 0
107 146 0
112 149 0
105 145 0
106 145 0
107 146 0
108 147 0
109 147 0
108 146 0
114 150 0
111 148 0
110 147 0
108 147 0
110 148 0
112 149 0
110 148 0
112 149 0
109 147 0
113 150 0
108 146 0
112 149 0
108 146 0
114 150 0
116 151 0
107 146 0
114 150 0
111 148 0
107 146 0
105 145 0
106 145 0
106 146 0
108 146 0
109 147 0
105 145 0
108 147 0
104 144 0
104 144 0
105 145 0
106 145 0
108 147 0
104 144 0
107 146 0
104 144 0
108 147 0
104 144 0
105 145 0
106 145 0
106 145 0
105 145 0
107 146 0
108 146 0
108 147 0
105 145 0
109 147 0
105 145 0
104 144 0
108 147 0
106 145 0
107 146 0
107 146 0
102 143 0
107 146 0
104 144 0
106 145 0
109 147 0
105 144 0
104 144 0
104 144 0
108 146 0
106 145 0
107 146 0
106 145 0
103 144 0
105 145 0
105 145 0
104 144 0
105 145 0
110 148 0
106 145 0
103 144 0
105 145 0
105 145 0
104 144 0
109 147 0
109 147 0
105 145 0
107 146 0
106 145 0
106 145 0
105 144 0
104 144 0
107 146 0
106 145 0
106 146 0
106 145 0
109 147 0
105 145 0
108 147 0
107 146 0
105 145 0
105 145 0
104 144 0
108 147 0
106 145 0
104 144 0
108 146 0
107 146 0
103 144 0
103 144 0
104 144 0
105 145 0
106 145 0
103 143 0
106 145 0
103 144 0
108 147 0
106 145 0
105 145 0
105 144 0
108 146 0
105 145 0
106 145 0
103 144 0
107 146 0
105 144 0
106 145 0
105 145 0
103 144 0
106 146 0
109 147 0
105 144 0
107 146 0
104 144 0
107 146 0
108 146 0
105 145 0
108 147 0
108 146 0
109 147 0
104 144 0
108 146 0
107 146 0
106 145 0
105 144 0
106 145 0
107 146 0
108 146 0
107 146 0
105 145 0
106 145 0
104 144 0
104 144 0
107 146 0
103 144 0
104 144 0
108 147 0
106 145 0
106 145 0
108 146 0
110 147 0
106 145 0
102 143 0
111 148 0
106 145 0
107 146 0
107 146 0
109 147 0
112 149 0
105 144 0
108 146 0
107 146 0
107 146 0
104 144 0
103 144 0
107 146 0
103 144 0
109 147 0
103 144 0
108 146 0
105 145 0
108 146 0
104 144 0
104 144 0
106 145 0
108 146 0
106 145 0
106 145 0
109 147 0
104 144 0
108 147 0
108 147 0
103 143 0
113 150 0
108 146 0
108 146 0
107 146 0
108 146 0
106 145 0
104 144 0
105 145 0
105 145 0
108 146 0
107 146 0
105 145 0
108 147 0
108 146 0
107 146 0
103 144 0
103 143 0
111 148 0
111 148 0
110 147 0
105 145 0
106 145 0
107 146 0
105 145 0
106 145 0
107 146 0
105 144 0
105 145 0
107 146 0
108 146 0
104 144 0
105 145 0
110 148 0
108 147 0
104 144 0
105 145 0
109 147 0
112 149 0
107 146 0
112 149 0
108 146 0
108 146 0
105 144 0
105 144 0
107 146 0
108 147 0
109 147 0
107 146 0
103 143 0
109 147 0
106 145 0
105 144 0
106 145 0
106 145 0
109 147 0
111 149 0
107 146 0
110 147 0
110 148 0
105 145 0
107 146 0
107 146 0
106 146 0
108 147 0
106 145 0
108 146 0
107 146 0
106 145 0
105 145 0
107 146 0
106 145 0
106 145 0
106 146 0
110 147 0
108 146 0
107 146 0
104 144 0
111 148 0
107 146 0
112 149 0
112 149 0
104 144 0
108 147 0
112 149 0
107 146 0
108 146 0
109 147 0
111 148 0
112 149 0
106 145 0
104 144 0
111 148 0
106 145 0
107 146 0
107 146 0
109 147 0
111 148 0
111 148 0
109 147 0
109 147 0
109 147 0
107 146 0
110 148 0
108 146 0
114 150 0
108 147 0
110 147 0
107 146 0
110 148 0
111 149 0
108 147 0
114 150 0
110 148 0
106 145 0
110 147 0
104 144 0
109 147 0
109 147 0
108 146 0
108 147 0
109 147 0
103 144 0
107 146 0
108 146 0
112 149 0
110 148 0
105 145 0
107 146 0
107 146 0
105 145 0
112 149 0
110 148 0
109 147 0
110 148 0
108 146 0
106 146 0
107 146 0
105 145 0
108 147 0
110 148 0
107 146 0
107 146 0
108 147 0
111 148 0
113 149 0
108 147 0
114 150 0
107 146 0
107 146 0
109 147 0
108 146 0
107 146 0
111 149 0
110 148 0
112 149 0
112 149 0
108 147 0
109 147 0
110 148 0
105 145 0
110 147 0
112 149 0
109 147 0
107 146 0
111 148 0
106 145 0
110 148 0
108 147 0
110 148 0
105 145 0
109 147 0
111 148 0
109 147 0
109 147 0
105 145 0
108 147 0
110 148 0
113 149 0
108 147 0
111 148 0
112 149 0
110 148 0
112 149 0
114 150 0
115 151 0
111 148 0
111 148 0
107 146 0
108 146 0
108 147 0
109 147 0
106 145 0
106 145 0
104 144 0
106 146 0
115 151 0
108 146 0
107 146 0
108 146 0
108 146 0
108 147 0
110 148 0
107 146 0
104 144 0
109 147 0
107 146 0
113 149 0
110 148 0
107 146 0
115 151 0
107 146 0
112 149 0
110 148 0
110 148 0
111 148 0
111 148 0
109 147 0
110 148 0
106 145 0
110 148 0
106 146 0
112 149 0
108 147 0
110 147 0
107 146 0
112 149 0
110 148 0
106 145 0
112 149 0
107 146 0
115 150 0
109 147 0
110 148 0
106 146 0
104 144 0
107 146 0
105 145 0
105 145 0
109 147 0
108 146 0
108 147 0
105 145 0
109 147 0
108 147 0
109 147 0
105 145 0
104 144 0
104 144 0
103 144 0
107 146 0
107 146 0
107 146 0
109 147 0
106 145 0
105 145 0
111 148 0
110 148 0
107 146 0
105 145 0
105 145 0
105 145 0
107 146 0
109 147 0
109 147 0
106 145 0
106 145 0
110 148 0
108 146 0
104 144 0
111 148 0
105 144 0
108 147 0
105 145 0
104 144 0
105 145 0
104 144 0
107 146 0
105 144 0
106 145 0
109 147 0
106 145 0
107 146 0
107 146 0
107 146 0
107 146 0
106 145 0
103 144 0
106 145 0
106 145 0
110 148 0
104 144 0
106 145 0
104 144 0
105 145 0
103 144 0
106 145 0
106 145 0
104 144 0
108 147 0
110 148 0
105 145 0
107 146 0
110 148 0
105 145 0
105 145 0
107 146 0
103 144 0
105 145 0
103 144 0
107 146 0
106 146 0
107 146 0
105 144 0
106 145 0
106 145 0
105 145 0
104 144 0
104 144 0
107 146 0
105 145 0
109 147 0
104 144 0
110 147 0
108 147 0
104 144 0
106 146 0
102 143 0
107 146 0
106 145 0
105 145 0
104 144 0
109 147 0
104 144 0
109 147 0
106 145 0
103 143 0
107 146 0
111 148 0
109 147 0
107 146 0
106 146 0
105 145 0
110 148 0
104 144 0
106 145 0
105 144 0
107 146 0
105 145 0
106 145 0
106 145 0
106 146 0
105 145 0
108 147 0
106 145 0
107 146 0
105 145 0
108 146 0
103 144 0
104 144 0
106 145 0
107 146 0
105 145 0
105 145 0
106 146 0
104 144 0
108 147 0
105 145 0
105 145 0
106 145 0
108 147 0
106 145 0
107 146 0
107 146 0
105 145 0
104 144 0
106 145 0
104 144 0
110 148 0
106 145 0
103 144 0
105 145 0
106 145 0
109 147 0
108 146 0
107 146 0
109 147 0
109 147 0
106 145 0
105 145 0
109 147 0
108 147 0
110 148 0
106 145 0
105 145 0
106 145 0
106 145 0
105 145 0
107 146 0
104 144 0
107 146 0
105 145 0
110 148 0
105 145 0
106 145 0
107 146 0
108 147 0
107 146 0
105 145 0
105 145 0
107 146 0
107 146 0
107 146 0
111 148 0
106 145 0
107 146 0
105 144 0
109 147 0
105 145 0
107 146 0
103 144 0
108 146 0
105 145 0
106 145 0
108 147 0
104 144 0
107 146 0
109 147 0
107 146 0
107 146 0
104 144 0
107 146 0
106 145 0
109 147 0
107 146 0
107 146 0
106 145 0
111 148 0
107 146 0
106 145 0
108 146 0
107 146 0
109 147 0
105 145 0
107 146 0
108 146 0
107 146 0
108 146 0
110 148 0
110 148 0
110 148 0
107 146 0
109 147 0
105 145 0
104 144 0
103 144 0
110 148 0
109 147 0
109 147 0
109 147 0
106 146 0
107 146 0
109 147 0
108 146 0
106 145 0
107 146 0
107 146 0
108 147 0
106 146 0
107 146 0
106 145 0
107 146 0
106 145 0
107 146 0
113 149 0
111 148 0
111 148 0
114 150 0
113 150 0
104 144 0
107 146 0
109 147 0
114 150 0
107 146 0
105 145 0
108 146 0
110 148 0
111 148 0
106 145 0
105 145 0
109 147 0
110 148 0
107 146 0
106 146 0
107 146 0
106 145 0
109 147 0
112 149 0
106 146 0
106 145 0
111 148 0
109 147 0
106 145 0
108 146 0
111 148 0
108 146 0
108 146 0
110 148 0
106 146 0
107 146 0
107 146 0
109 147 0
110 147 0
112 149 0
107 146 0
107 146 0
108 146 0
110 148 0
108 147 0
109 147 0
111 148 0
113 149 0
106 145 0
110 148 0
108 147 0
108 147 0
107 146 0
107 146 0
106 145 0
104 144 0
107 146 0
109 147 0
110 148 0
109 147 0
109 147 0
109 147 0
107 146 0
104 144 0
108 147 0
112 149 0
107 146 0
113 150 0
107 146 0
108 146 0
109 147 0
111 148 0
109 147 0
110 148 0
110 148 0
106 145 0
108 146 0
107 146 0
114 150 0
111 148 0
107 146 0
109 147 0
111 148 0
109 147 0
114 150 0
109 147 0
112 149 0
110 148 0
109 147 0
108 147 0
110 148 0
110 148 0
108 146 0
110 148 0
105 145 0
111 149 0
110 148 0
110 148 0
111 149 0
108 147 0
111 148 0
104 144 0
108 147 0
109 147 0
112 149 0
111 148 0
109 147 0
111 148 0
107 146 0
109 147 0
112 149 0
111 148 0
107 146 0
110 148 0
114 150 0
107 146 0
109 147 0
109 147 0
114 150 0
108 146 0
108 146 0
112 149 0
109 147 0
105 145 0
109 147 0
114 150 0
113 149 0
108 146 0
110 148 0
112 149 0
108 146 0
104 144 0
111 148 0
105 145 0
109 147 0
107 146 0
108 147 0
112 149 0
106 145 0
110 148 0
107 146 0
110 148 0
109 147 0
107 146 0
110 148 0
112 149 0
114 150 0
110 148 0
107 146 0
111 149 0
108 147 0
107 146 0
108 147 0
110 148 0
107 146 0
109 147 0
107 146 0
108 147 0
111 149 0
113 149 0
110 148 0
105 145 0
106 146 0
106 145 0
109 147 0
104 144 0
105 144 0
107 146 0
104 144 0
106 146 0
105 145 0
108 147 0
105 145 0
109 147 0
109 147 0
108 146 0
107 146 0
108 146 0
106 145 0
105 145 0
112 149 0
106 145 0
106 145 0
103 144 0
105 145 0
108 146 0
107 146 0
107 146 0
108 146 0
108 146 0
108 146 0
106 145 0
103 144 0
105 145 0
105 145 0
108 146 0
104 144 0
106 145 0
107 146 0
105 145 0
106 145 0
105 145 0
106 145 0
110 148 0
106 145 0
109 147 0
103 144 0
109 147 0
105 145 0
107 146 0
104 144 0
105 145 0
109 147 0
108 146 0
104 144 0
105 145 0
107 146 0
106 146 0
108 146 0
106 145 0
105 145 0
104 144 0
106 146 0
103 144 0
104 144 0
105 144 0
103 144 0
105 145 0
103 144 0
112 149 0
105 144 0
110 148 0
106 145 0
105 145 0
109 147 0
109 147 0
109 147 0
104 144 0
105 145 0
106 145 0
105 145 0
104 144 0
107 146 0
105 145 0
107 146 0
102 143 0
105 145 0
105 145 0
107 146 0
105 145 0
105 145 0
106 145 0
107 146 0
104 144 0
108 146 0
107 146 0
104 144 0
108 146 0
106 145 0
105 145 0
105 145 0
106 146 0
109 147 0
104 144 0
107 146 0
105 145 0
106 145 0
105 145 0
107 146 0
109 147 0
108 146 0
103 144 0
105 145 0
104 144 0
105 145 0
106 145 0
106 145 0
108 147 0
104 144 0
109 147 0
107 146 0
109 147 0
105 145 0
104 144 0
109 147 0
106 145 0
104 144 0
106 146 0
104 144 0
105 145 0
107 146 0
106 146 0
104 144 0
111 148 0
105 145 0
105 145 0
104 144 0
107 146 0
108 146 0
108 147 0
104 144 0
107 146 0
108 146 0
109 147 0
110 148 0
105 145 0
106 145 0
108 147 0
109 147 0
105 145 0
110 148 0
108 146 0
104 144 0
108 146 0
108 146 0
102 143 0
108 147 0
105 145 0
103 144 0
102 143 0
104 144 0
112 149 0
103 144 0
109 147 0
109 147 0
109 147 0
108 146 0
105 145 0
106 145 0
107 146 0
104 144 0
106 145 0
106 145 0
108 146 0
106 145 0
109 147 0
107 146 0
107 146 0
107 146 0
107 146 0
106 145 0
107 146 0
105 145 0
108 146 0
104 144 0
106 145 0
106 146 0
110 148 0
106 146 0
107 146 0
106 145 0
105 145 0
106 145 0
108 147 0
107 146 0
104 144 0
107 146 0
107 146 0
107 146 0
108 147 0
107 146 0
111 148 0
105 145 0
110 148 0
110 148 0
106 145 0
107 146 0
106 145 0
104 144 0
108 146 0
106 145 0
107 146 0
111 148 0
109 147 0
108 147 0
110 148 0
106 145 0
104 144 0
107 146 0
107 146 0
103 144 0
107 146 0
109 147 0
103 143 0
109 147 0
106 145 0
105 144 0
110 148 0
110 148 0
106 145 0
109 147 0
107 146 0
109 147 0
107 146 0
105 145 0
107 146 0
108 147 0
108 146 0
104 144 0
106 146 0
105 145 0
107 146 0
105 144 0
108 146 0
106 145 0
108 146 0
108 147 0
108 147 0
113 149 0
106 145 0
108 146 0
106 145 0
112 149 0
107 146 0
105 145 0
107 146 0
106 145 0
111 148 0
108 146 0
106 145 0
106 145 0
106 145 0
108 146 0
109 147 0
107 146 0
107 146 0
110 148 0
105 145 0
110 148 0
105 145 0
113 150 0
106 145 0
114 150 0
111 148 0
108 146 0
105 145 0
106 145 0
106 145 0
107 146 0
109 147 0
108 146 0
112 149 0
106 145 0
108 146 0
113 149 0
108 147 0
112 149 0
109 147 0
107 146 0
104 144 0
109 147 0
107 146 0
112 149 0
108 147 0
109 147 0
109 147 0
108 147 0
106 146 0
112 149 0
108 147 0
107 146 0
106 145 0
108 147 0
106 145 0
106 145 0
108 147 0
106 146 0
107 146 0
104 144 0
108 147 0
108 147 0
109 147 0
109 147 0
110 148 0
105 145 0
111 148 0
113 149 0
108 146 0
110 148 0
109 147 0
109 147 0
109 147 0
106 145 0
110 148 0
108 147 0
114 150 0
106 145 0
114 150 0
108 147 0
109 147 0
112 149 0
110 148 0
111 148 0
106 145 0
110 148 0
112 149 0
108 146 0
109 147 0
109 147 0
106 145 0
108 146 0
109 147 0
111 148 0
113 149 0
112 149 0
107 146 0
107 146 0
110 148 0
109 147 0
112 149 0
110 148 0
110 148 0
106 145 0
108 147 0
118 153 0
107 146 0
107 146 0
110 148 0
112 149 0
106 145 0
108 146 0
114 150 0
108 147 0
110 148 0
109 147 0
112 149 0
110 148 0
106 146 0
115 150 0
107 146 0
109 147 0
108 147 0
109 147 0
109 147 0
106 145 0
106 145 0
112 149 0
114 150 0
107 146 0
107 146 0
109 147 0
114 150 0
109 147 0
109 147 0
107 146 0
105 145 0
115 151 0
111 148 0
114 150 0
109 147 0
113 149 0
110 148 0
114 150 0
110 148 0
108 147 0
114 150 0
115 151 0
109 147 0
107 146 0
108 147 0
105 145 0
102 143 0
108 147 0
108 147 0
109 147 0
104 144 0
107 146 0
106 145 0
105 145 0
104 144 0
110 148 0
108 146 0
108 147 0
106 145 0
105 145 0
106 146 0
107 146 0
106 145 0
107 146 0
106 145 0
110 148 0
103 144 0
106 145 0
108 146 0
107 146 0
107 146 0
105 145 0
108 147 0
105 145 0
105 145 0
107 146 0
104 144 0
104 144 0
107 146 0
104 144 0
107 146 0
105 145 0
109 147 0
104 144 0
104 144 0
104 144 0
106 146 0
106 145 0
104 144 0
110 148 0
107 146 0
104 144 0
105 145 0
105 145 0
108 146 0
108 146 0
106 145 0
107 146 0
105 145 0
108 146 0
106 145 0
106 145 0
105 144 0
105 145 0
110 148 0
102 143 0
106 146 0
106 145 0
105 145 0
105 145 0
108 147 0
107 146 0
104 144 0
110 148 0
104 144 0
108 147 0
105 145 0
106 145 0
104 144 0
105 145 0
104 144 0
105 145 0
107 146 0
107 146 0
109 147 0
107 146 0
102 143 0
110 148 0
109 147 0
106 145 0
105 144 0
104 144 0
105 145 0
108 146 0
104 144 0
107 146 0
104 144 0
109 147 0
107 146 0
105 145 0
105 145 0
106 145 0
105 145 0
106 145 0
107 146 0
108 146 0
107 146 0
105 145 0
104 144 0
105 144 0
112 149 0
106 145 0
103 144 0
103 143 0
105 145 0
109 147 0
109 147 0
105 145 0
108 146 0
105 145 0
107 146 0
104 144 0
105 145 0
106 145 0
105 145 0
109 147 0
107 146 0
108 146 0
105 145 0
106 146 0
108 147 0
103 144 0
105 145 0
109 147 0
105 145 0
106 146 0
107 146 0
106 145 0
106 145 0
104 144 0
106 146 0
109 147 0
103 144 0
107 146 0
111 148 0
103 144 0
104 144 0
105 145 0
107 146 0
107 146 0
107 146 0
106 145 0
110 147 0
107 146 0
106 146 0
109 147 0
110 148 0
106 146 0
107 146 0
109 147 0
103 143 0
109 147 0
108 146 0
106 145 0
107 146 0
110 148 0
105 145 0
106 145 0
108 147 0
108 146 0
106 145 0
107 146 0
106 145 0
103 144 0
107 146 0
105 145 0
106 145 0
107 146 0
106 145 0
105 145 0
105 145 0
106 145 0
107 146 0
104 144 0
109 147 0
106 145 0
107 146 0
105 145 0
104 144 0
108 146 0
110 148 0
106 145 0
110 148 0
105 145 0
107 146 0
106 146 0
103 144 0
108 146 0
108 147 0
104 144 0
107 146 0
112 149 0
104 144 0
105 144 0
105 145 0
108 147 0
109 147 0
107 146 0
110 148 0
105 145 0
105 145 0
105 145 0
109 147 0
105 145 0
104 144 0
106 145 0
107 146 0
106 145 0
106 145 0
106 145 0
112 149 0
108 146 0
103 144 0
108 146 0
109 147 0
104 144 0
109 147 0
108 146 0
110 148 0
109 147 0
107 146 0
110 148 0
106 145 0
109 147 0
109 147 0
106 145 0
110 148 0
111 148 0
110 148 0
104 144 0
104 144 0
108 146 0
108 147 0
105 145 0
106 145 0
113 149 0
106 145 0
108 147 0
104 144 0
110 148 0
111 148 0
107 146 0
108 147 0
109 147 0
107 146 0
104 144 0
113 150 0
112 149 0
108 146 0
108 146 0
107 146 0
108 146 0
111 148 0
109 147 0
108 146 0
108 146 0
106 145 0
109 147 0
112 149 0
108 146 0
108 147 0
108 147 0
106 146 0
105 145 0
110 148 0
108 147 0
105 144 0
110 147 0
109 147 0
109 147 0
109 147 0
108 147 0
107 146 0
108 146 0
109 147 0
112 149 0
109 147 0
107 146 0
111 148 0
108 146 0
109 147 0
107 146 0
107 146 0
112 149 0
110 148 0
105 145 0
108 146 0
110 147 0
106 145 0
107 146 0
109 147 0
110 147 0
108 147 0
107 146 0
107 146 0
113 150 0
111 148 0
104 144 0
105 144 0
111 148 0
112 149 0
111 149 0
105 145 0
110 148 0
112 149 0
110 148 0
111 148 0
104 144 0
107 146 0
106 145 0
103 144 0
109 147 0
108 146 0
106 145 0
106 145 0
115 151 0
105 145 0
110 148 0
106 145 0
107 146 0
111 148 0
105 145 0
107 146 0
113 150 0
107 146 0
111 148 0
112 149 0
108 146 0
106 145 0
106 145 0
112 149 0
109 147 0
112 149 0
110 148 0
110 148 0
110 148 0
107 146 0
110 147 0
110 148 0
110 147 0
108 147 0
109 147 0
109 147 0
110 148 0
104 144 0
110 148 0
110 148 0
110 148 0
109 147 0
111 148 0
111 148 0
107 146 0
109 147 0
109 147 0
109 147 0
114 150 0
115 151 0
109 147 0
106 146 0
107 146 0
110 148 0
113 150 0
105 144 0
111 148 0
112 149 0
111 148 0
105 144 0
108 146 0
111 148 0
110 148 0
106 146 0
109 147 0
108 147 0
111 148 0
108 147 0
112 149 0
108 146 0
105 145 0
110 148 0
109 147 0
107 146 0
109 147 0
111 148 0
108 147 0
108 146 0
106 145 0
110 148 0
112 149 0
110 148 0
107 146 0
108 146 0
109 147 0
106 145 0
108 147 0
113 150 0
110 148 0
108 146 0
107 146 0
106 145 0
105 145 0
105 145 0
104 144 0
107 146 0
104 144 0
108 146 0
104 144 0
105 145 0
105 144 0
109 147 0
108 146 0
106 145 0
104 144 0
106 145 0
104 144 0
105 145 0
107 146 0
103 144 0
106 145 0
107 146 0
110 148 0
104 144 0
106 145 0
109 147 0
105 145 0
109 147 0
105 145 0
106 146 0
105 145 0
107 146 0
104 144 0
107 146 0
104 144 0
104 144 0
106 145 0
106 145 0
107 146 0
108 147 0
106 145 0
105 145 0
107 146 0
105 145 0
106 145 0
107 146 0
110 147 0
109 147 0
106 145 0
106 145 0
108 146 0
106 145 0
108 147 0
108 147 0
107 146 0
106 145 0
104 144 0
109 147 0
106 145 0
106 145 0
107 146 0
105 144 0
111 148 0
106 145 0
109 147 0
105 145 0
108 147 0
105 145 0
104 144 0
105 145 0
104 144 0
106 145 0
107 146 0
107 146 0
107 146 0
107 146 0
105 145 0
108 147 0
110 148 0
105 145 0
109 147 0
107 146 0
106 146 0
106 145 0
106 145 0
108 146 0
103 144 0
109 147 0
105 145 0
106 145 0
110 147 0
109 147 0
106 145 0
105 145 0
107 146 0
104 144 0
104 144 0
106 146 0
107 146 0
104 144 0
108 147 0
105 145 0
105 144 0
105 144 0
106 145 0
103 144 0
107 146 0
104 144 0
109 147 0
106 146 0
107 146 0
104 144 0
105 145 0
105 145 0
110 148 0
108 146 0
104 144 0
107 146 0
105 145 0
106 146 0
106 145 0
109 147 0
104 144 0
106 146 0
105 145 0
103 144 0
106 145 0
107 146 0
108 146 0
107 146 0
110 147 0
109 147 0
106 145 0
109 147 0
106 146 0
108 147 0
104 144 0
107 146 0
104 144 0
105 144 0
110 148 0
113 149 0
104 144 0
109 147 0
109 147 0
106 145 0
105 145 0
105 145 0
105 144 0
109 147 0
105 145 0
106 145 0
106 146 0
105 144 0
109 147 0
104 144 0
107 146 0
107 146 0
107 146 0
108 146 0
108 146 0
109 147 0
103 143 0
105 145 0
105 145 0
111 148 0
107 146 0
103 144 0
107 146 0
107 146 0
105 145 0
106 145 0
106 145 0
106 145 0
104 144 0
107 146 0
105 145 0
106 145 0
104 144 0
110 147 0
109 147 0
106 145 0
107 146 0
106 145 0
107 146 0
106 145 0
109 147 0
104 144 0
107 146 0
105 145 0
108 147 0
106 145 0
105 144 0
107 146 0
106 145 0
106 145 0
107 146 0
107 146 0
108 147 0
104 144 0
110 148 0
104 144 0
106 145 0
104 144 0
110 147 0
104 144 0
107 146 0
105 145 0
112 149 0
107 146 0
111 148 0
106 145 0
107 146 0
105 145 0
109 147 0
108 147 0
108 147 0
114 150 0
108 146 0
109 147 0
109 147 0
103 144 0
104 144 0
108 147 0
105 145 0
111 149 0
109 147 0
106 145 0
108 147 0
110 148 0
109 147 0
106 146 0
105 144 0
105 145 0
110 148 0
104 144 0
107 146 0
108 147 0
109 147 0
115 151 0
108 147 0
110 148 0
107 146 0
109 147 0
110 148 0
107 146 0
109 147 0
105 145 0
109 147 0
107 146 0
110 148 0
109 147 0
107 146 0
110 148 0
111 148 0
111 148 0
105 145 0
108 146 0
109 147 0
112 149 0
110 148 0
109 147 0
107 146 0
105 145 0
110 148 0
112 149 0
113 149 0
112 149 0
107 146 0
110 147 0
108 147 0
106 145 0
111 148 0
114 150 0
108 147 0
112 149 0
112 149 0
107 146 0
113 149 0
107 146 0
109 147 0
110 148 0
114 150 0
109 147 0
106 145 0
111 148 0
109 147 0
104 144 0
108 147 0
114 150 0
106 145 0
110 148 0
110 148 0
108 146 0
109 147 0
109 147 0
108 147 0
108 146 0
106 146 0
112 149 0
113 149 0
107 146 0
110 148 0
111 148 0
109 147 0
110 148 0
110 148 0
109 147 0
108 147 0
112 149 0
104 144 0
109 147 0
110 148 0
111 148 0
113 149 0
111 148 0
112 149 0
109 147 0
108 147 0
110 148 0
113 149 0
107 146 0
108 146 0
108 146 0
112 149 0
107 146 0
107 146 0
114 150 0
115 151 0
109 147 0
110 148 0
110 148 0
110 148 0
107 146 0
107 146 0
108 147 0
108 146 0
110 148 0
110 148 0
108 146 0
114 150 0
108 146 0
110 148 0
105 145 0
107 146 0
108 146 0
105 145 0
109 147 0
111 148 0
107 146 0
109 147 0
106 146 0
110 148 0
105 145 0
109 147 0
112 149 0
111 148 0
107 146 0
106 145 0
111 148 0
111 148 0
110 148 0
108 147 0
111 148 0
109 147 0
109 147 0
111 148 0
115 151 0
109 147 0
111 148 0
111 148 0
113 150 0
113 149 0
113 149 0
108 147 0
108 147 0
110 147 0
111 148 0
108 147 0
110 148 0
107 146 0
107 146 0
110 147 0
106 145 0
116 151 0
109 147 0
114 150 0
110 147 0
112 149 0
111 148 0
108 146 0
109 147 0
111 148 0
115 151 0
106 146 0
111 148 0
111 149 0
109 147 0
110 148 0
106 145 0
104 144 0
107 146 0
106 145 0
106 145 0
107 146 0
103 143 0
103 144 0
109 147 0
105 145 0
108 146 0
104 144 0
108 147 0
106 145 0
105 145 0
106 145 0
107 146 0
108 147 0
108 146 0
105 145 0
108 146 0
108 147 0
104 144 0
106 145 0
107 146 0
109 147 0
110 148 0
103 144 0
108 147 0
104 144 0
108 146 0
105 145 0
106 145 0
108 146 0
106 145 0
103 144 0
109 147 0
105 145 0
105 144 0
106 145 0
104 144 0
110 148 0
104 144 0
105 145 0
103 144 0
106 145 0
109 147 0
105 145 0
102 143 0
107 146 0
105 145 0
109 147 0
109 147 0
105 145 0
104 144 0
107 146 0
107 146 0
105 145 0
107 146 0
107 146 0
106 145 0
103 144 0
108 147 0
104 144 0
106 145 0
104 144 0
104 144 0
106 146 0
105 145 0
104 144 0
104 144 0
105 145 0
108 147 0
106 145 0
108 146 0
103 143 0
103 144 0
108 147 0
106 145 0
103 144 0
103 144 0
106 146 0
106 146 0
108 146 0
107 146 0
108 146 0
103 144 0
106 146 0
109 147 0
107 146 0
104 144 0
104 144 0
105 145 0
107 146 0
104 144 0
112 149 0
105 144 0
107 146 0
105 145 0
109 147 0
104 144 0
107 146 0
104 144 0
107 146 0
105 145 0
107 146 0
107 146 0
105 145 0
104 144 0
110 148 0
103 144 0
105 145 0
104 144 0
106 145 0
105 145 0
104 144 0
104 144 0
106 146 0
108 147 0
105 144 0
107 146 0
108 146 0
109 147 0
111 148 0
110 147 0
105 145 0
106 146 0
108 147 0
104 144 0
103 144 0
105 144 0
104 144 0
105 145 0
108 147 0
105 145 0
108 147 0
106 145 0
104 144 0
107 146 0
106 146 0
104 144 0
106 145 0
106 146 0
108 146 0
105 144 0
109 147 0
109 147 0
106 145 0
108 146 0
108 147 0
103 143 0
105 145 0
105 145 0
106 145 0
104 144 0
106 146 0
105 144 0
107 146 0
105 145 0
104 144 0
106 145 0
105 145 0
106 145 0
106 145 0
107 146 0
106 145 0
104 144 0
106 145 0
105 145 0
102 143 0
106 146 0
105 145 0
108 147 0
109 147 0
107 146 0
104 144 0
107 146 0
105 144 0
103 143 0
105 145 0
106 145 0
108 146 0
105 145 0
110 148 0
111 148 0
105 145 0
106 145 0
107 146 0
108 146 0
107 146 0
104 144 0
106 145 0
106 145 0
110 148 0
105 145 0
112 149 0
106 145 0
106 145 0
109 147 0
108 146 0
106 145 0
106 145 0
106 145 0
108 146 0
105 145 0
106 145 0
107 146 0
107 146 0
110 147 0
108 147 0
107 146 0
104 144 0
107 146 0
109 147 0
109 147 0
105 145 0
109 147 0
105 145 0
107 146 0
106 145 0
104 144 0
110 148 0
106 146 0
108 146 0
112 149 0
106 145 0
114 150 0
108 146 0
110 147 0
109 147 0
104 144 0
107 146 0
103 144 0
107 146 0
107 146 0
111 148 0
106 145 0
109 147 0
114 150 0
108 147 0
108 147 0
106 146 0
112 149 0
108 147 0
109 147 0
111 148 0
106 145 0
109 147 0
112 149 0
106 145 0
108 146 0
108 147 0
106 146 0
106 145 0
110 148 0
106 145 0
104 144 0
106 145 0
107 146 0
109 147 0
112 149 0
108 147 0
107 146 0
109 147 0
106 145 0
107 146 0
106 145 0
108 147 0
111 149 0
113 149 0
109 147 0
107 146 0
105 144 0
113 149 0
108 147 0
109 147 0
108 146 0
108 146 0
110 148 0
108 146 0
112 149 0
108 147 0
108 147 0
107 146 0
106 145 0
108 146 0
109 147 0
108 146 0
109 147 0
108 147 0
108 146 0
110 148 0
108 147 0
112 149 0
107 146 0
110 147 0
104 144 0
110 147 0
110 147 0
108 147 0
113 149 0
108 147 0
111 148 0
106 145 0
108 146 0
106 146 0
109 147 0
110 147 0
112 149 0
105 145 0
112 149 0
112 149 0
105 145 0
110 148 0
112 149 0
114 150 0
109 147 0
107 146 0
108 146 0
104 144 0
109 147 0
111 149 0
108 147 0
111 149 0
108 147 0
106 145 0
109 147 0
110 148 0
107 146 0
110 148 0
107 146 0
114 150 0
110 148 0
109 147 0
106 145 0
110 148 0
106 145 0
110 148 0
109 147 0
110 148 0
105 145 0
112 149 0
110 148 0
115 151 0
112 149 0
106 145 0
108 147 0
113 149 0
112 149 0
108 146 0
114 150 0
112 149 0
110 148 0
112 149 0
110 148 0
107 146 0
108 146 0
109 147 0
113 150 0
110 148 0
109 147 0
107 146 0
111 149 0
113 149 0
113 150 0
108 147 0
112 149 0
108 147 0
114 150 0
112 149 0
110 147 0
112 149 0
108 147 0
107 146 0
112 149 0
108 147 0
114 150 0
110 148 0
112 149 0
108 147 0
108 146 0
105 145 0
110 147 0
108 147 0
106 145 0
108 146 0
111 148 0
112 149 0
107 146 0
114 150 0
108 147 0
114 150 0
110 148 0
111 148 0
112 149 0
109 147 0
111 148 0
109 147 0
108 146 0
110 148 0
105 144 0
105 144 0
106 145 0
109 147 0
107 146 0
108 146 0
112 149 0
106 145 0
103 144 0
104 144 0
105 145 0
108 146 0
107 146 0
111 149 0
109 147 0
106 145 0
107 146 0
106 145 0
104 144 0
104 144 0
106 145 0
108 147 0
107 146 0
104 144 0
108 147 0
107 146 0
106 145 0
106 145 0
105 145 0
108 146 0
111 148 0
106 146 0
108 147 0
107 146 0
105 144 0
105 145 0
104 144 0
106 145 0
105 145 0
104 144 0
105 145 0
105 145 0
107 146 0
103 143 0
110 148 0
104 144 0
108 147 0
105 145 0
106 145 0
105 145 0
104 144 0
107 146 0
105 145 0
108 146 0
108 146 0
105 145 0
102 143 0
105 145 0
104 144 0
109 147 0
103 144 0
105 145 0
107 146 0
105 145 0
107 146 0
105 145 0
108 146 0
106 145 0
104 144 0
108 146 0
105 145 0
106 145 0
109 147 0
103 144 0
107 146 0
103 144 0
106 145 0
107 146 0
106 145 0
104 144 0
110 148 0
105 145 0
106 146 0
106 145 0
107 146 0
103 144 0
103 144 0
107 146 0
110 148 0
107 146 0
104 144 0
105 145 0
108 147 0
107 146 0
104 144 0
103 144 0
106 145 0
108 146 0
108 147 0
106 145 0
110 148 0
105 145 0
107 146 0
105 145 0
105 145 0
110 148 0
108 146 0
107 146 0
105 145 0
105 145 0
105 145 0
107 146 0
109 147 0
104 144 0
105 145 0
107 146 0
107 146 0
107 146 0
106 145 0
106 145 0
106 145 0
106 145 0
104 144 0
103 143 0
106 145 0
107 146 0
103 143 0
104 144 0
106 145 0
105 145 0
105 145 0
108 147 0
107 146 0
105 145 0
107 146 0
108 147 0
107 146 0
106 145 0
108 146 0
105 145 0
107 146 0
105 144 0
103 143 0
106 145 0
106 145 0
107 146 0
106 145 0
108 146 0
107 146 0
103 144 0
108 147 0
107 146 0
106 145 0
106 146 0
108 147 0
104 144 0
109 147 0
103 144 0
107 146 0
105 145 0
106 146 0
104 144 0
107 146 0
108 147 0
108 147 0
106 145 0
108 147 0
108 146 0
107 146 0
108 146 0
104 144 0
105 145 0
108 146 0
103 143 0
104 144 0
107 146 0
106 145 0
108 146 0
105 145 0
106 145 0
107 146 0
106 145 0
108 146 0
106 145 0
105 145 0
105 145 0
107 146 0
107 146 0
104 144 0
107 146 0
106 145 0
105 144 0
105 145 0
104 144 0
105 145 0
104 144 0
104 144 0
104 144 0
109 147 0
106 145 0
108 147 0
110 148 0
105 145 0
107 146 0
106 145 0
110 148 0
107 146 0
108 147 0
106 145 0
106 145 0
105 144 0
108 147 0
108 146 0
108 147 0
108 146 0
105 145 0
105 144 0
109 147 0
106 145 0
107 146 0
104 144 0
105 145 0
106 145 0
108 146 0
106 145 0
110 148 0
109 147 0
106 146 0
109 147 0
106 146 0
108 147 0
104 144 0
105 145 0
107 146 0
107 146 0
107 146 0
107 146 0
107 146 0
108 147 0
111 148 0
108 147 0
108 147 0
108 147 0
110 148 0
112 149 0
110 148 0
114 150 0
107 146 0
106 145 0
108 147 0
108 147 0
107 146 0
106 146 0
110 148 0
109 147 0
112 149 0
106 146 0
112 149 0
109 147 0
108 146 0
104 144 0
109 147 0
107 146 0
106 145 0
111 148 0
107 146 0
110 148 0
107 146 0
112 149 0
113 149 0
109 147 0
110 148 0
111 149 0
106 145 0
113 149 0
111 148 0
108 147 0
106 145 0
108 147 0
109 147 0
112 149 0
108 147 0
111 148 0
110 148 0
109 147 0
109 147 0
109 147 0
110 148 0
107 146 0
110 148 0
109 147 0
109 147 0
111 148 0
108 146 0
109 147 0
109 147 0
110 147 0
110 148 0
108 146 0
108 147 0
112 149 0
109 147 0
106 145 0
110 148 0
111 148 0
107 146 0
110 148 0
110 148 0
111 148 0
107 146 0
108 146 0
111 148 0
112 149 0
105 145 0
111 148 0
112 149 0
113 149 0
112 149 0
107 146 0
111 148 0
107 146 0
105 145 0
114 150 0
110 148 0
111 148 0
109 147 0
104 144 0
109 147 0
114 150 0
112 149 0
111 149 0
110 148 0
111 148 0
107 146 0
113 150 0
106 146 0
115 151 0
108 147 0
108 146 0
111 149 0
108 147 0
109 147 0
106 145 0
109 147 0
111 148 0
108 146 0
112 149 0
114 150 0
110 148 0
108 147 0
110 147 0
108 147 0
108 147 0
111 148 0
112 149 0
109 147 0
112 149 0
109 147 0
110 148 0
114 150 0
111 148 0
110 148 0
107 146 0
106 145 0
110 147 0
108 147 0
105 145 0
111 148 0
109 147 0
106 145 0
109 147 0
105 145 0
109 147 0
108 146 0
110 148 0
113 150 0
107 146 0
111 148 0
113 150 0
105 145 0
112 149 0
109 147 0
109 147 0
110 148 0
110 148 0
115 151 0
107 146 0
105 145 0
112 149 0
110 148 0
108 147 0
109 147 0
109 147 0
116 151 0
108 146 0
113 150 0
107 146 0
112 149 0
107 146 0
110 148 0
105 145 0
105 145 0
107 146 0
104 144 0
111 148 0
106 145 0
106 146 0
104 144 0
108 146 0
106 145 0
104 144 0
104 144 0
107 146 0
107 146 0
110 148 0
103 144 0
106 145 0
105 145 0
104 144 0
105 144 0
104 144 0
105 145 0
106 145 0
106 145 0
105 145 0
108 147 0
106 145 0
105 145 0
106 145 0
106 145 0
105 144 0
104 144 0
107 146 0
108 147 0
105 145 0
106 146 0
106 145 0
105 145 0
105 145 0
108 146 0
108 146 0
103 144 0
104 144 0
104 144 0
103 144 0
104 144 0
106 145 0
107 146 0
106 145 0
103 144 0
104 144 0
105 144 0
106 145 0
105 145 0
105 145 0
104 144 0
107 146 0
108 146 0
107 146 0
106 145 0
105 145 0
109 147 0
103 144 0
104 144 0
104 144 0
105 145 0
109 147 0
102 143 0
105 145 0
106 145 0
105 145 0
104 144 0
105 145 0
110 148 0
105 144 0
109 147 0
103 144 0
105 145 0
104 144 0
104 144 0
106 145 0
105 144 0
104 144 0
104 144 0
106 145 0
104 144 0
104 144 0
107 146 0
103 144 0
108 146 0
103 144 0
104 144 0
104 144 0
104 144 0
105 145 0
104 144 0
108 146 0
105 144 0
106 145 0
107 146 0
106 145 0
104 144 0
103 144 0
107 146 0
106 145 0
107 146 0
106 145 0
103 143 0
105 145 0
104 144 0
104 144 0
107 146 0
106 145 0
105 145 0
104 144 0
105 145 0
104 144 0
103 144 0
106 146 0
104 144 0
105 145 0
110 148 0
104 144 0
103 144 0
106 146 0
105 145 0
109 147 0
108 147 0
104 144 0
107 146 0
103 144 0
105 145 0
104 144 0
107 146 0
107 146 0
104 144 0
105 145 0
107 146 0
105 145 0
106 145 0
113 149 0
106 145 0
108 146 0
103 144 0
105 145 0
104 144 0
104 144 0
106 145 0
106 145 0
108 147 0
105 145 0
112 149 0
104 144 0
107 146 0
108 147 0
106 146 0
107 146 0
105 144 0
111 148 0
109 147 0
106 145 0
103 144 0
105 145 0
107 146 0
104 144 0
105 145 0
104 144 0
106 145 0
106 145 0
106 145 0
107 146 0
105 145 0
107 146 0
104 144 0
105 145 0
105 145 0
106 145 0
106 145 0
106 146 0
104 144 0
110 148 0
104 144 0
105 145 0
109 147 0
110 147 0
107 146 0
107 146 0
108 147 0
105 145 0
107 146 0
105 145 0
108 147 0
105 145 0
106 145 0
109 147 0
108 146 0
107 146 0
103 143 0
107 146 0
108 146 0
106 145 0
107 146 0
103 144 0
106 146 0
106 145 0
107 146 0
106 145 0
105 145 0
108 146 0
112 149 0
107 146 0
108 146 0
106 145 0
109 147 0
108 147 0
108 146 0
109 147 0
113 149 0
107 146 0
106 145 0
104 144 0
107 146 0
107 146 0
108 147 0
107 146 0
104 144 0
104 144 0
107 146 0
108 146 0
110 148 0
112 149 0
106 145 0
108 147 0
110 148 0
109 147 0
107 146 0
105 145 0
106 145 0
105 145 0
108 147 0
104 144 0
107 146 0
108 146 0
107 146 0
112 149 0
105 145 0
107 146 0
105 145 0
108 146 0
108 147 0
107 146 0
109 147 0
108 146 0
108 146 0
108 147 0
105 145 0
106 145 0
107 146 0
107 146 0
111 149 0
111 149 0
106 145 0
110 148 0
105 145 0
107 146 0
107 146 0
107 146 0
107 146 0
106 145 0
107 146 0
110 147 0
111 148 0
108 147 0
107 146 0
108 146 0
106 145 0
111 148 0
111 148 0
112 149 0
105 145 0
107 146 0
109 147 0
113 149 0
109 147 0
109 147 0
107 146 0
108 146 0
114 150 0
105 145 0
111 148 0
107 146 0
107 146 0
108 146 0
109 147 0
111 148 0
107 146 0
108 147 0
113 149 0
112 149 0
107 146 0
106 146 0
107 146 0
106 146 0
112 149 0
112 149 0
110 148 0
107 146 0
107 146 0
106 145 0
110 147 0
107 146 0
107 146 0
108 147 0
107 146 0
108 147 0
109 147 0
108 146 0
108 147 0
107 146 0
105 145 0
111 149 0
110 147 0
104 144 0
110 148 0
111 148 0
110 148 0
105 145 0
107 146 0
108 147 0
104 144 0
108 147 0
111 149 0
113 149 0
108 147 0
109 147 0
110 148 0
105 145 0
105 145 0
110 148 0
110 148 0
108 146 0
110 148 0
110 148 0
113 150 0
106 145 0
113 150 0
107 146 0
110 148 0
111 148 0
109 147 0
107 146 0
110 148 0
107 146 0
113 149 0
113 149 0
108 147 0
110 148 0
116 151 0
110 148 0
110 148 0
109 147 0
105 145 0
110 148 0
104 144 0
110 148 0
112 149 0
110 148 0
107 146 0
105 145 0
110 148 0
109 147 0
113 150 0
112 149 0
104 144 0
110 148 0
114 150 0
114 150 0
111 148 0
110 148 0
110 148 0
113 150 0
111 148 0
112 149 0
108 146 0
110 148 0
114 150 0
105 145 0
110 148 0
105 145 0
107 146 0
110 148 0
104 144 0
110 148 0
111 148 0
107 146 0
109 147 0
112 149 0
108 147 0
106 145 0
108 146 0
106 145 0
105 145 0
105 145 0
105 145 0
109 147 0
103 144 0
104 144 0
105 145 0
107 146 0
105 145 0
110 148 0
105 145 0
106 145 0
104 144 0
105 145 0
103 144 0
105 145 0
108 146 0
109 147 0
104 144 0
103 144 0
106 145 0
105 145 0
106 145 0
106 145 0
106 146 0
106 145 0
107 146 0
108 146 0
109 147 0
103 144 0
107 146 0
104 144 0
110 148 0
106 145 0
105 145 0
107 146 0
106 145 0
105 145 0
105 144 0
104 144 0
108 146 0
106 145 0
105 145 0
104 144 0
109 147 0
108 147 0
106 145 0
105 145 0
106 145 0
106 146 0
106 145 0
102 143 0
106 145 0
105 145 0
107 146 0
103 144 0
108 147 0
106 145 0
108 146 0
106 145 0
106 145 0
106 145 0
108 147 0
104 144 0
106 145 0
105 145 0
104 144 0
109 147 0
107 146 0
103 144 0
106 145 0
105 145 0
105 145 0
104 144 0
104 144 0
106 145 0
103 144 0
109 147 0
103 143 0
108 146 0
102 143 0
107 146 0
107 146 0
104 144 0
105 145 0
108 146 0
105 144 0
106 145 0
107 146 0
110 148 0
106 145 0
107 146 0
107 146 0
105 145 0
106 146 0
107 146 0
107 146 0
106 145 0
105 145 0
109 147 0
104 144 0
103 144 0
107 146 0
105 145 0
105 145 0
105 145 0
107 146 0
108 146 0
105 144 0
106 145 0
106 145 0
104 144 0
108 147 0
109 147 0
107 146 0
108 146 0
105 145 0
109 147 0
106 146 0
104 144 0
105 145 0
107 146 0
108 147 0
106 145 0
106 145 0
103 144 0
104 144 0
110 148 0
106 145 0
109 147 0
104 144 0
106 145 0
109 147 0
108 147 0
103 143 0
107 146 0
103 144 0
103 144 0
104 144 0
105 144 0
105 145 0
103 143 0
105 145 0
106 146 0
106 145 0
105 145 0
106 145 0
107 146 0
106 145 0
106 145 0
109 147 0
108 147 0
105 145 0
105 145 0
112 149 0
108 146 0
105 145 0
109 147 0
105 145 0
108 147 0
108 147 0
109 147 0
106 145 0
106 145 0
105 145 0
104 144 0
110 148 0
107 146 0
108 147 0
105 145 0
106 145 0
105 145 0
104 144 0
108 146 0
106 145 0
107 146 0
108 146 0
110 148 0
111 149 0
107 146 0
107 146 0
110 148 0
109 147 0
108 146 0
107 146 0
105 145 0
106 145 0
109 147 0
104 144 0
105 145 0
105 145 0
106 146 0
110 147 0
104 144 0
107 146 0
109 147 0
107 146 0
110 148 0
104 144 0
107 146 0
107 146 0
106 145 0
108 146 0
104 144 0
109 147 0
105 145 0
108 146 0
107 146 0
108 146 0
104 144 0
108 147 0
105 145 0
107 146 0
109 147 0
106 145 0
110 148 0
107 146 0
104 144 0
106 145 0
107 146 0
109 147 0
105 144 0
103 144 0
109 147 0
110 148 0
109 147 0
111 148 0
110 148 0
104 144 0
105 145 0
106 146 0
111 148 0
107 146 0
107 146 0
104 144 0
109 147 0
113 149 0
105 145 0
109 147 0
105 144 0
105 145 0
108 147 0
105 145 0
106 145 0
110 148 0
109 147 0
107 146 0
106 145 0
106 145 0
113 150 0
104 144 0
110 147 0
111 148 0
107 146 0
106 145 0
109 147 0
106 145 0
112 149 0
106 146 0
109 147 0
105 145 0
106 146 0
110 148 0
106 146 0
108 147 0
106 145 0
110 148 0
113 149 0
108 147 0
112 149 0
111 148 0
108 146 0
105 145 0
109 147 0
108 147 0
108 146 0
113 150 0
111 148 0
111 148 0
108 147 0
110 148 0
113 150 0
110 148 0
111 148 0
110 148 0
108 147 0
109 147 0
107 146 0
114 150 0
110 148 0
110 148 0
115 151 0
110 148 0
108 147 0
110 148 0
109 147 0
111 148 0
109 147 0
108 147 0
109 147 0
107 146 0
109 147 0
104 144 0
105 145 0
110 147 0
107 146 0
110 147 0
112 149 0
107 146 0
109 147 0
113 149 0
111 148 0
109 147 0
111 148 0
107 146 0
106 145 0
109 147 0
105 145 0
108 146 0
108 147 0
105 145 0
109 147 0
109 147 0
110 148 0
110 148 0
109 147 0
110 148 0
107 146 0
111 148 0
110 148 0
106 145 0
109 147 0
106 146 0
106 145 0
108 147 0
112 149 0
109 147 0
114 150 0
111 148 0
107 146 0
109 147 0
113 149 0
109 147 0
110 147 0
107 146 0
104 144 0
108 147 0
106 145 0
108 146 0
108 147 0
109 147 0
109 147 0
107 146 0
106 146 0
108 146 0
110 148 0
112 149 0
108 146 0
107 146 0
108 147 0
111 148 0
112 149 0
107 146 0
107 146 0
110 148 0
107 146 0
106 146 0
109 147 0
109 147 0
110 147 0
108 146 0
114 150 0
112 149 0
107 146 0
110 147 0
113 149 0
109 147 0
109 147 0
110 148 0
110 147 0
111 148 0
113 150 0
110 148 0
111 148 0
117 152 0
109 147 0
108 147 0
109 147 0
106 145 0
104 144 0
109 147 0
111 148 0
111 149 0
108 146 0
109 147 0
109 147 0
106 145 0
110 148 0
110 148 0
104 144 0
107 146 0
107 146 0
107 146 0
104 144 0
103 144 0
106 146 0
104 144 0
104 144 0
105 145 0
106 146 0
106 145 0
107 146 0
106 145 0
106 145 0
104 144 0
103 144 0
107 146 0
106 145 0
106 145 0
103 143 0
105 145 0
103 144 0
109 147 0
105 145 0
105 145 0
105 145 0
109 147 0
106 146 0
104 144 0
105 145 0
105 145 0
104 144 0
105 145 0
104 144 0
103 143 0
106 145 0
102 143 0
107 146 0
105 145 0
105 145 0
109 147 0
103 143 0
106 145 0
105 145 0
104 144 0
104 144 0
107 146 0
107 146 0
104 144 0
105 145 0
107 146 0
104 144 0
105 145 0
103 144 0
107 146 0
106 145 0
111 148 0
107 146 0
105 145 0
105 145 0
104 144 0
104 144 0
106 145 0
106 145 0
107 146 0
104 144 0
107 146 0
104 144 0
106 145 0
108 147 0
107 146 0
105 144 0
104 144 0
102 143 0
105 145 0
109 147 0
106 145 0
109 147 0
105 145 0
106 145 0
107 146 0
103 144 0
105 145 0
106 145 0
106 146 0
107 146 0
108 146 0
103 143 0
102 143 0
104 144 0
106 145 0
109 147 0
103 144 0
104 144 0
105 145 0
107 146 0
105 144 0
109 147 0
105 145 0
106 145 0
105 145 0
110 147 0
110 148 0
104 144 0
106 145 0
105 145 0
107 146 0
110 148 0
105 145 0
108 147 0
104 144 0
104 144 0
107 146 0
106 145 0
107 146 0
106 145 0
106 145 0
110 147 0
114 150 0
107 146 0
107 146 0
107 146 0
104 144 0
105 145 0
104 144 0
102 143 0
106 145 0
108 147 0
103 143 0
107 146 0
106 145 0
105 144 0
104 144 0
105 145 0
103 144 0
104 144 0
104 144 0
104 144 0
107 146 0
105 144 0
104 144 0
107 146 0
106 146 0
106 145 0
104 144 0
105 145 0
103 144 0
109 147 0
106 146 0
104 144 0
108 147 0
105 144 0
107 146 0
106 145 0
104 144 0
107 146 0
106 146 0
107 146 0
106 145 0
107 146 0
105 145 0
105 145 0
104 144 0
106 146 0
108 146 0
105 145 0
107 146 0
104 144 0
105 145 0
106 145 0
103 143 0
104 144 0
109 147 0
106 145 0
106 145 0
108 147 0
105 145 0
107 146 0
108 147 0
105 145 0
104 144 0
108 147 0
104 144 0
104 144 0
108 146 0
107 146 0
108 147 0
109 147 0
106 145 0
106 145 0
107 146 0
106 145 0
105 145 0
106 145 0
107 146 0
107 146 0
108 146 0
107 146 0
107 146 0
110 148 0
105 145 0
106 145 0
105 145 0
108 147 0
105 145 0
106 145 0
106 145 0
106 145 0
107 146 0
108 146 0
103 144 0
109 147 0
106 146 0
104 144 0
104 144 0
104 144 0
107 146 0
111 148 0
105 145 0
106 146 0
108 147 0
111 148 0
107 146 0
105 145 0
108 147 0
106 145 0
111 148 0
109 147 0
108 147 0
104 144 0
107 146 0
110 148 0
107 146 0
109 147 0
107 146 0
110 148 0
106 145 0
112 149 0
106 145 0
107 146 0
108 146 0
108 147 0
108 146 0
112 149 0
112 149 0
114 150 0
108 146 0
110 148 0
106 145 0
105 144 0
109 147 0
112 149 0
110 147 0
113 149 0
106 145 0
107 146 0
107 146 0
113 149 0
108 146 0
110 148 0
108 147 0
107 146 0
110 148 0
110 148 0
110 148 0
109 147 0
104 144 0
110 148 0
105 145 0
110 148 0
107 146 0
111 148 0
106 145 0
111 148 0
107 146 0
112 149 0
112 149 0
110 148 0
107 146 0
110 148 0
111 149 0
108 147 0
114 150 0
110 148 0
109 147 0
112 149 0
107 146 0
116 151 0
110 147 0
107 146 0
106 145 0
112 149 0
109 147 0
108 146 0
109 147 0
110 148 0
112 149 0
111 148 0
108 147 0
106 145 0
107 146 0
111 148 0
113 149 0
109 147 0
111 148 0
111 148 0
110 148 0
109 147 0
109 147 0
110 148 0
107 146 0
107 146 0
110 148 0
109 147 0
108 146 0
104 144 0
108 146 0
110 148 0
108 147 0
108 147 0
111 149 0
112 149 0
108 147 0
112 149 0
110 148 0
112 149 0
108 147 0
108 147 0
113 149 0
107 146 0
107 146 0
111 148 0
110 148 0
107 146 0
112 149 0
105 145 0
117 152 0
112 149 0
107 146 0
111 148 0
111 148 0
113 150 0
113 149 0
112 149 0
108 147 0
109 147 0
108 147 0
108 147 0
113 150 0
110 148 0
111 148 0
111 148 0
114 150 0
110 148 0
108 147 0
113 149 0
110 148 0
109 147 0
111 148 0
113 150 0
114 150 0
113 149 0
114 150 0
107 146 0
109 147 0
107 146 0
106 145 0
111 148 0
108 146 0
107 146 0
112 149 0
106 146 0
109 147 0
117 152 0
108 147 0
109 147 0
110 148 0
109 147 0
107 146 0
113 149 0
108 146 0
111 148 0
110 147 0
104 144 0
110 147 0
107 146 0
112 149 0
110 148 0
113 149 0
109 147 0
110 148 0
111 148 0
109 147 0
105 145 0
113 149 0
108 146 0
110 148 0
108 146 0
106 145 0
105 145 0
108 146 0
106 145 0
104 144 0
106 145 0
107 146 0
106 145 0
106 146 0
106 145 0
106 145 0
103 143 0
106 145 0
105 145 0
108 147 0
107 146 0
104 144 0
107 146 0
104 144 0
106 145 0
103 143 0
107 146 0
105 145 0
106 145 0
104 144 0
109 147 0
110 148 0
106 145 0
107 146 0
105 145 0
105 145 0
108 147 0
107 146 0
108 146 0
105 145 0
103 144 0
104 144 0
104 144 0
106 145 0
107 146 0
103 143 0
107 146 0
107 146 0
105 145 0
105 145 0
106 145 0
104 144 0
105 145 0
108 146 0
107 146 0
104 144 0
103 144 0
103 144 0
106 145 0
104 144 0
105 145 0
105 144 0
104 144 0
104 144 0
105 145 0
108 146 0
104 144 0
107 146 0
104 144 0
103 143 0
108 147 0
105 145 0
106 146 0
106 146 0
105 145 0
106 145 0
106 145 0
108 147 0
104 144 0
105 144 0
107 146 0
105 145 0
105 145 0
104 144 0
104 144 0
108 146 0
106 145 0
104 144 0
103 143 0
107 146 0
110 148 0
105 145 0
106 146 0
107 146 0
105 145 0
107 146 0
104 144 0
106 145 0
104 144 0
106 145 0
106 145 0
103 143 0
107 146 0
104 144 0
103 143 0
106 145 0
108 146 0
104 144 0
105 145 0
106 145 0
105 145 0
106 145 0
104 144 0
108 146 0
107 146 0
105 145 0
106 145 0
106 145 0
107 146 0
106 145 0
107 146 0
106 145 0
106 146 0
105 145 0
103 144 0
105 145 0
104 144 0
103 144 0
105 145 0
105 145 0
105 144 0
106 145 0
103 143 0
104 144 0
109 147 0
108 146 0
104 144 0
105 145 0
103 144 0
107 146 0
103 144 0
104 144 0
107 146 0
107 146 0
107 146 0
107 146 0
105 145 0
105 145 0
103 144 0
110 148 0
105 145 0
105 145 0
104 144 0
105 145 0
103 144 0
104 144 0
105 145 0
106 145 0
105 145 0
104 144 0
106 145 0
102 143 0
106 145 0
106 145 0
105 145 0
107 146 0
106 145 0
104 144 0
103 143 0
103 144 0
103 143 0
110 148 0
108 146 0
108 147 0
109 147 0
105 145 0
105 145 0
105 145 0
106 145 0
105 145 0
104 144 0
109 147 0
108 147 0
107 146 0
106 146 0
106 145 0
104 144 0
104 144 0
104 144 0
109 147 0
107 146 0
104 144 0
107 146 0
108 146 0
105 145 0
107 146 0
105 144 0
106 145 0
104 144 0
110 148 0
108 147 0
106 145 0
110 148 0
105 145 0
107 146 0
107 146 0
108 147 0
106 145 0
108 147 0
111 148 0
105 145 0
109 147 0
106 145 0
107 146 0
106 145 0
106 145 0
107 146 0
108 147 0
104 144 0
109 147 0
105 145 0
108 147 0
109 147 0
111 148 0
108 146 0
106 146 0
105 145 0
106 145 0
112 149 0
108 147 0
108 147 0
105 145 0
109 147 0
109 147 0
107 146 0
112 149 0
105 145 0
105 145 0
107 146 0
108 146 0
110 148 0
106 145 0
109 147 0
110 148 0
107 146 0
109 147 0
107 146 0
106 145 0
106 145 0
108 147 0
107 146 0
110 148 0
105 145 0
108 146 0
108 147 0
109 147 0
106 145 0
107 146 0
108 146 0
105 144 0
109 147 0
103 143 0
108 146 0
108 146 0
109 147 0
104 144 0
109 147 0
108 147 0
107 146 0
106 145 0
108 147 0
106 145 0
108 147 0
111 148 0
109 147 0
111 149 0
112 149 0
109 147 0
107 146 0
108 146 0
106 145 0
111 148 0
108 146 0
111 148 0
112 149 0
107 146 0
109 147 0
107 146 0
109 147 0
106 145 0
106 146 0
109 147 0
111 148 0
108 146 0
109 147 0
110 148 0
106 145 0
106 145 0
111 148 0
108 146 0
106 145 0
110 148 0
110 148 0
112 149 0
112 149 0
112 149 0
107 146 0
110 147 0
109 147 0
114 150 0
109 147 0
107 146 0
113 149 0
105 145 0
108 147 0
112 149 0
113 150 0
105 145 0
105 145 0
108 146 0
114 150 0
110 147 0
105 145 0
106 145 0
111 148 0
112 149 0
107 146 0
110 148 0
110 148 0
107 146 0
108 146 0
108 147 0
109 147 0
111 148 0
113 150 0
108 146 0
109 147 0
105 145 0
106 145 0
108 147 0
107 146 0
107 146 0
108 146 0
111 148 0
112 149 0
109 147 0
112 149 0
110 148 0
109 147 0
108 147 0
106 146 0
109 147 0
109 147 0
107 146 0
107 146 0
112 149 0
114 150 0
109 147 0
111 148 0
110 148 0
108 146 0
106 145 0
115 151 0
106 146 0
109 147 0
107 146 0
108 147 0
104 144 0
106 145 0
107 146 0
108 146 0
110 148 0
108 147 0
113 149 0
113 149 0
109 147 0
113 149 0
108 147 0
110 147 0
113 149 0
114 150 0
105 145 0
110 148 0
111 149 0
110 148 0
113 149 0
111 149 0
113 149 0
111 148 0
110 148 0
114 150 0
108 146 0
109 147 0
110 148 0
110 148 0
111 148 0
110 148 0
109 147 0
113 149 0
110 148 0
108 146 0
111 148 0
113 150 0
110 148 0
110 148 0
118 152 0
105 145 0
106 145 0
108 146 0
103 143 0
108 146 0
107 146 0
106 145 0
106 145 0
104 144 0
109 147 0
108 146 0
107 146 0
111 148 0
109 147 0
106 145 0
107 146 0
105 144 0
105 145 0
107 146 0
106 145 0
104 144 0
105 145 0
106 145 0
104 144 0
106 146 0
105 145 0
106 145 0
103 144 0
108 147 0
108 146 0
104 144 0
104 144 0
104 144 0
107 146 0
108 146 0
104 144 0
105 145 0
105 145 0
103 144 0
105 145 0
105 145 0
106 145 0
108 147 0
107 146 0
106 146 0
107 146 0
109 147 0
107 146 0
104 144 0
107 146 0
107 146 0
103 144 0
104 144 0
106 145 0
109 147 0
106 145 0
105 144 0
105 145 0
104 144 0
109 147 0
105 145 0
106 145 0
106 145 0
105 145 0
108 146 0
103 144 0
105 144 0
107 146 0
105 145 0
106 145 0
106 145 0
106 146 0
107 146 0
103 144 0
108 146 0
108 147 0
107 146 0
110 148 0
104 144 0
106 146 0
104 144 0
105 145 0
104 144 0
108 147 0
103 144 0
104 144 0
102 143 0
106 145 0
108 146 0
105 145 0
105 145 0
105 145 0
106 145 0
104 144 0
105 144 0
103 143 0
105 145 0
103 144 0
105 145 0
105 145 0
105 144 0
106 145 0
106 145 0
112 149 0
107 146 0
105 145 0
105 145 0
104 144 0
106 145 0
105 145 0
104 144 0
106 145 0
108 147 0
105 145 0
105 145 0
105 145 0
105 144 0
106 146 0
105 145 0
104 144 0
106 145 0
107 146 0
107 146 0
107 146 0
108 146 0
106 145 0
104 144 0
104 144 0
107 146 0
104 144 0
108 146 0
104 144 0
105 145 0
105 145 0
103 144 0
104 144 0
103 143 0
104 144 0
106 145 0
106 145 0
106 145 0
109 147 0
107 146 0
103 144 0
105 145 0
106 145 0
104 144 0
105 145 0
103 143 0
111 148 0
109 147 0
106 145 0
107 146 0
102 143 0
108 146 0
110 148 0
105 145 0
105 145 0
105 145 0
106 145 0
108 146 0
106 145 0
107 146 0
108 146 0
110 148 0
104 144 0
109 147 0
103 144 0
105 144 0
108 147 0
103 144 0
109 147 0
104 144 0
105 145 0
104 144 0
107 146 0
110 148 0
110 148 0
108 147 0
106 145 0
104 144 0
104 144 0
105 144 0
106 145 0
107 146 0
105 145 0
107 146 0
110 147 0
104 144 0
107 146 0
106 145 0
106 145 0
107 146 0
106 145 0
106 145 0
105 145 0
110 148 0
108 146 0
106 145 0
106 146 0
104 144 0
111 148 0
104 144 0
105 145 0
104 144 0
106 145 0
104 144 0
105 145 0
110 148 0
106 146 0
105 145 0
109 147 0
108 147 0
105 144 0
109 147 0
108 146 0
108 147 0
103 144 0
111 148 0
106 146 0
108 146 0
107 146 0
103 143 0
112 149 0
108 146 0
110 148 0
110 148 0
106 145 0
106 145 0
108 147 0
107 146 0
110 148 0
105 145 0
108 147 0
111 148 0
106 145 0
109 147 0
112 149 0
106 146 0
107 146 0
109 147 0
108 146 0
106 145 0
110 147 0
107 146 0
107 146 0
107 146 0
106 145 0
109 147 0
107 146 0
112 149 0
105 145 0
107 146 0
107 146 0
110 148 0
113 149 0
108 147 0
108 147 0
108 146 0
106 145 0
107 146 0
107 146 0
109 147 0
110 147 0
110 148 0
113 149 0
105 145 0
107 146 0
105 144 0
105 144 0
111 148 0
109 147 0
107 146 0
103 144 0
109 147 0
107 146 0
106 145 0
108 146 0
109 147 0
105 144 0
108 146 0
107 146 0
109 147 0
107 146 0
108 147 0
112 149 0
107 146 0
114 150 0
111 148 0
108 146 0
110 148 0
108 147 0
109 147 0
111 149 0
105 145 0
109 147 0
108 147 0
107 146 0
109 147 0
108 147 0
109 147 0
109 147 0
107 146 0
107 146 0
106 145 0
106 146 0
108 147 0
108 147 0
108 147 0
109 147 0
110 148 0
108 146 0
111 148 0
111 148 0
107 146 0
106 145 0
106 145 0
104 144 0
110 148 0
110 148 0
107 146 0
110 148 0
109 147 0
111 148 0
113 149 0
106 145 0
110 148 0
109 147 0
111 148 0
104 144 0
112 149 0
109 147 0
113 149 0
112 149 0
111 148 0
109 147 0
110 148 0
113 149 0
110 148 0
109 147 0
110 148 0
107 146 0
108 147 0
115 150 0
110 148 0
113 150 0
109 147 0
110 148 0
106 145 0
114 150 0
109 147 0
104 144 0
112 149 0
108 146 0
108 146 0
107 146 0
108 147 0
108 147 0
113 150 0
110 148 0
107 146 0
110 148 0
112 149 0
111 148 0
112 149 0
106 145 0
109 147 0
113 149 0
108 146 0
109 147 0
110 148 0
116 151 0
106 145 0
111 148 0
107 146 0
113 150 0
111 148 0
109 147 0
111 149 0
111 149 0
111 149 0
106 145 0
108 146 0
111 148 0
109 147 0
110 148 0
116 151 0
109 147 0
112 149 0
108 147 0
109 147 0
109 147 0
109 147 0
109 147 0
108 147 0
109 147 0
118 153 0
109 147 0
112 149 0
109 147 0
104 144 0
106 145 0
107 146 0
107 146 0
105 145 0
107 146 0
109 147 0
107 146 0
106 146 0
104 144 0
106 145 0
103 143 0
108 146 0
109 147 0
104 144 0
104 144 0
108 146 0
106 145 0
105 145 0
107 146 0
105 145 0
106 145 0
106 145 0
107 146 0
105 144 0
106 146 0
106 145 0
107 146 0
105 145 0
105 145 0
104 144 0
107 146 0
108 146 0
105 145 0
105 145 0
105 145 0
104 144 0
107 146 0
106 145 0
106 145 0
104 144 0
107 146 0
103 144 0
103 143 0
108 147 0
107 146 0
107 146 0
105 145 0
104 144 0
108 147 0
106 146 0
106 145 0
103 144 0
106 145 0
106 145 0
104 144 0
109 147 0
109 147 0
107 146 0
105 145 0
107 146 0
104 144 0
107 146 0
105 145 0
104 144 0
107 146 0
107 146 0
104 144 0
106 145 0
105 145 0
103 144 0
106 145 0
104 144 0
105 145 0
108 147 0
103 144 0
106 145 0
108 147 0
105 145 0
105 145 0
106 145 0
106 145 0
107 146 0
103 144 0
106 146 0
106 146 0
105 145 0
108 146 0
105 145 0
105 145 0
107 146 0
106 145 0
107 146 0
106 146 0
104 144 0
105 144 0
106 146 0
104 144 0
106 145 0
106 145 0
107 146 0
104 144 0
106 145 0
104 144 0
104 144 0
105 145 0
105 145 0
104 144 0
104 144 0
103 143 0
106 145 0
104 144 0
110 148 0
107 146 0
105 145 0
105 144 0
104 144 0
107 146 0
103 143 0
106 145 0
109 147 0
104 144 0
104 144 0
106 145 0
103 144 0
104 144 0
105 145 0
105 145 0
103 143 0
105 145 0
104 144 0
104 144 0
107 146 0
103 144 0
105 145 0
107 146 0
108 146 0
107 146 0
109 147 0
105 145 0
103 144 0
104 144 0
105 145 0
104 144 0
105 145 0
106 145 0
107 146 0
106 145 0
105 145 0
106 145 0
105 145 0
103 144 0
111 148 0
106 145 0
107 146 0
105 145 0
108 146 0
105 144 0
105 145 0
104 144 0
104 144 0
109 147 0
106 145 0
104 144 0
105 145 0
106 145 0
102 143 0
105 145 0
103 144 0
107 146 0
105 145 0
107 146 0
105 145 0
113 149 0
107 146 0
107 146 0
106 145 0
107 146 0
111 148 0
107 146 0
109 147 0
107 146 0
108 146 0
103 144 0
105 145 0
106 145 0
105 145 0
108 147 0
107 146 0
106 146 0
105 145 0
103 144 0
107 146 0
103 144 0
104 144 0
105 145 0
108 147 0
103 144 0
109 147 0
106 145 0
105 145 0
108 147 0
105 145 0
109 147 0
108 146 0
105 145 0
109 147 0
106 146 0
105 145 0
107 146 0
107 146 0
106 145 0
106 145 0
110 148 0
108 146 0
108 147 0
111 148 0
107 146 0
107 146 0
108 146 0
106 145 0
107 146 0
107 146 0
108 146 0
110 148 0
106 145 0
106 145 0
109 147 0
109 147 0
107 146 0
115 151 0
109 147 0
106 145 0
108 147 0
106 145 0
109 147 0
106 145 0
105 144 0
114 150 0
109 147 0
109 147 0
110 148 0
110 147 0
108 147 0
108 147 0
114 150 0
106 145 0
109 147 0
106 145 0
108 147 0
113 149 0
108 146 0
110 148 0
112 149 0
107 146 0
106 146 0
111 148 0
106 145 0
116 152 0
105 145 0
108 146 0
107 146 0
106 145 0
105 145 0
109 147 0
106 145 0
110 148 0
106 146 0
107 146 0
108 146 0
108 147 0
105 145 0
112 149 0
113 150 0
110 148 0
109 147 0
107 146 0
108 146 0
110 148 0
111 148 0
108 146 0
111 148 0
109 147 0
107 146 0
111 148 0
115 151 0
106 146 0
108 147 0
107 146 0
109 147 0
110 148 0
111 148 0
111 148 0
110 148 0
113 150 0
105 145 0
113 150 0
111 148 0
109 147 0
105 145 0
109 147 0
110 148 0
111 148 0
110 148 0
115 151 0
111 149 0
109 147 0
113 150 0
109 147 0
106 145 0
111 149 0
106 146 0
109 147 0
111 148 0
111 149 0
107 146 0
107 146 0
114 150 0
104 144 0
112 149 0
108 147 0
109 147 0
112 149 0
109 147 0
112 149 0
110 148 0
108 146 0
111 148 0
108 147 0
107 146 0
105 145 0
108 147 0
108 147 0
111 148 0
105 144 0
111 148 0
111 148 0
112 149 0
110 148 0
110 148 0
110 147 0
112 149 0
111 148 0
108 146 0
109 147 0
111 148 0
109 147 0
109 147 0
113 150 0
105 145 0
109 147 0
106 145 0
108 146 0
109 147 0
107 146 0
111 149 0
113 149 0
106 145 0
108 147 0
106 146 0
112 149 0
109 147 0
108 146 0
109 147 0
107 146 0
112 149 0
112 149 0
109 147 0
111 148 0
108 146 0
113 149 0
110 148 0
111 148 0
116 151 0
108 147 0
116 151 0
106 145 0
111 148 0
113 150 0
112 149 0
115 151 0
110 148 0
108 146 0
107 146 0
107 146 0
111 148 0
111 148 0
110 148 0
110 148 0
111 148 0
109 147 0
109 147 0
109 147 0
109 147 0
109 147 0
110 148 0
114 150 0
112 149 0
113 150 0
111 148 0
110 148 0
105 145 0
105 145 0
104 144 0
108 146 0
104 144 0
104 144 0
109 147 0
108 146 0
105 145 0
104 144 0
107 146 0
105 144 0
108 147 0
104 144 0
106 145 0
106 146 0
107 146 0
108 146 0
106 146 0
106 145 0
106 146 0
104 144 0
105 145 0
105 145 0
104 144 0
105 145 0
103 144 0
108 146 0
108 146 0
105 145 0
104 144 0
105 145 0
106 145 0
106 145 0
111 148 0
106 146 0
109 147 0
105 145 0
107 146 0
105 145 0
109 147 0
106 145 0
106 146 0
104 144 0
104 144 0
104 144 0
107 146 0
107 146 0
105 145 0
104 144 0
106 145 0
104 144 0
103 144 0
105 145 0
106 145 0
104 144 0
109 147 0
106 145 0
103 144 0
108 146 0
106 145 0
106 145 0
106 145 0
107 146 0
104 144 0
104 144 0
106 145 0
105 145 0
104 144 0
108 146 0
105 144 0
107 146 0
106 145 0
106 145 0
106 146 0
104 144 0
108 147 0
104 144 0
108 147 0
106 146 0
107 146 0
104 144 0
106 145 0
104 144 0
104 144 0
107 146 0
105 145 0
105 145 0
106 145 0
108 147 0
106 145 0
105 145 0
107 146 0
108 146 0
106 145 0
106 145 0
111 148 0
109 147 0
105 145 0
103 144 0
105 145 0
102 143 0
105 145 0
103 143 0
106 145 0
104 144 0
104 144 0
108 147 0
103 143 0
106 145 0
105 145 0
104 144 0
103 144 0
105 144 0
104 144 0
107 146 0
103 144 0
107 146 0
106 145 0
103 144 0
106 145 0
105 145 0
108 146 0
105 145 0
103 144 0
107 146 0
103 143 0
107 146 0
104 144 0
104 144 0
105 145 0
107 146 0
104 144 0
102 143 0
104 144 0
106 146 0
104 144 0
105 145 0
109 147 0
109 147 0
105 145 0
103 144 0
103 144 0
107 146 0
107 146 0
106 145 0
106 145 0
108 146 0
105 145 0
109 147 0
106 145 0
104 144 0
109 147 0
108 147 0
106 145 0
104 144 0
107 146 0
105 144 0
106 145 0
106 145 0
107 146 0
105 144 0
106 145 0
107 146 0
105 145 0
106 145 0
106 145 0
105 145 0
107 146 0
104 144 0
104 144 0
108 147 0
108 146 0
105 144 0
106 145 0
105 145 0
106 145 0
105 145 0
107 146 0
105 145 0
108 146 0
105 145 0
107 146 0
106 145 0
105 145 0
110 148 0
108 147 0
106 145 0
109 147 0
105 144 0
107 146 0
110 148 0
111 148 0
105 144 0
104 144 0
110 147 0
110 148 0
108 147 0
106 145 0
109 147 0
108 146 0
112 149 0
105 145 0
108 147 0
108 147 0
105 145 0
108 146 0
110 148 0
109 147 0
108 147 0
107 146 0
106 146 0
105 144 0
103 144 0
107 146 0
110 147 0
105 145 0
104 144 0
104 144 0
108 147 0
105 145 0
107 146 0
106 145 0
105 145 0
105 145 0
108 146 0
106 145 0
113 149 0
106 145 0
109 147 0
105 145 0
111 149 0
107 146 0
107 146 0
107 146 0
109 147 0
107 146 0
104 144 0
108 147 0
106 145 0
104 144 0
108 147 0
107 146 0
108 146 0
108 146 0
106 145 0
106 145 0
110 148 0
109 147 0
107 146 0
107 146 0
107 146 0
108 147 0
111 148 0
108 147 0
111 148 0
111 148 0
107 146 0
106 145 0
109 147 0
108 147 0
105 145 0
107 146 0
113 149 0
105 145 0
106 145 0
111 148 0
111 148 0
105 145 0
110 148 0
107 146 0
106 145 0
107 146 0
106 146 0
107 146 0
108 147 0
111 148 0
109 147 0
109 147 0
117 152 0
114 150 0
107 146 0
110 148 0
107 146 0
105 145 0
106 145 0
108 147 0
108 147 0
112 149 0
112 149 0
109 147 0
109 147 0
110 147 0
107 146 0
112 149 0
113 149 0
107 146 0
109 147 0
105 145 0
109 147 0
111 148 0
111 149 0
110 148 0
107 146 0
110 148 0
108 147 0
110 148 0
113 149 0
109 147 0
114 150 0
110 148 0
113 149 0
108 146 0
110 148 0
111 148 0
110 148 0
111 148 0
110 147 0
113 149 0
115 151 0
110 147 0
111 148 0
113 150 0
109 147 0
109 147 0
109 147 0
109 147 0
111 148 0
113 149 0
110 148 0
110 147 0
108 147 0
110 148 0
113 149 0
108 147 0
109 147 0
110 148 0
106 146 0
107 146 0
110 148 0
110 147 0
111 149 0
108 147 0
110 148 0
106 145 0
107 146 0
110 148 0
113 149 0
111 148 0
106 145 0
107 146 0
113 150 0
113 149 0
117 152 0
108 147 0
110 147 0
111 149 0
109 147 0
113 150 0
109 147 0
113 149 0
109 147 0
107 146 0
109 147 0
107 146 0
106 145 0
110 147 0
112 149 0
114 150 0
108 146 0
109 147 0
109 147 0
110 148 0
112 149 0
111 148 0
109 147 0
111 148 0
114 150 0
110 148 0
105 145 0
108 147 0
108 147 0
111 148 0
110 148 0
111 148 0
109 147 0
110 148 0
109 147 0
107 146 0
108 147 0
108 147 0
108 147 0
111 149 0
112 149 0
110 147 0
112 149 0
116 152 0
109 147 0
114 150 0
108 147 0
106 146 0
109 147 0
105 144 0
106 145 0
107 146 0
104 144 0
106 145 0
104 144 0
109 147 0
105 145 0
106 145 0
107 146 0
105 145 0
108 147 0
105 145 0
104 144 0
108 146 0
104 144 0
106 145 0
106 145 0
103 144 0
104 144 0
104 144 0
104 144 0
103 143 0
107 146 0
106 145 0
105 145 0
105 145 0
109 147 0
106 146 0
106 146 0
103 144 0
105 145 0
108 146 0
107 146 0
104 144 0
108 146 0
108 147 0
103 144 0
106 145 0
105 145 0
106 146 0
107 146 0
105 145 0
107 146 0
107 146 0
106 146 0
109 147 0
106 145 0
108 146 0
106 146 0
104 144 0
106 145 0
105 145 0
106 145 0
106 145 0
107 146 0
103 144 0
104 144 0
108 146 0
104 144 0
103 144 0
103 144 0
106 145 0
103 143 0
106 145 0
104 144 0
106 145 0
108 146 0
104 144 0
104 144 0
104 144 0
107 146 0
107 146 0
105 145 0
104 144 0
104 144 0
104 144 0
107 146 0
105 144 0
104 144 0
107 146 0
110 148 0
108 147 0
106 145 0
105 145 0
106 145 0
104 144 0
105 145 0
105 145 0
104 144 0
108 146 0
104 144 0
105 145 0
103 143 0
104 144 0
106 145 0
108 147 0
106 146 0
109 147 0
106 146 0
107 146 0
105 145 0
107 146 0
104 144 0
105 145 0
104 144 0
103 143 0
104 144 0
105 145 0
104 144 0
105 145 0
105 145 0
106 145 0
106 145 0
109 147 0
105 144 0
104 144 0
105 145 0
107 146 0
105 145 0
106 145 0
107 146 0
106 145 0
108 147 0
106 146 0
104 144 0
110 147 0
105 145 0
105 145 0
103 144 0
104 144 0
105 145 0
108 146 0
105 145 0
106 145 0
108 147 0
107 146 0
107 146 0
105 145 0
103 144 0
104 144 0
103 143 0
105 145 0
105 145 0
104 144 0
107 146 0
109 147 0
104 144 0
103 143 0
105 144 0
105 145 0
105 145 0
104 144 0
106 145 0
104 144 0
103 143 0
103 144 0
104 144 0
106 146 0
107 146 0
106 146 0
106 146 0
107 146 0
104 144 0
107 146 0
106 145 0
110 147 0
108 147 0
108 146 0
107 146 0
108 146 0
106 145 0
103 143 0
109 147 0
108 147 0
108 147 0
105 145 0
108 146 0
107 146 0
107 146 0
108 147 0
108 147 0
108 147 0
104 144 0
109 147 0
109 147 0
107 146 0
106 146 0
105 144 0
107 146 0
106 145 0
106 146 0
107 146 0
108 146 0
106 145 0
107 146 0
108 147 0
111 148 0
109 147 0
108 146 0
105 145 0
105 145 0
110 148 0
106 145 0
110 148 0
105 145 0
110 148 0
108 146 0
108 147 0
107 146 0
105 145 0
105 145 0
104 144 0
108 146 0
104 144 0
110 148 0
109 147 0
111 149 0
107 146 0
106 145 0
109 147 0
109 147 0
105 145 0
110 148 0
107 146 0
107 146 0
109 147 0
106 145 0
109 147 0
109 147 0
109 147 0
108 147 0
108 147 0
105 145 0
106 145 0
108 147 0
109 147 0
105 145 0
106 145 0
111 148 0
107 146 0
107 146 0
109 147 0
104 144 0
109 147 0
111 148 0
110 148 0
109 147 0
106 145 0
109 147 0
108 147 0
108 147 0
111 148 0
110 148 0
107 146 0
108 147 0
113 149 0
105 145 0
109 147 0
110 148 0
107 146 0
110 148 0
110 148 0
110 147 0
111 148 0
107 146 0
117 152 0
108 147 0
110 148 0
110 148 0
108 146 0
108 147 0
110 148 0
111 148 0
108 146 0
104 144 0
109 147 0
112 149 0
108 146 0
110 148 0
114 150 0
115 150 0
105 145 0
114 150 0
108 147 0
113 149 0
105 145 0
106 145 0
108 146 0
112 149 0
106 145 0
114 150 0
113 149 0
106 146 0
108 147 0
109 147 0
108 146 0
108 147 0
111 148 0
110 148 0
110 148 0
108 147 0
108 146 0
117 152 0
109 147 0
107 146 0
114 150 0
106 145 0
112 149 0
110 148 0
110 148 0
106 145 0
112 149 0
107 146 0
106 146 0
105 144 0
111 148 0
116 151 0
112 149 0
111 148 0
110 148 0
112 149 0
110 148 0
107 146 0
110 148 0
109 147 0
108 147 0
109 147 0
110 148 0
110 148 0
110 148 0
107 146 0
110 148 0
110 148 0
108 146 0
108 146 0
109 147 0
111 148 0
109 147 0
107 146 0
106 145 0
111 148 0
112 149 0
109 147 0
110 148 0
110 148 0
108 147 0
108 147 0
105 145 0
111 149 0
110 148 0
111 148 0
110 147 0
114 150 0
108 147 0
114 150 0
109 147 0
112 149 0
112 149 0
111 148 0
108 146 0
109 147 0
111 148 0
107 146 0
109 147 0
110 148 0
112 149 0
111 148 0
110 148 0
108 147 0
105 145 0
112 149 0
113 149 0
112 149 0
111 148 0
110 148 0
110 148 0
109 147 0
109 147 0
108 146 0
111 149 0
112 149 0
108 147 0
113 150 0
112 149 0
106 145 0
106 146 0
106 145 0
111 148 0
112 149 0
110 148 0
113 150 0
109 147 0
106 145 0
108 147 0
106 145 0
109 147 0
103 144 0
105 145 0
104 144 0
105 145 0
108 146 0
108 146 0
105 144 0
110 148 0
105 145 0
109 147 0
106 145 0
102 143 0
108 146 0
106 146 0
105 145 0
104 144 0
105 145 0
105 145 0
104 144 0
104 144 0
104 144 0
104 144 0
103 144 0
108 146 0
104 144 0
104 144 0
104 144 0
106 145 0
105 144 0
105 145 0
105 145 0
103 144 0
105 145 0
107 146 0
106 145 0
107 146 0
107 146 0
108 147 0
103 144 0
104 144 0
106 145 0
103 144 0
103 143 0
104 144 0
107 146 0
106 145 0
105 145 0
104 144 0
106 145 0
104 144 0
108 146 0
105 144 0
103 143 0
106 145 0
106 145 0
106 145 0
106 145 0
108 146 0
102 143 0
108 147 0
103 143 0
103 144 0
103 144 0
107 146 0
108 146 0
103 144 0
106 145 0
106 145 0
107 146 0
105 145 0
105 145 0
107 146 0
105 145 0
105 145 0
107 146 0
103 144 0
104 144 0
102 143 0
103 144 0
104 144 0
103 143 0
104 144 0
105 145 0
106 145 0
105 145 0
106 145 0
107 146 0
105 145 0
104 144 0
107 146 0
105 145 0
104 144 0
104 144 0
104 144 0
106 145 0
105 145 0
105 145 0
109 147 0
102 143 0
104 144 0
104 144 0
106 145 0
107 146 0
106 145 0
105 145 0
105 144 0
108 146 0
105 145 0
105 144 0
104 144 0
108 147 0
104 144 0
107 146 0
104 144 0
105 144 0
106 146 0
105 144 0
103 143 0
105 145 0
106 145 0
103 144 0
103 143 0
105 144 0
108 146 0
104 144 0
104 144 0
107 146 0
106 145 0
108 146 0
105 145 0
108 147 0
105 144 0
105 144 0
106 145 0
106 145 0
106 145 0
108 146 0
103 143 0
107 146 0
103 143 0
104 144 0
104 144 0
104 144 0
107 146 0
104 144 0
107 146 0
107 146 0
105 145 0
105 144 0
108 147 0
106 145 0
106 146 0
104 144 0
106 145 0
104 144 0
106 145 0
108 147 0
103 143 0
106 145 0
112 149 0
104 144 0
108 147 0
106 145 0
105 145 0
105 145 0
104 144 0
109 147 0
104 144 0
108 147 0
109 147 0
107 146 0
108 146 0
106 145 0
108 147 0
105 145 0
105 145 0
105 145 0
109 147 0
105 145 0
106 145 0
106 145 0
108 146 0
107 146 0
107 146 0
103 144 0
103 144 0
105 145 0
107 146 0
112 149 0
105 145 0
107 146 0
105 145 0
108 146 0
106 145 0
105 145 0
109 147 0
107 146 0
104 144 0
107 146 0
108 147 0
106 146 0
106 145 0
110 148 0
108 147 0
110 148 0
112 149 0
108 146 0
105 145 0
108 147 0
106 145 0
112 149 0
107 146 0
107 146 0
106 145 0
107 146 0
110 147 0
105 145 0
109 147 0
106 145 0
107 146 0
106 145 0
107 146 0
105 145 0
107 146 0
107 146 0
107 146 0
109 147 0
112 149 0
106 145 0
109 147 0
104 144 0
109 147 0
107 146 0
110 148 0
105 145 0
107 146 0
113 149 0
108 146 0
106 145 0
107 146 0
114 150 0
107 146 0
108 146 0
106 145 0
111 149 0
105 145 0
108 146 0
107 146 0
110 148 0
106 146 0
106 145 0
113 149 0
106 145 0
105 145 0
110 148 0
106 145 0
109 147 0
111 148 0
106 145 0
109 147 0
110 147 0
109 147 0
109 147 0
111 148 0
109 147 0
106 145 0
110 148 0
107 146 0
111 149 0
108 146 0
113 149 0
115 151 0
110 148 0
106 145 0
107 146 0
108 146 0
107 146 0
109 147 0
109 147 0
111 149 0
112 149 0
112 149 0
110 148 0
111 148 0
109 147 0
111 148 0
110 148 0
112 149 0
108 147 0
110 148 0
113 149 0
107 146 0
115 151 0
109 147 0
114 150 0
113 150 0
108 146 0
109 147 0
109 147 0
107 146 0
110 148 0
109 147 0
110 148 0
111 148 0
108 146 0
108 147 0
109 147 0
113 149 0
107 146 0
111 149 0
109 147 0
109 147 0
113 150 0
106 145 0
109 147 0
108 147 0
113 149 0
110 148 0
108 147 0
109 147 0
112 149 0
108 146 0
113 150 0
112 149 0
112 149 0
106 145 0
108 146 0
109 147 0
109 147 0
106 146 0
110 148 0
112 149 0
109 147 0
108 146 0
113 150 0
110 148 0
110 148 0
112 149 0
105 145 0
113 150 0
109 147 0
116 151 0
110 148 0
109 147 0
110 147 0
106 145 0
106 145 0
108 147 0
118 152 0
109 147 0
108 146 0
111 149 0
112 149 0
109 147 0
112 149 0
113 149 0
106 145 0
113 150 0
108 146 0
112 149 0
109 147 0
109 147 0
108 146 0
109 147 0
113 149 0
111 149 0
108 146 0
109 147 0
110 148 0
112 149 0
110 148 0
110 148 0
114 150 0
111 148 0
114 150 0
110 148 0
114 150 0
112 149 0
110 148 0
109 147 0
111 148 0
108 147 0
105 145 0
111 148 0
111 148 0
113 150 0
108 147 0
112 149 0
108 147 0
109 147 0
112 149 0
113 149 0
105 145 0
115 151 0
110 148 0
110 148 0
106 146 0
113 150 0
110 148 0
106 145 0
105 145 0
106 145 0
105 145 0
109 147 0
107 146 0
105 145 0
104 144 0
107 146 0
106 145 0
108 147 0
106 145 0
106 145 0
107 146 0
106 146 0
107 146 0
106 145 0
106 145 0
103 144 0
104 144 0
107 146 0
103 143 0
104 144 0
106 145 0
105 145 0
105 144 0
105 144 0
106 145 0
106 145 0
102 143 0
105 145 0
109 147 0
106 146 0
109 147 0
107 146 0
105 145 0
109 147 0
106 145 0
105 145 0
105 144 0
103 144 0
105 145 0
107 146 0
107 146 0
108 147 0
104 144 0
103 144 0
103 143 0
104 144 0
102 143 0
110 148 0
103 144 0
104 144 0
109 147 0
104 144 0
105 145 0
106 145 0
106 145 0
105 145 0
104 144 0
106 145 0
104 144 0
104 144 0
105 145 0
105 145 0
104 144 0
106 145 0
108 146 0
107 146 0
106 145 0
108 147 0
104 144 0
106 145 0
107 146 0
106 145 0
104 144 0
105 145 0
106 145 0
105 145 0
105 145 0
103 144 0
104 144 0
107 146 0
102 143 0
109 147 0
105 145 0
106 146 0
107 146 0
105 145 0
108 146 0
104 144 0
106 146 0
105 144 0
107 146 0
108 147 0
104 144 0
107 146 0
103 144 0
107 146 0
105 145 0
106 146 0
105 145 0
105 145 0
106 145 0
104 144 0
105 145 0
105 144 0
103 144 0
104 144 0
105 144 0
104 144 0
105 145 0
104 144 0
106 145 0
104 144 0
106 145 0
105 145 0
104 144 0
104 144 0
104 144 0
105 145 0
106 145 0
103 144 0
103 144 0
109 147 0
107 146 0
103 144 0
106 145 0
106 145 0
105 145 0
106 145 0
106 145 0
106 146 0
105 144 0
105 144 0
108 147 0
107 146 0
110 148 0
105 145 0
105 145 0
106 145 0
107 146 0
104 144 0
105 145 0
103 143 0
105 145 0
105 145 0
105 144 0
108 147 0
104 144 0
103 144 0
103 144 0
109 147 0
103 144 0
109 147 0
105 145 0
107 146 0
102 143 0
103 144 0
105 145 0
104 144 0
104 144 0
104 144 0
108 146 0
103 144 0
109 147 0
104 144 0
107 146 0
106 145 0
106 146 0
108 146 0
104 144 0
104 144 0
103 144 0
106 146 0
103 144 0
104 144 0
105 145 0
104 144 0
103 144 0
106 145 0
104 144 0
106 145 0
111 148 0
106 145 0
110 148 0
105 145 0
104 144 0
105 145 0
113 149 0
102 143 0
107 146 0
108 146 0
105 145 0
106 146 0
106 145 0
108 147 0
109 147 0
104 144 0
114 150 0
107 146 0
108 147 0
107 146 0
110 148 0
104 144 0
106 145 0
106 145 0
106 146 0
103 144 0
107 146 0
103 144 0
109 147 0
107 146 0
109 147 0
108 146 0
107 146 0
108 147 0
109 147 0
106 146 0
106 145 0
104 144 0
105 145 0
109 147 0
108 147 0
109 147 0
107 146 0
110 148 0
107 146 0
108 146 0
109 147 0
107 146 0
109 147 0
107 146 0
108 147 0
108 146 0
113 149 0
106 146 0
107 146 0
109 147 0
113 150 0
108 146 0
106 145 0
108 147 0
112 149 0
111 148 0
107 146 0
107 146 0
105 145 0
107 146 0
104 144 0
108 146 0
106 145 0
105 145 0
109 147 0
109 147 0
104 144 0
110 148 0
110 148 0
111 148 0
109 147 0
108 147 0
110 148 0
108 147 0
106 145 0
109 147 0
108 147 0
110 148 0
112 149 0
107 146 0
109 147 0
111 148 0
108 147 0
105 145 0
112 149 0
106 145 0
110 148 0
107 146 0
110 148 0
111 148 0
108 147 0
109 147 0
109 147 0
110 148 0
104 144 0
106 145 0
110 148 0
112 149 0
114 150 0
113 149 0
109 147 0
109 147 0
110 148 0
110 148 0
108 147 0
109 147 0
109 147 0
110 148 0
111 148 0
107 146 0
110 147 0
112 149 0
116 151 0
115 150 0
108 147 0
109 147 0
109 147 0
109 147 0
108 147 0
108 146 0
112 149 0
111 148 0
111 148 0
119 153 0
108 146 0
114 150 0
108 146 0
111 148 0
106 145 0
108 147 0
116 151 0
108 146 0
113 149 0
108 146 0
110 148 0
112 149 0
109 147 0
112 149 0
111 148 0
109 147 0
116 152 0
105 144 0
107 146 0
110 148 0
107 146 0
106 145 0
112 149 0
108 147 0
106 146 0
113 149 0
109 147 0
109 147 0
113 150 0
108 146 0
110 147 0
109 147 0
110 148 0
113 150 0
113 150 0
109 147 0
111 148 0
109 147 0
108 147 0
112 149 0
113 150 0
113 149 0
110 148 0
105 145 0
109 147 0
105 144 0
111 148 0
109 147 0
114 150 0
110 148 0
111 148 0
110 148 0
110 148 0
107 146 0
109 147 0
113 149 0
106 145 0
106 146 0
109 147 0
109 147 0
107 146 0
110 148 0
111 148 0
112 149 0
106 145 0
111 148 0
111 149 0
114 150 0
108 146 0
109 147 0
110 148 0
110 148 0
111 148 0
109 147 0
109 147 0
112 149 0
106 146 0
108 147 0
109 147 0
107 146 0
113 150 0
112 149 0
108 146 0
111 148 0
107 146 0
113 150 0
110 147 0
109 147 0
106 145 0
102 143 0
105 145 0
104 144 0
105 145 0
102 143 0
103 144 0
104 144 0
104 144 0
102 143 0
104 144 0
106 146 0
104 144 0
102 143 0
104 144 0
106 146 0
107 146 0
110 148 0
107 146 0
104 144 0
108 146 0
107 146 0
103 144 0
106 145 0
105 145 0
108 146 0
104 144 0
106 146 0
104 144 0
107 146 0
108 146 0
102 143 0
105 145 0
105 145 0
108 147 0
108 147 0
104 144 0
104 144 0
105 145 0
104 144 0
105 145 0
108 146 0
107 146 0
108 146 0
105 145 0
104 144 0
105 144 0
105 145 0
104 144 0
106 145 0
104 144 0
108 146 0
105 145 0
104 144 0
107 146 0
108 146 0
110 148 0
106 145 0
107 146 0
107 146 0
104 144 0
105 144 0
102 143 0
106 145 0
106 145 0
103 144 0
106 146 0
104 144 0
103 144 0
103 143 0
105 144 0
103 144 0
102 143 0
104 144 0
105 145 0
107 146 0
106 145 0
104 144 0
106 146 0
103 143 0
104 144 0
106 145 0
103 144 0
104 144 0
105 144 0
105 144 0
104 144 0
104 144 0
106 145 0
104 144 0
105 144 0
105 145 0
104 144 0
105 145 0
103 144 0
106 145 0
105 145 0
107 146 0
107 146 0
107 146 0
105 145 0
107 146 0
103 144 0
104 144 0
107 146 0
105 145 0
104 144 0
107 146 0
106 145 0
105 144 0
106 145 0
106 145 0
103 144 0
105 145 0
103 144 0
104 144 0
107 146 0
107 146 0
107 146 0
103 143 0
107 146 0
105 145 0
104 144 0
108 146 0
103 144 0
105 144 0
104 144 0
103 143 0
106 146 0
108 147 0
107 146 0
109 147 0
105 145 0
106 145 0
105 145 0
104 144 0
104 144 0
106 145 0
105 145 0
109 147 0
106 145 0
112 149 0
106 145 0
104 144 0
104 144 0
103 144 0
105 145 0
106 145 0
105 145 0
104 144 0
108 146 0
105 145 0
106 145 0
106 145 0
108 146 0
104 144 0
105 145 0
103 144 0
104 144 0
106 145 0
105 145 0
104 144 0
103 144 0
107 146 0
105 144 0
107 146 0
106 145 0
104 144 0
109 147 0
108 147 0
106 146 0
107 146 0
108 147 0
110 148 0
105 145 0
109 147 0
105 144 0
104 144 0
108 147 0
106 145 0
104 144 0
107 146 0
108 146 0
106 145 0
105 145 0
103 144 0
105 145 0
107 146 0
108 146 0
105 145 0
108 146 0
104 144 0
105 145 0
104 144 0
104 144 0
106 145 0
107 146 0
104 144 0
105 145 0
107 146 0
106 145 0
106 145 0
109 147 0
107 146 0
105 145 0
106 146 0
106 145 0
107 146 0
109 147 0
109 147 0
105 145 0
108 146 0
105 145 0
110 147 0
108 146 0
108 147 0
105 145 0
107 146 0
108 146 0
109 147 0
107 146 0
107 146 0
113 149 0
108 147 0
106 145 0
110 148 0
104 144 0
112 149 0
113 150 0
108 147 0
109 147 0
106 145 0
108 147 0
105 145 0
111 148 0
106 145 0
106 145 0
108 146 0
107 146 0
106 145 0
109 147 0
111 148 0
109 147 0
111 148 0
108 147 0
110 148 0
113 149 0
111 148 0
111 148 0
106 146 0
111 148 0
106 145 0
111 148 0
106 145 0
109 147 0
112 149 0
109 147 0
109 147 0
112 149 0
108 146 0
106 146 0
108 147 0
107 146 0
109 147 0
110 148 0
115 150 0
114 150 0
114 150 0
112 149 0
105 145 0
108 147 0
108 147 0
109 147 0
108 146 0
105 145 0
115 151 0
112 149 0
110 148 0
106 145 0
108 146 0
108 147 0
111 148 0
113 149 0
108 147 0
113 149 0
113 149 0
109 147 0
111 148 0
107 146 0
113 150 0
109 147 0
106 146 0
108 146 0
109 147 0
106 145 0
110 148 0
105 145 0
107 146 0
109 147 0
111 148 0
116 151 0
115 150 0
105 144 0
109 147 0
104 144 0
114 150 0
109 147 0
115 151 0
106 146 0
111 148 0
107 146 0
108 147 0
108 146 0
110 148 0
112 149 0
108 147 0
109 147 0
107 146 0
109 147 0
115 151 0
106 145 0
110 148 0
108 147 0
111 148 0
113 150 0
116 151 0
112 149 0
110 148 0
109 147 0
113 149 0
107 146 0
114 150 0
110 147 0
106 145 0
107 146 0
108 146 0
112 149 0
106 145 0
112 149 0
108 147 0
112 149 0
112 149 0
111 148 0
112 149 0
110 148 0
111 149 0
107 146 0
111 148 0
110 148 0
112 149 0
109 147 0
107 146 0
105 145 0
110 148 0
110 148 0
110 147 0
114 150 0
112 149 0
109 147 0
111 149 0
109 147 0
110 148 0
112 149 0
110 148 0
115 151 0
109 147 0
108 147 0
108 146 0
109 147 0
112 149 0
114 150 0
111 148 0
118 152 0
112 149 0
106 145 0
113 150 0
107 146 0
107 146 0
110 148 0
108 146 0
106 145 0
107 146 0
107 146 0
116 151 0
111 148 0
109 147 0
110 148 0
109 147 0
112 149 0
107 146 0
113 149 0
109 147 0
108 147 0
112 149 0
115 151 0
107 146 0
112 149 0
105 144 0
115 151 0
112 149 0
106 145 0
107 146 0
103 144 0
105 145 0
107 146 0
105 145 0
105 145 0
104 144 0
108 146 0
105 145 0
106 145 0
104 144 0
106 145 0
105 145 0
103 144 0
109 147 0
102 143 0
102 143 0
105 145 0
104 144 0
105 145 0
105 145 0
106 145 0
107 146 0
105 144 0
106 145 0
106 145 0
105 144 0
106 145 0
103 143 0
103 144 0
108 147 0
105 145 0
105 145 0
103 143 0
107 146 0
105 144 0
109 147 0
103 144 0
107 146 0
106 145 0
105 145 0
104 144 0
107 146 0
106 146 0
107 146 0
105 144 0
106 145 0
108 147 0
104 144 0
105 144 0
107 146 0
107 146 0
105 145 0
106 145 0
105 145 0
105 145 0
104 144 0
103 144 0
105 145 0
102 143 0
103 144 0
103 143 0
105 144 0
108 146 0
106 145 0
106 145 0
106 146 0
105 145 0
105 145 0
103 144 0
107 146 0
106 145 0
108 146 0
104 144 0
107 146 0
104 144 0
106 145 0
104 144 0
108 147 0
106 145 0
106 145 0
107 146 0
107 146 0
104 144 0
107 146 0
106 145 0
108 146 0
106 145 0
107 146 0
105 145 0
105 145 0
105 145 0
104 144 0
104 144 0
105 145 0
106 146 0
106 145 0
105 145 0
104 144 0
104 144 0
106 145 0
104 144 0
108 147 0
105 144 0
102 143 0
105 145 0
103 144 0
103 144 0
104 144 0
106 145 0
106 145 0
106 145 0
106 145 0
104 144 0
103 144 0
106 145 0
105 145 0
109 147 0
105 145 0
107 146 0
103 143 0
103 143 0
104 144 0
104 144 0
110 148 0
104 144 0
103 144 0
105 144 0
104 144 0
103 144 0
105 145 0
105 145 0
103 144 0
106 145 0
104 144 0
106 145 0
105 145 0
107 146 0
105 145 0
104 144 0
103 143 0
109 147 0
104 144 0
110 148 0
105 145 0
105 145 0
106 146 0
106 145 0
105 145 0
106 145 0
106 146 0
106 145 0
106 145 0
104 144 0
105 145 0
112 149 0
104 144 0
107 146 0
103 144 0
104 144 0
105 145 0
106 146 0
107 146 0
106 145 0
107 146 0
106 145 0
108 146 0
104 144 0
107 146 0
107 146 0
107 146 0
108 147 0
105 145 0
105 144 0
104 144 0
107 146 0
105 145 0
105 145 0
103 143 0
106 145 0
106 145 0
109 147 0
109 147 0
107 146 0
108 146 0
104 144 0
104 144 0
105 144 0
103 144 0
105 144 0
106 145 0
107 146 0
105 145 0
105 145 0
105 145 0
109 147 0
106 145 0
109 147 0
106 145 0
108 147 0
109 147 0
107 146 0
106 145 0
105 145 0
108 146 0
105 145 0
112 149 0
105 145 0
110 148 0
108 147 0
106 145 0
111 148 0
106 146 0
108 147 0
112 149 0
106 146 0
106 146 0
108 146 0
108 147 0
109 147 0
106 145 0
107 146 0
110 148 0
110 148 0
108 146 0
104 144 0
111 148 0
109 147 0
109 147 0
110 148 0
109 147 0
109 147 0
108 146 0
103 144 0
104 144 0
109 147 0
107 146 0
108 147 0
112 149 0
109 147 0
105 145 0
111 149 0
109 147 0
107 146 0
108 147 0
110 148 0
104 144 0
113 149 0
107 146 0
113 149 0
109 147 0
109 147 0
107 146 0
112 149 0
109 147 0
112 149 0
109 147 0
107 146 0
111 148 0
109 147 0
110 148 0
107 146 0
113 150 0
109 147 0
105 145 0
116 151 0
107 146 0
112 149 0
114 150 0
111 148 0
113 150 0
107 146 0
110 148 0
115 151 0
112 149 0
111 148 0
105 145 0
106 145 0
109 147 0
107 146 0
113 149 0
108 146 0
108 146 0
115 151 0
109 147 0
107 146 0
110 148 0
106 145 0
108 146 0
110 147 0
108 146 0
108 146 0
109 147 0
111 149 0
108 146 0
111 148 0
109 147 0
108 146 0
108 146 0
109 147 0
109 147 0
110 148 0
114 150 0
110 148 0
112 149 0
113 149 0
110 148 0
106 146 0
111 148 0
109 147 0
111 148 0
114 150 0
109 147 0
114 150 0
110 148 0
111 148 0
111 148 0
110 148 0
112 149 0
108 147 0
113 149 0
108 147 0
113 150 0
110 148 0
108 146 0
109 147 0
111 148 0
108 146 0
114 150 0
108 147 0
108 147 0
113 150 0
111 148 0
111 148 0
112 149 0
108 147 0
110 148 0
106 145 0
109 147 0
111 149 0
114 150 0
110 148 0
108 147 0
107 146 0
109 147 0
110 148 0
114 150 0
112 149 0
110 148 0
107 146 0
112 149 0
107 146 0
110 147 0
106 145 0
109 147 0
111 148 0
114 150 0
110 148 0
109 147 0
108 147 0
111 148 0
110 148 0
108 147 0
109 147 0
109 147 0
110 148 0
108 147 0
115 151 0
109 147 0
107 146 0
109 147 0
111 148 0
111 148 0
108 146 0
112 149 0
107 146 0
110 148 0
111 148 0
109 147 0
110 148 0
109 147 0
107 146 0
115 150 0
109 147 0
108 146 0
110 148 0
108 147 0
110 148 0
116 151 0
108 147 0
107 146 0
111 148 0
112 149 0
109 147 0
110 148 0
107 146 0
112 149 0
110 148 0
109 147 0
104 144 0
106 145 0
107 146 0
110 148 0
105 145 0
110 147 0
103 144 0
105 145 0
107 146 0
107 146 0
107 146 0
106 145 0
107 146 0
104 144 0
105 145 0
108 147 0
109 147 0
103 143 0
106 145 0
104 144 0
108 147 0
107 146 0
102 143 0
102 143 0
105 145 0
104 144 0
104 144 0
106 146 0
104 144 0
107 146 0
107 146 0
106 145 0
105 145 0
106 145 0
110 148 0
104 144 0
107 146 0
105 144 0
106 145 0
111 148 0
106 146 0
106 145 0
106 145 0
107 146 0
105 145 0
104 144 0
105 145 0
105 145 0
106 145 0
105 145 0
103 143 0
105 145 0
105 145 0
106 145 0
107 146 0
103 144 0
105 145 0
104 144 0
103 143 0
108 147 0
106 145 0
106 145 0
104 144 0
104 144 0
104 144 0
105 145 0
103 144 0
108 147 0
106 145 0
104 144 0
104 144 0
107 146 0
104 144 0
108 146 0
106 145 0
103 143 0
105 145 0
106 145 0
104 144 0
104 144 0
106 145 0
106 145 0
107 146 0
106 145 0
103 143 0
105 145 0
106 146 0
107 146 0
105 145 0
105 145 0
108 146 0
104 144 0
103 144 0
107 146 0
104 144 0
108 146 0
105 144 0
108 147 0
106 146 0
105 145 0
106 145 0
104 144 0
103 143 0
104 144 0
106 145 0
105 145 0
106 145 0
109 147 0
105 144 0
105 145 0
108 146 0
106 146 0
103 144 0
106 145 0
106 145 0
104 144 0
107 146 0
103 144 0
103 144 0
106 145 0
105 145 0
103 143 0
104 144 0
106 145 0
104 144 0
107 146 0
106 145 0
104 144 0
103 144 0
102 143 0
104 144 0
103 144 0
108 147 0
103 144 0
109 147 0
106 145 0
108 146 0
103 144 0
104 144 0
105 145 0
104 144 0
104 144 0
104 144 0
105 145 0
105 145 0
104 144 0
104 144 0
106 145 0
105 145 0
110 148 0
106 145 0
105 145 0
105 145 0
105 145 0
110 147 0
105 145 0
106 145 0
105 145 0
105 145 0
105 145 0
104 144 0
108 146 0
104 144 0
105 145 0
104 144 0
105 144 0
109 147 0
106 145 0
105 144 0
105 145 0
105 145 0
105 145 0
104 144 0
107 146 0
110 148 0
110 148 0
105 145 0
104 144 0
105 145 0
103 144 0
110 148 0
107 146 0
109 147 0
102 143 0
111 148 0
108 146 0
106 146 0
107 146 0
108 146 0
105 145 0
104 144 0
105 145 0
106 145 0
111 149 0
105 145 0
105 145 0
105 145 0
108 146 0
104 144 0
109 147 0
111 148 0
112 149 0
110 148 0
106 146 0
109 147 0
111 148 0
105 145 0
111 149 0
111 148 0
107 146 0
109 147 0
106 145 0
106 145 0
106 145 0
110 148 0
106 145 0
107 146 0
108 146 0
107 146 0
109 147 0
112 149 0
109 147 0
106 145 0
109 147 0
106 146 0
112 149 0
108 147 0
109 147 0
115 151 0
107 146 0
106 145 0
111 148 0
110 148 0
106 146 0
107 146 0
108 146 0
112 149 0
108 147 0
110 147 0
108 146 0
110 148 0
108 146 0
111 148 0
105 145 0
104 144 0
108 147 0
107 146 0
107 146 0
106 145 0
112 149 0
112 149 0
115 151 0
109 147 0
111 148 0
108 146 0
113 149 0
108 147 0
107 146 0
107 146 0
110 148 0
109 147 0
108 146 0
111 148 0
108 146 0
107 146 0
113 150 0
112 149 0
110 147 0
108 146 0
108 146 0
111 148 0
108 146 0
108 147 0
109 147 0
110 148 0
113 150 0
105 145 0
109 147 0
107 146 0
108 147 0
110 148 0
103 144 0
108 146 0
109 147 0
109 147 0
111 148 0
111 148 0
107 146 0
115 150 0
110 148 0
110 148 0
113 150 0
112 149 0
108 146 0
116 151 0
112 149 0
108 147 0
108 147 0
111 148 0
110 148 0
112 149 0
110 148 0
108 147 0
112 149 0
106 145 0
107 146 0
106 145 0
107 146 0
110 148 0
107 146 0
105 145 0
106 146 0
112 149 0
111 148 0
105 145 0
114 150 0
114 150 0
105 145 0
108 147 0
111 148 0
110 148 0
107 146 0
109 147 0
113 149 0
110 147 0
109 147 0
108 147 0
112 149 0
109 147 0
108 147 0
107 146 0
111 149 0
111 148 0
108 146 0
107 146 0
106 145 0
113 149 0
106 145 0
113 149 0
111 148 0
110 148 0
113 149 0
113 149 0
109 147 0
108 147 0
114 150 0
110 148 0
112 149 0
108 146 0
107 146 0
110 148 0
107 146 0
108 147 0
108 146 0
109 147 0
109 147 0
108 147 0
107 146 0
109 147 0
111 148 0
111 148 0
112 149 0
109 147 0
109 147 0
107 146 0
109 147 0
112 149 0
112 149 0
113 150 0
116 151 0
111 148 0
112 149 0
111 148 0
113 149 0
109 147 0
112 149 0
108 146 0
116 151 0
112 149 0
113 150 0
110 148 0
107 146 0
108 147 0
114 150 0
111 149 0
107 146 0
111 148 0
109 147 0
108 147 0
108 146 0
111 149 0
113 149 0
109 147 0
109 147 0
111 149 0
110 148 0
113 149 0
111 148 0
112 149 0
109 147 0
104 144 0
106 145 0
108 146 0
104 144 0
105 144 0
103 144 0
104 144 0
106 146 0
104 144 0
106 145 0
104 144 0
109 147 0
106 145 0
104 144 0
104 144 0
106 145 0
106 145 0
105 145 0
108 146 0
107 146 0
105 144 0
107 146 0
103 144 0
103 143 0
106 145 0
107 146 0
106 145 0
107 146 0
105 145 0
104 144 0
106 145 0
107 146 0
106 145 0
105 144 0
102 143 0
107 146 0
108 146 0
106 146 0
104 144 0
105 144 0
104 144 0
107 146 0
107 146 0
105 145 0
104 144 0
105 145 0
106 146 0
107 146 0
106 145 0
107 146 0
106 145 0
104 144 0
106 145 0
107 146 0
107 146 0
104 144 0
104 144 0
104 144 0
106 145 0
105 145 0
105 145 0
105 145 0
104 144 0
103 144 0
109 147 0
106 145 0
107 146 0
103 144 0
106 145 0
108 146 0
105 145 0
104 144 0
106 146 0
103 144 0
107 146 0
105 145 0
105 145 0
107 146 0
102 143 0
105 145 0
106 145 0
107 146 0
106 146 0
105 145 0
104 144 0
105 145 0
105 145 0
106 145 0
105 144 0
103 144 0
106 145 0
108 147 0
105 144 0
106 146 0
102 143 0
106 145 0
105 145 0
106 146 0
105 145 0
104 144 0
106 145 0
103 144 0
107 146 0
108 147 0
103 144 0
104 144 0
103 144 0
105 145 0
105 145 0
105 144 0
104 144 0
102 143 0
103 143 0
106 146 0
106 145 0
104 144 0
104 144 0
107 146 0
104 144 0
105 145 0
106 145 0
105 145 0
105 145 0
105 145 0
103 144 0
104 144 0
107 146 0
105 145 0
106 145 0
105 145 0
104 144 0
106 145 0
105 145 0
103 143 0
105 145 0
103 144 0
106 146 0
105 145 0
105 145 0
107 146 0
104 144 0
106 145 0
106 145 0
104 144 0
104 144 0
106 145 0
105 144 0
104 144 0
105 145 0
105 145 0
103 144 0
106 145 0
104 144 0
104 144 0
108 147 0
107 146 0
104 144 0
106 145 0
109 147 0
106 146 0
104 144 0
105 145 0
107 146 0
106 145 0
103 144 0
104 144 0
106 145 0
105 145 0
105 145 0
106 146 0
106 146 0
110 148 0
106 146 0
108 146 0
107 146 0
108 146 0
109 147 0
104 144 0
108 147 0
106 145 0
105 144 0
108 147 0
109 147 0
107 146 0
108 147 0
105 145 0
105 145 0
106 145 0
105 145 0
108 147 0
108 147 0
106 146 0
106 145 0
107 146 0
104 144 0
112 149 0
115 151 0
106 145 0
108 147 0
109 147 0
110 147 0
104 144 0
105 145 0
106 145 0
109 147 0
109 147 0
105 144 0
111 149 0
107 146 0
106 145 0
107 146 0
106 145 0
107 146 0
111 148 0
106 145 0
108 146 0
105 145 0
105 145 0
107 146 0
106 145 0
106 145 0
111 148 0
107 146 0
105 145 0
103 144 0
109 147 0
109 147 0
107 146 0
109 147 0
104 144 0
108 147 0
113 150 0
105 145 0
109 147 0
109 147 0
107 146 0
107 146 0
110 147 0
107 146 0
106 145 0
106 145 0
108 146 0
107 146 0
107 146 0
109 147 0
109 147 0
109 147 0
106 146 0
112 149 0
107 146 0
108 147 0
110 148 0
109 147 0
111 148 0
108 146 0
109 147 0
105 145 0
108 146 0
113 149 0
106 145 0
112 149 0
111 148 0
108 146 0
112 149 0
113 149 0
109 147 0
106 145 0
110 148 0
111 148 0
111 149 0
104 144 0
112 149 0
107 146 0
106 146 0
113 149 0
115 151 0
111 148 0
107 146 0
115 150 0
110 148 0
112 149 0
110 148 0
111 149 0
114 150 0
107 146 0
107 146 0
109 147 0
107 146 0
108 147 0
107 146 0
111 149 0
111 148 0
109 147 0
113 150 0
111 148 0
108 147 0
111 149 0
108 147 0
105 145 0
107 146 0
111 148 0
108 147 0
111 148 0
109 147 0
110 148 0
107 146 0
109 147 0
111 148 0
106 145 0
108 146 0
107 146 0
108 147 0
113 149 0
108 147 0
108 146 0
114 150 0
109 147 0
106 145 0
111 148 0
106 146 0
110 148 0
110 148 0
107 146 0
113 149 0
108 147 0
105 145 0
108 147 0
107 146 0
110 148 0
108 146 0
110 148 0
108 147 0
110 147 0
110 148 0
106 145 0
114 150 0
111 148 0
113 150 0
114 150 0
109 147 0
117 152 0
109 147 0
109 147 0
109 147 0
109 147 0
112 149 0
109 147 0
112 149 0
109 147 0
113 150 0
108 146 0
107 146 0
108 146 0
112 149 0
108 147 0
111 148 0
115 151 0
112 149 0
110 148 0
107 146 0
113 150 0
112 149 0
109 147 0
109 147 0
114 150 0
112 149 0
112 149 0
108 146 0
112 149 0
108 147 0
112 149 0
108 146 0
109 147 0
109 147 0
113 150 0
116 152 0
111 148 0
115 151 0
111 148 0
111 149 0
108 147 0
109 147 0
112 149 0
108 146 0
113 149 0
112 149 0
107 146 0
114 150 0
110 148 0
107 146 0
114 150 0
110 148 0
111 148 0
112 149 0
111 148 0
112 149 0
110 148 0
111 148 0
110 148 0
114 150 0
103 144 0
106 145 0
107 146 0
106 145 0
106 145 0
104 144 0
106 145 0
106 146 0
104 144 0
106 146 0
106 145 0
105 145 0
105 145 0
106 145 0
104 144 0
102 143 0
105 145 0
106 145 0
105 145 0
108 147 0
102 143 0
104 144 0
105 145 0
106 145 0
105 145 0
107 146 0
104 144 0
103 144 0
106 146 0
103 144 0
104 144 0
104 144 0
107 146 0
107 146 0
104 144 0
109 147 0
103 144 0
106 145 0
107 146 0
104 144 0
105 145 0
104 144 0
104 144 0
110 148 0
105 145 0
106 146 0
104 144 0
105 145 0
105 145 0
107 146 0
105 145 0
107 146 0
105 145 0
105 145 0
104 144 0
103 144 0
103 144 0
105 145 0
105 145 0
103 143 0
103 144 0
104 144 0
103 144 0
106 145 0
106 146 0
104 144 0
106 145 0
103 144 0
104 144 0
106 145 0
105 145 0
106 146 0
103 143 0
107 146 0
104 144 0
107 146 0
103 144 0
105 145 0
104 144 0
103 144 0
106 145 0
107 146 0
106 145 0
106 145 0
105 144 0
103 143 0
104 144 0
105 145 0
104 144 0
104 144 0
105 145 0
108 146 0
103 144 0
104 144 0
106 145 0
103 143 0
107 146 0
104 144 0
104 144 0
106 145 0
107 146 0
104 144 0
107 146 0
107 146 0
103 143 0
103 144 0
106 145 0
105 145 0
105 144 0
105 145 0
104 144 0
108 147 0
104 144 0
107 146 0
106 145 0
103 144 0
103 144 0
105 145 0
103 144 0
103 143 0
105 145 0
105 145 0
106 145 0
103 144 0
103 144 0
108 146 0
104 144 0
103 143 0
103 144 0
106 145 0
105 145 0
106 145 0
106 145 0
104 144 0
103 143 0
104 144 0
105 145 0
106 145 0
106 145 0
104 144 0
108 147 0
106 145 0
107 146 0
103 144 0
106 145 0
103 144 0
108 146 0
106 146 0
104 144 0
104 144 0
108 146 0
109 147 0
105 145 0
106 145 0
104 144 0
110 148 0
105 145 0
105 145 0
106 145 0
106 145 0
104 144 0
106 145 0
109 147 0
106 145 0
103 143 0
107 146 0
107 146 0
105 144 0
105 144 0
105 145 0
106 145 0
104 144 0
104 144 0
107 146 0
106 146 0
104 144 0
108 147 0
104 144 0
107 146 0
110 147 0
105 145 0
109 147 0
106 145 0
106 145 0
105 145 0
105 145 0
105 144 0
103 143 0
106 145 0
106 146 0
106 146 0
109 147 0
104 144 0
106 146 0
105 145 0
106 145 0
107 146 0
106 145 0
104 144 0
109 147 0
107 146 0
107 146 0
109 147 0
107 146 0
108 147 0
111 148 0
109 147 0
108 147 0
107 146 0
105 145 0
105 145 0
104 144 0
109 147 0
106 146 0
110 148 0
105 145 0
105 145 0
106 145 0
111 148 0
103 144 0
106 145 0
106 145 0
107 146 0
110 148 0
107 146 0
108 146 0
107 146 0
105 145 0
105 145 0
111 148 0
105 145 0
110 148 0
104 144 0
109 147 0
109 147 0
109 147 0
111 148 0
109 147 0
112 149 0
111 148 0
109 147 0
108 146 0
110 148 0
108 146 0
104 144 0
111 148 0
112 149 0
112 149 0
108 146 0
109 147 0
112 149 0
109 147 0
110 147 0
109 147 0
108 146 0
105 145 0
108 147 0
114 150 0
107 146 0
107 146 0
111 148 0
108 146 0
108 146 0
106 145 0
109 147 0
110 148 0
106 145 0
108 147 0
109 147 0
112 149 0
114 150 0
106 146 0
107 146 0
109 147 0
108 146 0
108 147 0
113 149 0
110 148 0
109 147 0
106 145 0
106 145 0
108 147 0
111 148 0
107 146 0
108 147 0
112 149 0
115 150 0
111 148 0
111 148 0
106 146 0
118 153 0
108 146 0
114 150 0
109 147 0
114 150 0
111 148 0
115 151 0
107 146 0
107 146 0
108 146 0
109 147 0
109 147 0
113 149 0
111 149 0
113 150 0
111 148 0
111 148 0
110 148 0
112 149 0
109 147 0
113 149 0
112 149 0
105 145 0
107 146 0
114 150 0
106 145 0
109 147 0
113 149 0
107 146 0
108 146 0
107 146 0
110 148 0
110 147 0
110 148 0
109 147 0
113 150 0
115 151 0
113 149 0
111 148 0
115 151 0
108 147 0
109 147 0
113 149 0
113 149 0
108 147 0
112 149 0
107 146 0
112 149 0
106 145 0
113 150 0
106 145 0
107 146 0
113 150 0
108 146 0
111 148 0
112 149 0
108 146 0
105 145 0
114 150 0
108 147 0
110 148 0
111 149 0
109 147 0
108 146 0
110 147 0
109 147 0
107 146 0
110 148 0
107 146 0
110 148 0
112 149 0
117 152 0
110 148 0
108 147 0
107 146 0
111 148 0
115 151 0
109 147 0
108 146 0
110 148 0
114 150 0
110 148 0
108 147 0
107 146 0
110 148 0
109 147 0
109 147 0
111 149 0
111 148 0
112 149 0
108 147 0
113 149 0
111 149 0
113 150 0
114 150 0
113 149 0
107 146 0
108 147 0
111 148 0
110 148 0
111 148 0
108 146 0
113 150 0
111 148 0
110 148 0
111 148 0
114 150 0
107 146 0
108 146 0
114 150 0
105 145 0
106 145 0
103 143 0
108 146 0
108 146 0
103 144 0
107 146 0
108 147 0
107 146 0
105 145 0
104 144 0
105 145 0
108 146 0
106 145 0
105 145 0
106 145 0
110 148 0
105 145 0
107 146 0
105 145 0
108 146 0
107 146 0
106 145 0
107 146 0
104 144 0
104 144 0
103 143 0
106 145 0
106 146 0
107 146 0
107 146 0
105 145 0
106 145 0
104 144 0
110 147 0
105 144 0
108 147 0
104 144 0
103 144 0
106 145 0
107 146 0
104 144 0
106 145 0
104 144 0
103 144 0
105 144 0
105 144 0
107 146 0
106 145 0
103 143 0
105 145 0
104 144 0
105 145 0
102 143 0
105 145 0
103 144 0
104 144 0
107 146 0
106 145 0
106 145 0
105 145 0
103 143 0
110 148 0
107 146 0
105 145 0
104 144 0
105 144 0
103 144 0
104 144 0
105 145 0
104 144 0
106 145 0
106 146 0
107 146 0
105 145 0
105 145 0
107 146 0
108 147 0
105 145 0
105 145 0
106 145 0
106 145 0
105 145 0
102 143 0
103 143 0
104 144 0
104 144 0
105 145 0
104 144 0
105 145 0
104 144 0
106 146 0
106 146 0
103 144 0
106 145 0
105 145 0
106 145 0
104 144 0
102 143 0
105 145 0
104 144 0
106 145 0
104 144 0
106 146 0
106 145 0
105 145 0
104 144 0
105 145 0
110 147 0
103 144 0
110 148 0
103 143 0
105 144 0
105 145 0
105 145 0
105 145 0
105 145 0
104 144 0
105 145 0
107 146 0
105 145 0
106 145 0
105 145 0
105 145 0
106 145 0
105 145 0
105 145 0
107 146 0
104 144 0
105 144 0
104 144 0
104 144 0
105 145 0
105 145 0
105 145 0
104 144 0
105 145 0
105 145 0
104 144 0
107 146 0
106 145 0
103 144 0
105 144 0
110 148 0
108 147 0
105 145 0
105 145 0
106 145 0
107 146 0
105 145 0
105 145 0
105 144 0
104 144 0
108 146 0
104 144 0
109 147 0
103 144 0
106 145 0
105 145 0
105 145 0
105 145 0
105 145 0
107 146 0
105 144 0
105 145 0
107 146 0
105 144 0
105 144 0
104 144 0
106 145 0
104 144 0
105 145 0
104 144 0
106 145 0
106 145 0
105 145 0
107 146 0
107 146 0
106 145 0
107 146 0
104 144 0
108 147 0
106 145 0
104 144 0
105 145 0
107 146 0
106 145 0
110 147 0
104 144 0
106 146 0
104 144 0
107 146 0
107 146 0
104 144 0
105 145 0
110 148 0
105 145 0
108 146 0
106 146 0
106 145 0
110 147 0
106 145 0
104 144 0
106 146 0
106 145 0
106 145 0
110 148 0
106 145 0
108 146 0
113 150 0
104 144 0
106 145 0
106 145 0
105 145 0
108 146 0
106 145 0
108 147 0
108 146 0
108 146 0
106 146 0
108 147 0
104 144 0
109 147 0
106 146 0
112 149 0
106 145 0
111 148 0
111 148 0
109 147 0
107 146 0
108 147 0
109 147 0
111 148 0
110 148 0
107 146 0
107 146 0
111 149 0
109 147 0
107 146 0
110 148 0
110 148 0
110 148 0
114 150 0
111 148 0
114 150 0
112 149 0
108 146 0
108 146 0
110 148 0
104 144 0
110 147 0
113 149 0
109 147 0
107 146 0
114 150 0
108 146 0
109 147 0
112 149 0
106 145 0
113 150 0
110 148 0
110 148 0
112 149 0
110 148 0
106 146 0
112 149 0
114 150 0
113 149 0
108 147 0
109 147 0
108 147 0
110 148 0
110 148 0
109 147 0
111 148 0
106 145 0
108 147 0
108 147 0
112 149 0
111 148 0
107 146 0
116 151 0
107 146 0
111 148 0
105 145 0
109 147 0
108 147 0
112 149 0
108 147 0
106 145 0
111 148 0
106 145 0
108 147 0
112 149 0
108 147 0
106 145 0
110 148 0
113 150 0
104 144 0
107 146 0
109 147 0
108 147 0
116 151 0
110 148 0
109 147 0
117 152 0
113 150 0
114 150 0
109 147 0
107 146 0
113 149 0
109 147 0
112 149 0
110 148 0
106 145 0
113 150 0
111 148 0
115 151 0
106 145 0
109 147 0
110 148 0
106 146 0
112 149 0
107 146 0
110 148 0
109 147 0
109 147 0
107 146 0
112 149 0
106 145 0
113 149 0
109 147 0
108 147 0
111 148 0
112 149 0
110 148 0
110 148 0
104 144 0
119 153 0
113 150 0
113 150 0
109 147 0
112 149 0
107 146 0
113 150 0
114 150 0
110 148 0
108 146 0
114 150 0
105 145 0
106 145 0
113 150 0
109 147 0
113 150 0
108 146 0
114 150 0
106 145 0
115 151 0
111 148 0
107 146 0
110 148 0
110 148 0
107 146 0
110 148 0
111 148 0
111 149 0
113 149 0
108 147 0
116 151 0
109 147 0
114 150 0
109 147 0
108 146 0
113 150 0
113 150 0
114 150 0
107 146 0
112 149 0
114 150 0
114 150 0
110 148 0
111 148 0
109 147 0
111 148 0
107 146 0
113 150 0
110 147 0
113 150 0
113 149 0
114 150 0
113 150 0
110 148 0
109 147 0
109 147 0
109 147 0
111 149 0
111 149 0
111 148 0
112 149 0
109 147 0
108 147 0
105 145 0
105 145 0
102 143 0
105 144 0
105 145 0
107 146 0
106 146 0
105 144 0
106 145 0
104 144 0
108 146 0
105 145 0
103 144 0
103 144 0
107 146 0
103 144 0
105 144 0
105 145 0
107 146 0
104 144 0
104 144 0
105 145 0
104 144 0
109 147 0
105 145 0
103 143 0
104 144 0
110 148 0
108 146 0
105 145 0
105 145 0
108 147 0
104 144 0
104 144 0
106 145 0
104 144 0
108 146 0
109 147 0
105 145 0
104 144 0
107 146 0
105 145 0
108 147 0
105 145 0
106 145 0
106 146 0
106 145 0
104 144 0
103 144 0
106 145 0
109 147 0
109 147 0
107 146 0
106 145 0
105 145 0
107 146 0
104 144 0
103 143 0
108 146 0
104 144 0
105 145 0
106 145 0
105 145 0
105 145 0
109 147 0
105 145 0
109 147 0
107 146 0
105 145 0
105 145 0
106 145 0
107 146 0
103 144 0
105 144 0
103 144 0
107 146 0
103 144 0
106 145 0
107 146 0
104 144 0
106 145 0
105 145 0
106 145 0
106 146 0
103 143 0
106 145 0
105 145 0
104 144 0
111 148 0
105 145 0
108 147 0
106 145 0
105 145 0
106 145 0
104 144 0
106 145 0
103 144 0
108 147 0
107 146 0
105 144 0
107 146 0
104 144 0
105 145 0
105 145 0
102 143 0
106 145 0
106 146 0
109 147 0
104 144 0
106 146 0
104 144 0
103 144 0
106 145 0
104 144 0
104 144 0
106 145 0
104 144 0
105 145 0
105 144 0
108 146 0
106 145 0
105 145 0
105 145 0
104 144 0
104 144 0
105 145 0
104 144 0
105 145 0
106 146 0
104 144 0
106 145 0
105 145 0
107 146 0
105 145 0
104 144 0
106 145 0
105 144 0
109 147 0
103 144 0
108 147 0
108 147 0
107 146 0
106 145 0
103 143 0
108 146 0
104 144 0
103 144 0
105 145 0
108 146 0
105 145 0
107 146 0
104 144 0
104 144 0
104 144 0
109 147 0
108 147 0
105 145 0
109 147 0
109 147 0
105 145 0
107 146 0
106 145 0
105 145 0
107 146 0
103 144 0
103 144 0
104 144 0
107 146 0
107 146 0
111 148 0
107 146 0
105 145 0
109 147 0
104 144 0
106 145 0
107 146 0
109 147 0
106 145 0
105 145 0
106 145 0
112 149 0
106 145 0
104 144 0
111 149 0
108 147 0
106 145 0
108 147 0
108 146 0
105 145 0
109 147 0
105 145 0
112 149 0
107 146 0
106 145 0
113 149 0
106 145 0
105 145 0
104 144 0
109 147 0
108 147 0
107 146 0
110 148 0
107 146 0
107 146 0
104 144 0
107 146 0
105 145 0
107 146 0
109 147 0
107 146 0
110 148 0
104 144 0
111 148 0
111 148 0
108 147 0
104 144 0
105 145 0
114 150 0
106 145 0
110 148 0
108 147 0
110 148 0
109 147 0
112 149 0
106 145 0
109 147 0
106 145 0
108 147 0
113 150 0
107 146 0
109 147 0
110 148 0
108 147 0
114 150 0
107 146 0
105 145 0
107 146 0
110 148 0
105 145 0
108 146 0
111 148 0
108 147 0
108 147 0
107 146 0
110 148 0
113 150 0
114 150 0
107 146 0
112 149 0
112 149 0
110 148 0
105 145 0
114 150 0
105 144 0
108 146 0
108 147 0
107 146 0
111 148 0
114 150 0
110 148 0
107 146 0
108 147 0
115 151 0
109 147 0
112 149 0
111 148 0
107 146 0
106 145 0
106 145 0
113 150 0
112 149 0
112 149 0
112 149 0
106 145 0
109 147 0
116 151 0
111 149 0
108 147 0
111 149 0
115 151 0
112 149 0
111 148 0
107 146 0
110 148 0
105 145 0
116 151 0
110 148 0
116 151 0
112 149 0
112 149 0
110 148 0
111 148 0
113 150 0
111 148 0
113 149 0
112 149 0
112 149 0
106 146 0
112 149 0
111 148 0
113 150 0
106 145 0
111 148 0
108 147 0
107 146 0
108 146 0
113 149 0
105 145 0
112 149 0
115 150 0
108 147 0
114 150 0
109 147 0
110 148 0
114 150 0
112 149 0
112 149 0
108 146 0
110 148 0
107 146 0
114 150 0
110 148 0
109 147 0
110 148 0
110 148 0
109 147 0
116 152 0
116 151 0
108 146 0
106 145 0
110 148 0
112 149 0
112 149 0
105 145 0
105 145 0
111 148 0
112 149 0
111 148 0
108 147 0
108 147 0
112 149 0
109 147 0
107 146 0
108 146 0
113 149 0
109 147 0
117 152 0
111 148 0
108 147 0
109 147 0
104 144 0
112 149 0
113 149 0
110 148 0
110 147 0
111 148 0
113 150 0
112 149 0
117 152 0
112 149 0
107 146 0
108 147 0
112 149 0
109 147 0
107 146 0
107 146 0
108 146 0
107 146 0
112 149 0
109 147 0
109 147 0
113 150 0
106 145 0
108 146 0
108 147 0
114 150 0
108 147 0
111 148 0
107 146 0
109 147 0
114 150 0
111 148 0
111 148 0
114 150 0
117 152 0
107 146 0
114 150 0
109 147 0
108 147 0
112 149 0
113 149 0
110 147 0
108 147 0
115 151 0
109 147 0
110 147 0
109 147 0
109 147 0
111 148 0
104 144 0
107 146 0
106 145 0
106 145 0
103 143 0
107 146 0
104 144 0
104 144 0
108 147 0
106 145 0
106 145 0
106 145 0
107 146 0
105 145 0
110 147 0
106 145 0
106 145 0
108 146 0
105 145 0
103 144 0
105 145 0
105 145 0
104 144 0
105 145 0
106 145 0
105 144 0
105 144 0
104 144 0
103 144 0
105 145 0
103 143 0
107 146 0
103 144 0
105 145 0
106 145 0
104 144 0
105 145 0
106 146 0
106 145 0
105 145 0
104 144 0
105 145 0
104 144 0
105 145 0
106 145 0
104 144 0
105 145 0
106 145 0
105 145 0
106 145 0
104 144 0
107 146 0
103 144 0
104 144 0
104 144 0
103 144 0
104 144 0
105 145 0
105 145 0
105 145 0
103 144 0
107 146 0
104 144 0
105 144 0
108 146 0
104 144 0
108 146 0
106 145 0
103 143 0
104 144 0
105 145 0
106 145 0
104 144 0
104 144 0
105 145 0
107 146 0
106 145 0
104 144 0
107 146 0
104 144 0
106 145 0
106 145 0
105 145 0
103 143 0
103 144 0
103 144 0
102 143 0
104 144 0
104 144 0
104 144 0
107 146 0
105 145 0
103 144 0
104 144 0
106 145 0
106 145 0
104 144 0
107 146 0
106 146 0
105 145 0
106 145 0
103 144 0
104 144 0
103 144 0
106 145 0
104 144 0
103 143 0
106 145 0
105 145 0
107 146 0
108 146 0
104 144 0
107 146 0
104 144 0
105 145 0
107 146 0
104 144 0
105 145 0
104 144 0
105 145 0
103 144 0
104 144 0
106 145 0
105 145 0
105 145 0
107 146 0
104 144 0
104 144 0
103 143 0
106 145 0
104 144 0
107 146 0
104 144 0
104 144 0
106 145 0
104 144 0
104 144 0
105 145 0
103 144 0
103 143 0
106 145 0
104 144 0
107 146 0
104 144 0
107 146 0
107 146 0
104 144 0
105 145 0
109 147 0
104 144 0
109 147 0
107 146 0
102 143 0
107 146 0
104 144 0
103 144 0
107 146 0
103 144 0
105 144 0
104 144 0
107 146 0
104 144 0
105 145 0
103 144 0
103 144 0
103 144 0
104 144 0
106 145 0
103 143 0
105 145 0
108 146 0
104 144 0
105 145 0
105 145 0
106 145 0
104 144 0
105 145 0
109 147 0
106 145 0
108 147 0
108 147 0
108 146 0
103 143 0
107 146 0
109 147 0
106 145 0
103 143 0
103 144 0
107 146 0
110 148 0
107 146 0
106 146 0
106 145 0
107 146 0
106 145 0
115 151 0
111 148 0
104 144 0
106 145 0
108 146 0
108 146 0
110 148 0
108 146 0
105 145 0
108 147 0
106 146 0
108 147 0
104 144 0
104 144 0
108 146 0
109 147 0
108 146 0
105 145 0
108 146 0
106 145 0
108 147 0
106 145 0
110 148 0
108 146 0
108 146 0
108 146 0
111 148 0
112 149 0
111 148 0
108 146 0
105 145 0
105 145 0
105 145 0
105 145 0
113 150 0
108 146 0
105 145 0
110 147 0
110 148 0
110 148 0
104 144 0
107 146 0
105 145 0
111 148 0
109 147 0
111 148 0
108 147 0
107 146 0
108 147 0
111 148 0
109 147 0
104 144 0
110 147 0
111 148 0
108 147 0
111 148 0
110 148 0
110 148 0
109 147 0
109 147 0
107 146 0
108 146 0
111 148 0
114 150 0
106 145 0
111 148 0
106 146 0
111 149 0
113 150 0
107 146 0
108 146 0
107 146 0
114 150 0
112 149 0
108 146 0
110 148 0
114 150 0
110 148 0
109 147 0
117 152 0
115 151 0
110 148 0
110 148 0
110 147 0
108 147 0
110 148 0
117 152 0
108 147 0
109 147 0
112 149 0
108 147 0
109 147 0
108 147 0
113 150 0
112 149 0
108 146 0
111 148 0
120 154 0
111 148 0
109 147 0
114 150 0
111 149 0
113 149 0
110 148 0
112 149 0
113 149 0
109 147 0
111 148 0
110 148 0
110 148 0
112 149 0
106 146 0
111 148 0
110 148 0
110 148 0
110 148 0
111 148 0
112 149 0
113 149 0
107 146 0
115 151 0
108 146 0
109 147 0
114 150 0
109 147 0
109 147 0
107 146 0
115 151 0
116 151 0
110 148 0
117 152 0
111 148 0
113 149 0
110 148 0
109 147 0
107 146 0
108 147 0
107 146 0
107 146 0
108 146 0
109 147 0
110 147 0
108 146 0
108 147 0
109 147 0
114 150 0
112 149 0
108 147 0
108 146 0
107 146 0
111 148 0
112 149 0
115 150 0
108 146 0
109 147 0
110 147 0
113 149 0
109 147 0
113 149 0
110 148 0
106 145 0
112 149 0
111 148 0
108 146 0
113 149 0
108 146 0
112 149 0
113 149 0
119 153 0
107 146 0
109 147 0
112 149 0
110 148 0
113 149 0
109 147 0
111 148 0
109 147 0
113 149 0
109 147 0
110 148 0
111 148 0
109 147 0
108 147 0
112 149 0
104 144 0
109 147 0
109 147 0
107 146 0
112 149 0
108 146 0
107 146 0
114 150 0
111 148 0
109 147 0
114 150 0
112 149 0
113 150 0
116 151 0
119 153 0
117 152 0
111 149 0
111 149 0
112 149 0
112 149 0
111 149 0
107 146 0
108 147 0
108 146 0
107 146 0
107 146 0
105 145 0
106 145 0
105 145 0
107 146 0
104 144 0
107 146 0
103 143 0
102 143 0
105 145 0
105 145 0
106 145 0
104 144 0
104 144 0
103 144 0
105 145 0
104 144 0
108 147 0
106 145 0
106 145 0
104 144 0
103 144 0
104 144 0
107 146 0
104 144 0
108 146 0
106 145 0
104 144 0
106 145 0
106 145 0
108 147 0
103 144 0
104 144 0
103 143 0
105 145 0
110 148 0
104 144 0
104 144 0
108 146 0
104 144 0
105 145 0
107 146 0
107 146 0
107 146 0
104 144 0
106 145 0
108 147 0
105 145 0
104 144 0
105 145 0
104 144 0
103 143 0
108 146 0
105 144 0
104 144 0
104 144 0
104 144 0
105 145 0
105 144 0
103 143 0
107 146 0
104 144 0
104 144 0
104 144 0
103 143 0
105 145 0
106 145 0
107 146 0
103 144 0
104 144 0
107 146 0
105 145 0
105 145 0
106 145 0
106 145 0
104 144 0
105 145 0
105 145 0
106 145 0
104 144 0
105 145 0
106 145 0
106 146 0
105 145 0
102 143 0
108 147 0
110 147 0
105 145 0
104 144 0
105 145 0
105 145 0
107 146 0
104 144 0
104 144 0
103 144 0
102 143 0
107 146 0
105 145 0
107 146 0
105 145 0
107 146 0
105 144 0
103 144 0
103 144 0
104 144 0
106 145 0
106 145 0
107 146 0
103 144 0
106 145 0
106 145 0
106 146 0
107 146 0
103 144 0
105 144 0
108 147 0
105 145 0
106 145 0
106 145 0
105 145 0
107 146 0
103 143 0
104 144 0
104 144 0
104 144 0
104 144 0
105 145 0
105 145 0
103 143 0
104 144 0
105 145 0
106 146 0
106 145 0
108 147 0
105 145 0
102 143 0
106 145 0
102 143 0
104 144 0
105 145 0
105 145 0
106 146 0
104 144 0
104 144 0
105 145 0
103 143 0
103 143 0
106 145 0
107 146 0
105 145 0
103 143 0
104 144 0
107 146 0
105 145 0
105 144 0
107 146 0
105 145 0
105 145 0
109 147 0
106 145 0
104 144 0
105 144 0
104 144 0
104 144 0
105 145 0
108 146 0
105 145 0
104 144 0
104 144 0
105 145 0
109 147 0
107 146 0
108 146 0
104 144 0
104 144 0
108 147 0
109 147 0
104 144 0
111 149 0
111 148 0
106 145 0
108 147 0
106 145 0
111 148 0
104 144 0
108 147 0
111 148 0
111 148 0
108 146 0
107 146 0
104 144 0
105 145 0
106 145 0
106 145 0
110 147 0
105 145 0
106 145 0
106 145 0
110 148 0
111 149 0
103 143 0
105 145 0
109 147 0
104 144 0
106 145 0
113 149 0
106 145 0
108 147 0
108 146 0
108 147 0
109 147 0
105 145 0
106 145 0
109 147 0
111 148 0
106 146 0
106 145 0
110 148 0
109 147 0
110 148 0
108 147 0
109 147 0
106 145 0
106 146 0
112 149 0
104 144 0
109 147 0
110 148 0
108 147 0
107 146 0
107 146 0
106 145 0
107 146 0
104 144 0
109 147 0
107 146 0
109 147 0
110 148 0
111 148 0
115 151 0
111 149 0
108 146 0
109 147 0
108 146 0
109 147 0
111 148 0
111 148 0
111 148 0
106 145 0
114 150 0
107 146 0
109 147 0
111 148 0
106 146 0
107 146 0
106 145 0
110 148 0
110 148 0
110 148 0
107 146 0
107 146 0
107 146 0
111 148 0
112 149 0
112 149 0
112 149 0
107 146 0
117 152 0
110 148 0
112 149 0
107 146 0
105 145 0
108 147 0
110 148 0
109 147 0
110 147 0
110 148 0
105 145 0
116 151 0
114 150 0
112 149 0
111 149 0
107 146 0
110 148 0
109 147 0
110 148 0
110 148 0
113 149 0
110 148 0
108 147 0
111 149 0
108 146 0
112 149 0
114 150 0
109 147 0
111 149 0
110 147 0
109 147 0
112 149 0
111 148 0
115 151 0
110 148 0
110 148 0
109 147 0
112 149 0
112 149 0
115 151 0
111 149 0
108 146 0
113 150 0
111 149 0
113 150 0
110 148 0
109 147 0
112 149 0
106 146 0
111 148 0
113 150 0
107 146 0
110 148 0
116 151 0
116 151 0
108 146 0
109 147 0
108 146 0
108 146 0
112 149 0
110 148 0
113 150 0
113 150 0
109 147 0
111 148 0
110 148 0
110 148 0
110 148 0
109 147 0
113 149 0
116 152 0
110 148 0
111 148 0
116 151 0
111 148 0
109 147 0
108 147 0
115 151 0
108 146 0
107 146 0
114 150 0
112 149 0
112 149 0
109 147 0
111 149 0
113 150 0
110 148 0
112 149 0
108 146 0
111 148 0
114 150 0
112 149 0
111 148 0
115 151 0
107 146 0
109 147 0
114 150 0
111 148 0
114 150 0
106 146 0
105 145 0
109 147 0
113 150 0
109 147 0
111 148 0
109 147 0
117 152 0
109 147 0
110 148 0
113 149 0
114 150 0
109 147 0
111 149 0
110 148 0
110 148 0
110 148 0
110 148 0
112 149 0
113 150 0
115 151 0
106 145 0
115 151 0
107 146 0
112 149 0
109 147 0
113 150 0
111 148 0
110 148 0
110 148 0
103 144 0
105 144 0
106 145 0
104 144 0
106 145 0
104 144 0
102 143 0
104 144 0
108 146 0
107 146 0
103 143 0
106 145 0
104 144 0
104 144 0
105 145 0
105 145 0
106 145 0
105 144 0
106 145 0
105 145 0
107 146 0
104 144 0
106 145 0
104 144 0
105 145 0
104 144 0
106 145 0
106 145 0
103 144 0
105 145 0
104 144 0
104 144 0
104 144 0
107 146 0
107 146 0
106 145 0
104 144 0
107 146 0
112 149 0
103 144 0
107 146 0
105 145 0
104 144 0
105 145 0
108 147 0
105 145 0
103 143 0
105 145 0
105 145 0
106 145 0
104 144 0
108 147 0
104 144 0
107 146 0
106 145 0
105 145 0
104 144 0
103 144 0
104 144 0
104 144 0
105 144 0
106 145 0
103 144 0
106 146 0
105 145 0
104 144 0
107 146 0
108 147 0
103 143 0
104 144 0
104 144 0
107 146 0
104 144 0
105 145 0
105 145 0
103 143 0
105 145 0
105 144 0
103 143 0
104 144 0
105 145 0
104 144 0
105 144 0
103 143 0
106 145 0
103 144 0
104 144 0
106 145 0
104 144 0
106 145 0
104 144 0
104 144 0
105 145 0
107 146 0
104 144 0
106 145 0
103 144 0
106 145 0
106 145 0
105 145 0
106 146 0
105 145 0
104 144 0
104 144 0
104 144 0
107 146 0
106 146 0
106 145 0
108 146 0
104 144 0
106 145 0
107 146 0
105 145 0
104 144 0
103 144 0
105 144 0
105 145 0
105 144 0
104 144 0
105 145 0
106 145 0
105 145 0
104 144 0
104 144 0
105 145 0
106 146 0
107 146 0
103 143 0
107 146 0
105 145 0
105 144 0
105 145 0
105 145 0
107 146 0
105 145 0
104 144 0
104 144 0
105 145 0
104 144 0
106 145 0
107 146 0
106 146 0
102 143 0
103 143 0
105 145 0
105 145 0
104 144 0
104 144 0
107 146 0
105 145 0
106 145 0
107 146 0
107 146 0
103 144 0
104 144 0
103 144 0
104 144 0
104 144 0
104 144 0
104 144 0
107 146 0
105 145 0
105 145 0
104 144 0
108 147 0
105 145 0
106 145 0
104 144 0
104 144 0
107 146 0
106 145 0
106 145 0
103 143 0
106 145 0
106 145 0
107 146 0
105 145 0
104 144 0
104 144 0
108 146 0
108 147 0
106 146 0
108 146 0
108 146 0
106 146 0
113 149 0
112 149 0
107 146 0
105 145 0
106 145 0
105 145 0
107 146 0
108 147 0
104 144 0
112 149 0
112 149 0
105 145 0
110 147 0
105 145 0
105 145 0
106 146 0
105 145 0
107 146 0
109 147 0
106 145 0
108 146 0
105 145 0
108 147 0
107 146 0
109 147 0
107 146 0
108 147 0
103 144 0
105 145 0
105 145 0
106 145 0
107 146 0
107 146 0
110 148 0
105 145 0
105 145 0
113 149 0
107 146 0
105 144 0
106 145 0
108 146 0
108 146 0
107 146 0
107 146 0
103 144 0
112 149 0
109 147 0
109 147 0
109 147 0
109 147 0
108 146 0
110 148 0
109 147 0
112 149 0
114 150 0
106 145 0
110 148 0
110 148 0
116 151 0
114 150 0
107 146 0
108 146 0
111 149 0
112 149 0
108 146 0
111 148 0
113 149 0
108 147 0
104 144 0
107 146 0
110 148 0
106 145 0
110 148 0
107 146 0
112 149 0
113 149 0
108 147 0
108 146 0
114 150 0
115 151 0
116 151 0
112 149 0
107 146 0
112 149 0
108 147 0
104 144 0
109 147 0
111 149 0
108 147 0
107 146 0
112 149 0
111 148 0
112 149 0
104 144 0
110 148 0
107 146 0
107 146 0
108 147 0
110 148 0
115 151 0
112 149 0
107 146 0
107 146 0
108 146 0
112 149 0
109 147 0
109 147 0
112 149 0
109 147 0
111 148 0
109 147 0
107 146 0
112 149 0
107 146 0
110 148 0
107 146 0
111 148 0
111 148 0
119 153 0
112 149 0
111 148 0
108 147 0
109 147 0
109 147 0
113 150 0
109 147 0
112 149 0
116 151 0
112 149 0
112 149 0
114 150 0
110 148 0
112 149 0
113 149 0
110 148 0
111 148 0
109 147 0
111 149 0
109 147 0
108 147 0
110 148 0
108 147 0
111 148 0
103 144 0
110 147 0
111 148 0
109 147 0
112 149 0
108 146 0
110 148 0
109 147 0
110 148 0
117 152 0
113 150 0
111 148 0
109 147 0
109 147 0
112 149 0
106 145 0
108 147 0
117 152 0
113 149 0
109 147 0
109 147 0
110 147 0
109 147 0
107 146 0
110 148 0
114 150 0
112 149 0
111 148 0
111 148 0
105 145 0
108 146 0
111 148 0
108 147 0
111 148 0
110 147 0
111 148 0
114 150 0
110 148 0
112 149 0
108 147 0
113 150 0
109 147 0
111 148 0
111 148 0
110 148 0
112 149 0
108 146 0
111 148 0
110 148 0
113 150 0
119 153 0
111 148 0
113 150 0
108 147 0
110 148 0
114 150 0
111 148 0
110 148 0
110 148 0
114 150 0
114 150 0
110 148 0
118 153 0
110 148 0
113 150 0
114 150 0
109 147 0
111 149 0
113 149 0
108 146 0
113 150 0
110 148 0
103 144 0
104 144 0
105 144 0
103 144 0
110 147 0
102 143 0
109 147 0
107 146 0
106 145 0
108 146 0
105 145 0
106 145 0
104 144 0
108 147 0
105 144 0
106 145 0
105 145 0
111 148 0
103 143 0
107 146 0
106 145 0
104 144 0
107 146 0
107 146 0
104 144 0
106 145 0
104 144 0
106 145 0
106 145 0
106 145 0
109 147 0
105 145 0
106 145 0
104 144 0
107 146 0
105 145 0
104 144 0
107 146 0
108 147 0
104 144 0
105 145 0
104 144 0
106 145 0
104 144 0
105 145 0
109 147 0
103 144 0
107 146 0
106 145 0
106 145 0
104 144 0
104 144 0
106 145 0
104 144 0
104 144 0
105 145 0
104 144 0
103 143 0
109 147 0
105 145 0
104 144 0
105 145 0
106 145 0
105 145 0
104 144 0
104 144 0
103 144 0
104 144 0
106 145 0
105 145 0
108 146 0
106 145 0
104 144 0
106 145 0
104 144 0
107 146 0
103 144 0
106 145 0
105 145 0
106 145 0
108 146 0
105 145 0
105 144 0
103 144 0
106 145 0
104 144 0
106 145 0
103 143 0
107 146 0
105 145 0
106 145 0
107 146 0
104 144 0
105 145 0
103 144 0
105 145 0
104 144 0
103 143 0
104 144 0
106 145 0
105 145 0
104 144 0
107 146 0
106 145 0
109 147 0
104 144 0
107 146 0
104 144 0
105 145 0
104 144 0
106 145 0
106 146 0
108 147 0
105 145 0
108 146 0
106 145 0
105 145 0
102 143 0
104 144 0
105 145 0
105 145 0
105 145 0
106 146 0
103 143 0
106 146 0
104 144 0
107 146 0
107 146 0
106 145 0
103 144 0
104 144 0
109 147 0
105 145 0
104 144 0
106 145 0
105 145 0
103 144 0
109 147 0
105 145 0
106 145 0
104 144 0
103 144 0
104 144 0
106 145 0
103 144 0
105 145 0
107 146 0
106 145 0
104 144 0
106 145 0
105 145 0
103 144 0
104 144 0
104 144 0
106 145 0
104 144 0
106 145 0
106 145 0
107 146 0
106 145 0
105 145 0
104 144 0
103 143 0
106 146 0
106 145 0
104 144 0
107 146 0
108 147 0
104 144 0
105 144 0
105 145 0
105 144 0
110 148 0
105 145 0
110 148 0
106 146 0
107 146 0
104 144 0
106 145 0
103 143 0
106 145 0
103 144 0
108 146 0
110 148 0
109 147 0
106 145 0
104 144 0
109 147 0
106 146 0
109 147 0
109 147 0
105 145 0
107 146 0
104 144 0
106 145 0
110 147 0
111 148 0
104 144 0
108 147 0
107 146 0
107 146 0
107 146 0
115 151 0
106 145 0
107 146 0
104 144 0
112 149 0
106 146 0
108 147 0
107 146 0
108 146 0
105 145 0
105 145 0
110 147 0
108 146 0
105 145 0
107 146 0
111 148 0
109 147 0
113 150 0
107 146 0
106 145 0
107 146 0
110 148 0
112 149 0
111 148 0
110 148 0
106 145 0
107 146 0
109 147 0
114 150 0
110 147 0
107 146 0
110 148 0
107 146 0
106 145 0
108 146 0
107 146 0
107 146 0
113 150 0
116 151 0
107 146 0
109 147 0
110 148 0
108 147 0
110 148 0
112 149 0
108 146 0
114 150 0
113 150 0
108 146 0
111 149 0
113 149 0
107 146 0
115 151 0
107 146 0
113 150 0
105 144 0
106 146 0
105 145 0
109 147 0
105 145 0
107 146 0
113 150 0
107 146 0
110 148 0
111 148 0
118 152 0
113 149 0
111 148 0
113 149 0
110 148 0
107 146 0
110 148 0
115 151 0
109 147 0
108 147 0
112 149 0
108 146 0
115 150 0
108 146 0
107 146 0
119 153 0
106 145 0
114 150 0
113 150 0
108 146 0
110 147 0
111 148 0
111 149 0
106 145 0
106 146 0
114 150 0
110 148 0
109 147 0
114 150 0
110 148 0
113 149 0
108 147 0
107 146 0
106 146 0
110 148 0
111 148 0
110 148 0
108 146 0
113 150 0
107 146 0
107 146 0
111 149 0
108 146 0
110 148 0
109 147 0
108 147 0
113 149 0
115 150 0
109 147 0
111 148 0
113 149 0
110 147 0
110 147 0
107 146 0
112 149 0
112 149 0
110 148 0
111 148 0
106 145 0
114 150 0
110 147 0
113 150 0
111 148 0
109 147 0
106 145 0
107 146 0
107 146 0
110 148 0
113 150 0
110 148 0
113 149 0
114 150 0
115 151 0
109 147 0
110 148 0
107 146 0
111 148 0
111 148 0
106 145 0
111 148 0
109 147 0
115 151 0
107 146 0
113 150 0
109 147 0
108 147 0
115 151 0
109 147 0
108 146 0
108 146 0
117 152 0
112 149 0
110 148 0
111 149 0
109 147 0
108 147 0
109 147 0
110 148 0
112 149 0
110 148 0
111 148 0
112 149 0
114 150 0
111 148 0
111 148 0
111 148 0
111 148 0
112 149 0
112 149 0
116 151 0
115 150 0
111 148 0
106 145 0
114 150 0
113 150 0
110 148 0
112 149 0
119 153 0
113 149 0
112 149 0
110 147 0
109 147 0
114 150 0
112 149 0
109 147 0
112 149 0
112 149 0
111 148 0
111 148 0
114 150 0
112 149 0
109 147 0
106 146 0
107 146 0
105 145 0
105 145 0
106 145 0
105 145 0
105 145 0
103 144 0
104 144 0
105 145 0
107 146 0
103 143 0
107 146 0
105 145 0
104 144 0
105 145 0
104 144 0
104 144 0
107 146 0
106 145 0
104 144 0
107 146 0
104 144 0
106 145 0
108 147 0
104 144 0
104 144 0
104 144 0
104 144 0
106 145 0
105 145 0
103 143 0
105 145 0
108 146 0
106 145 0
104 144 0
105 145 0
103 144 0
104 144 0
104 144 0
103 144 0
103 144 0
107 146 0
105 144 0
110 148 0
103 144 0
103 144 0
106 145 0
104 144 0
103 144 0
106 145 0
104 144 0
104 144 0
106 145 0
107 146 0
107 146 0
106 145 0
106 145 0
105 145 0
104 144 0
103 144 0
106 145 0
103 144 0
105 144 0
104 144 0
105 145 0
105 145 0
105 145 0
105 144 0
108 147 0
104 144 0
108 146 0
103 144 0
103 144 0
105 145 0
105 145 0
104 144 0
103 144 0
104 144 0
107 146 0
106 145 0
104 144 0
106 146 0
105 145 0
104 144 0
105 145 0
103 144 0
105 144 0
104 144 0
105 145 0
105 145 0
105 145 0
106 145 0
104 144 0
104 144 0
106 146 0
104 144 0
106 146 0
109 147 0
104 144 0
104 144 0
107 146 0
105 144 0
110 147 0
104 144 0
105 145 0
106 145 0
103 143 0
105 145 0
104 144 0
104 144 0
104 144 0
105 145 0
103 143 0
103 144 0
105 145 0
107 146 0
106 145 0
105 145 0
107 146 0
104 144 0
108 146 0
106 145 0
106 145 0
105 145 0
106 146 0
103 144 0
105 145 0
108 146 0
105 145 0
103 143 0
104 144 0
104 144 0
104 144 0
105 145 0
103 144 0
104 144 0
106 145 0
106 145 0
105 145 0
106 145 0
106 145 0
108 146 0
106 145 0
104 144 0
103 143 0
109 147 0
106 146 0
106 145 0
104 144 0
106 145 0
104 144 0
108 146 0
104 144 0
103 143 0
104 144 0
107 146 0
109 147 0
105 145 0
108 146 0
102 143 0
107 146 0
104 144 0
104 144 0
104 144 0
103 144 0
109 147 0
107 146 0
106 145 0
105 145 0
104 144 0
105 144 0
111 148 0
105 145 0
108 146 0
106 145 0
105 145 0
106 146 0
109 147 0
106 145 0
104 144 0
105 145 0
105 145 0
105 145 0
106 145 0
107 146 0
108 147 0
106 145 0
107 146 0
105 145 0
103 144 0
107 146 0
104 144 0
107 146 0
105 145 0
108 146 0
106 145 0
107 146 0
109 147 0
110 148 0
105 145 0
112 149 0
105 144 0
109 147 0
105 145 0
106 146 0
104 144 0
105 145 0
104 144 0
106 145 0
105 145 0
104 144 0
105 145 0
105 144 0
104 144 0
108 146 0
108 146 0
111 149 0
107 146 0
109 147 0
104 144 0
106 145 0
106 146 0
112 149 0
106 145 0
107 146 0
108 147 0
108 147 0
108 146 0
106 146 0
105 145 0
108 147 0
108 147 0
108 146 0
109 147 0
112 149 0
106 146 0
112 149 0
111 148 0
108 146 0
110 148 0
111 149 0
110 148 0
104 144 0
108 146 0
110 148 0
110 148 0
107 146 0
117 152 0
108 147 0
111 148 0
107 146 0
107 146 0
110 147 0
115 151 0
108 146 0
105 145 0
110 148 0
109 147 0
109 147 0
106 145 0
110 148 0
111 149 0
113 150 0
110 148 0
109 147 0
107 146 0
113 150 0
107 146 0
107 146 0
108 146 0
106 145 0
107 146 0
117 152 0
108 146 0
107 146 0
110 148 0
111 148 0
109 147 0
111 149 0
111 148 0
112 149 0
111 148 0
109 147 0
111 148 0
111 148 0
108 147 0
109 147 0
110 148 0
112 149 0
112 149 0
112 149 0
109 147 0
106 145 0
107 146 0
116 151 0
110 148 0
107 146 0
104 144 0
112 149 0
112 149 0
116 151 0
113 149 0
118 153 0
112 149 0
114 150 0
111 148 0
113 150 0
112 149 0
110 148 0
107 146 0
110 148 0
112 149 0
106 145 0
112 149 0
117 152 0
116 151 0
111 148 0
111 148 0
108 146 0
109 147 0
112 149 0
108 146 0
112 149 0
114 150 0
113 149 0
109 147 0
111 148 0
120 153 0
111 148 0
114 150 0
108 147 0
107 146 0
109 147 0
109 147 0
114 150 0
113 150 0
110 148 0
113 150 0
110 148 0
110 148 0
111 148 0
106 145 0
111 148 0
110 148 0
111 148 0
113 149 0
109 147 0
108 147 0
113 150 0
110 148 0
110 148 0
112 149 0
112 149 0
114 150 0
111 148 0
110 148 0
114 150 0
111 148 0
111 148 0
109 147 0
108 146 0
106 145 0
110 148 0
113 150 0
113 149 0
119 153 0
113 149 0
114 150 0
113 150 0
112 149 0
117 152 0
111 148 0
111 148 0
109 147 0
110 148 0
111 148 0
112 149 0
110 147 0
106 146 0
113 150 0
107 146 0
114 150 0
113 150 0
113 149 0
113 150 0
108 146 0
112 149 0
106 145 0
111 148 0
114 150 0
106 145 0
112 149 0
112 149 0
108 146 0
111 148 0
109 147 0
107 146 0
115 151 0
108 147 0
110 148 0
106 146 0
110 148 0
106 145 0
103 144 0
106 145 0
103 144 0
104 144 0
105 144 0
105 145 0
104 144 0
106 146 0
106 145 0
104 144 0
105 145 0
104 144 0
104 144 0
105 145 0
104 144 0
109 147 0
104 144 0
107 146 0
107 146 0
106 145 0
105 145 0
107 146 0
106 145 0
107 146 0
106 146 0
107 146 0
106 145 0
105 145 0
106 145 0
103 144 0
104 144 0
104 144 0
104 144 0
106 145 0
105 145 0
106 145 0
106 145 0
103 144 0
104 144 0
104 144 0
104 144 0
108 146 0
103 144 0
105 145 0
103 143 0
104 144 0
105 145 0
105 145 0
107 146 0
106 145 0
105 145 0
103 144 0
103 144 0
105 145 0
104 144 0
107 146 0
104 144 0
103 143 0
104 144 0
103 144 0
104 144 0
104 144 0
104 144 0
103 143 0
104 144 0
106 145 0
103 144 0
105 144 0
104 144 0
104 144 0
106 145 0
103 143 0
105 145 0
104 144 0
103 144 0
109 147 0
103 143 0
104 144 0
108 147 0
105 145 0
105 145 0
105 144 0
106 146 0
104 144 0
103 144 0
105 145 0
104 144 0
105 145 0
104 144 0
106 145 0
104 144 0
105 145 0
105 145 0
104 144 0
107 146 0
106 146 0
108 146 0
103 144 0
104 144 0
106 145 0
105 145 0
103 144 0
105 145 0
103 144 0
103 143 0
104 144 0
105 145 0
104 144 0
104 144 0
105 144 0
105 145 0
103 143 0
104 144 0
104 144 0
103 144 0
103 143 0
106 145 0
104 144 0
105 144 0
104 144 0
106 145 0
105 145 0
104 144 0
104 144 0
106 146 0
105 145 0
106 146 0
104 144 0
107 146 0
104 144 0
105 144 0
105 145 0
106 145 0
106 146 0
106 146 0
103 143 0
105 145 0
106 145 0
105 145 0
105 145 0
106 145 0
108 147 0
104 144 0
105 145 0
104 144 0
107 146 0
105 145 0
105 145 0
108 147 0
108 146 0
105 145 0
105 145 0
105 144 0
105 144 0
110 148 0
106 145 0
103 144 0
107 146 0
105 145 0
103 144 0
107 146 0
105 145 0
104 144 0
104 144 0
106 145 0
106 146 0
106 146 0
109 147 0
105 145 0
104 144 0
108 147 0
110 148 0
104 144 0
107 146 0
107 146 0
106 145 0
106 145 0
107 146 0
104 144 0
106 145 0
106 145 0
109 147 0
106 145 0
104 144 0
109 147 0
106 145 0
106 145 0
106 145 0
108 147 0
110 148 0
107 146 0
111 148 0
105 145 0
106 146 0
111 148 0
111 149 0
106 145 0
109 147 0
110 148 0
107 146 0
108 147 0
109 147 0
105 145 0
104 144 0
112 149 0
107 146 0
106 145 0
108 146 0
109 147 0
106 145 0
113 149 0
105 145 0
111 148 0
108 147 0
109 147 0
109 147 0
108 147 0
114 150 0
115 151 0
109 147 0
107 146 0
107 146 0
113 149 0
105 144 0
109 147 0
106 145 0
108 147 0
106 145 0
110 148 0
106 145 0
107 146 0
106 145 0
110 148 0
114 150 0
111 148 0
111 148 0
113 150 0
110 148 0
114 150 0
108 147 0
110 148 0
116 151 0
108 146 0
111 148 0
114 150 0
109 147 0
106 145 0
109 147 0
108 146 0
108 146 0
106 146 0
110 148 0
113 149 0
112 149 0
108 147 0
108 146 0
112 149 0
115 151 0
108 147 0
113 150 0
108 146 0
113 149 0
111 148 0
107 146 0
111 148 0
109 147 0
110 147 0
109 147 0
111 148 0
109 147 0
110 148 0
111 148 0
112 149 0
109 147 0
111 149 0
108 146 0
117 152 0
107 146 0
108 147 0
112 149 0
114 150 0
113 149 0
114 150 0
114 150 0
110 147 0
112 149 0
107 146 0
107 146 0
113 150 0
110 148 0
110 148 0
113 149 0
116 151 0
111 148 0
112 149 0
113 150 0
118 152 0
111 148 0
116 151 0
110 148 0
110 148 0
112 149 0
110 148 0
112 149 0
111 149 0
107 146 0
111 148 0
109 147 0
111 149 0
115 150 0
111 149 0
108 147 0
110 147 0
111 148 0
109 147 0
108 147 0
108 146 0
114 150 0
108 147 0
113 149 0
110 148 0
110 148 0
115 151 0
114 150 0
117 152 0
110 148 0
110 148 0
112 149 0
113 149 0
114 150 0
110 148 0
107 146 0
114 150 0
112 149 0
115 151 0
108 146 0
110 147 0
112 149 0
109 147 0
115 151 0
111 149 0
109 147 0
113 149 0
107 146 0
115 151 0
112 149 0
111 148 0
110 148 0
109 147 0
116 152 0
114 150 0
110 148 0
112 149 0
115 151 0
110 148 0
116 151 0
107 146 0
115 151 0
111 148 0
110 148 0
113 150 0
115 151 0
114 150 0
115 151 0
110 148 0
110 148 0
117 152 0
108 146 0
107 146 0
109 147 0
118 153 0
108 146 0
111 148 0
109 147 0
114 150 0
114 150 0
110 148 0
115 151 0
117 152 0
112 149 0
111 148 0
113 149 0
115 151 0
114 150 0
107 146 0
107 146 0
110 148 0
107 146 0
114 150 0
111 148 0
111 149 0
111 148 0
113 149 0
111 148 0
112 149 0
106 145 0
110 148 0
104 144 0
106 145 0
107 146 0
107 146 0
104 144 0
108 147 0
107 146 0
104 144 0
105 145 0
103 143 0
105 145 0
106 146 0
107 146 0
106 145 0
104 144 0
104 144 0
106 145 0
105 145 0
106 145 0
104 144 0
103 144 0
106 145 0
107 146 0
103 143 0
107 146 0
108 147 0
104 144 0
106 145 0
108 146 0
106 146 0
104 144 0
106 145 0
104 144 0
105 144 0
106 145 0
104 144 0
104 144 0
104 144 0
104 144 0
103 144 0
104 144 0
105 145 0
105 145 0
105 145 0
105 144 0
105 145 0
104 144 0
103 144 0
103 143 0
104 144 0
104 144 0
106 145 0
104 144 0
105 145 0
106 145 0
105 144 0
105 145 0
107 146 0
104 144 0
104 144 0
108 147 0
106 146 0
105 145 0
105 145 0
106 145 0
104 144 0
106 145 0
106 145 0
105 145 0
104 144 0
104 144 0
104 144 0
104 144 0
104 144 0
107 146 0
107 146 0
105 144 0
103 144 0
103 144 0
106 145 0
104 144 0
105 145 0
104 144 0
105 145 0
105 145 0
107 146 0
103 143 0
106 145 0
105 145 0
105 145 0
106 145 0
104 144 0
105 144 0
106 145 0
106 145 0
105 145 0
107 146 0
108 146 0
105 144 0
108 146 0
106 145 0
104 144 0
105 145 0
106 145 0
107 146 0
106 145 0
103 143 0
105 145 0
104 144 0
104 144 0
105 145 0
106 145 0
104 144 0
103 144 0
102 143 0
104 144 0
105 145 0
104 144 0
104 144 0
103 143 0
102 143 0
106 145 0
104 144 0
106 145 0
104 144 0
103 143 0
104 144 0
109 147 0
105 145 0
103 144 0
105 144 0
105 145 0
104 144 0
105 145 0
106 145 0
105 145 0
106 146 0
104 144 0
104 144 0
109 147 0
105 145 0
105 145 0
105 145 0
104 144 0
104 144 0
105 145 0
103 144 0
106 145 0
107 146 0
107 146 0
105 145 0
103 144 0
105 145 0
103 143 0
108 147 0
105 145 0
106 146 0
105 145 0
104 144 0
103 144 0
103 144 0
104 144 0
106 146 0
107 146 0
109 147 0
108 146 0
104 144 0
109 147 0
106 145 0
107 146 0
106 145 0
104 144 0
104 144 0
105 145 0
109 147 0
105 145 0
104 144 0
106 145 0
110 148 0
106 145 0
104 144 0
107 146 0
104 144 0
104 144 0
107 146 0
104 144 0
105 145 0
105 145 0
105 145 0
107 146 0
106 146 0
106 145 0
108 146 0
104 144 0
105 145 0
108 147 0
108 146 0
102 143 0
107 146 0
113 150 0
107 146 0
115 151 0
107 146 0
113 149 0
111 148 0
106 145 0
107 146 0
106 145 0
106 145 0
109 147 0
104 144 0
112 149 0
109 147 0
109 147 0
106 145 0
107 146 0
110 148 0
113 150 0
110 148 0
107 146 0
110 148 0
105 145 0
112 149 0
109 147 0
111 148 0
110 148 0
112 149 0
110 148 0
110 148 0
113 150 0
108 147 0
108 147 0
112 149 0
112 149 0
108 147 0
110 148 0
106 146 0
116 151 0
112 149 0
109 147 0
107 146 0
104 144 0
109 147 0
111 149 0
114 150 0
108 147 0
108 147 0
109 147 0
111 148 0
109 147 0
106 146 0
109 147 0
108 147 0
115 151 0
110 148 0
112 149 0
113 149 0
110 148 0
109 147 0
112 149 0
111 149 0
106 145 0
107 146 0
110 148 0
113 150 0
114 150 0
108 147 0
107 146 0
111 148 0
110 147 0
116 151 0
108 147 0
109 147 0
112 149 0
114 150 0
107 146 0
109 147 0
109 147 0
115 150 0
114 150 0
110 148 0
110 148 0
114 150 0
113 150 0
106 145 0
109 147 0
112 149 0
110 148 0
115 151 0
114 150 0
114 150 0
107 146 0
111 148 0
111 149 0
109 147 0
113 150 0
110 147 0
114 150 0
112 149 0
109 147 0
107 146 0
111 148 0
112 149 0
117 152 0
110 147 0
108 147 0
110 148 0
110 148 0
110 148 0
109 147 0
114 150 0
111 148 0
111 148 0
108 146 0
117 152 0
113 149 0
110 148 0
113 149 0
106 146 0
110 147 0
111 148 0
112 149 0
112 149 0
109 147 0
113 149 0
111 148 0
110 148 0
108 147 0
113 150 0
113 149 0
112 149 0
109 147 0
110 148 0
116 151 0
113 150 0
107 146 0
111 148 0
112 149 0
111 148 0
105 145 0
112 149 0
113 150 0
109 147 0
107 146 0
109 147 0
113 150 0
113 150 0
113 149 0
116 152 0
111 148 0
113 150 0
109 147 0
108 146 0
110 148 0
109 147 0
118 153 0
112 149 0
108 147 0
113 149 0
111 148 0
106 145 0
110 148 0
114 150 0
110 148 0
107 146 0
104 144 0
109 147 0
109 147 0
111 148 0
111 148 0
117 152 0
113 149 0
110 148 0
110 148 0
110 148 0
113 149 0
110 148 0
110 148 0
109 147 0
111 149 0
109 147 0
111 149 0
111 149 0
115 151 0
107 146 0
108 146 0
108 147 0
111 148 0
112 149 0
112 149 0
111 148 0
107 146 0
109 147 0
114 150 0
112 149 0
114 150 0
110 148 0
111 148 0
110 148 0
111 148 0
106 145 0
107 146 0
108 146 0
105 145 0
103 143 0
105 145 0
106 145 0
107 146 0
108 147 0
105 145 0
106 145 0
106 146 0
107 146 0
106 145 0
105 145 0
106 145 0
107 146 0
105 145 0
105 145 0
108 147 0
103 143 0
108 146 0
107 146 0
106 145 0
104 144 0
107 146 0
103 144 0
105 144 0
106 145 0
105 145 0
105 145 0
103 144 0
103 143 0
104 144 0
106 145 0
107 146 0
103 144 0
106 145 0
104 144 0
104 144 0
103 143 0
104 144 0
106 145 0
106 145 0
103 144 0
104 144 0
104 144 0
105 145 0
111 148 0
108 147 0
104 144 0
103 144 0
110 148 0
107 146 0
105 145 0
102 143 0
103 144 0
111 148 0
106 145 0
105 145 0
103 144 0
103 144 0
105 144 0
105 145 0
105 145 0
103 144 0
105 144 0
106 145 0
105 144 0
103 144 0
106 145 0
104 144 0
104 144 0
105 145 0
103 144 0
104 144 0
105 145 0
105 145 0
103 144 0
105 145 0
105 145 0
104 144 0
104 144 0
104 144 0
105 145 0
103 144 0
104 144 0
106 145 0
105 145 0
106 145 0
103 144 0
109 147 0
105 144 0
106 145 0
107 146 0
103 144 0
103 144 0
103 144 0
105 145 0
108 146 0
105 145 0
103 144 0
103 143 0
106 145 0
106 146 0
105 145 0
104 144 0
103 144 0
104 144 0
104 144 0
104 144 0
104 144 0
104 144 0
107 146 0
104 144 0
105 145 0
102 143 0
103 144 0
107 146 0
106 145 0
102 143 0
105 145 0
105 145 0
105 145 0
106 145 0
104 144 0
105 144 0
105 145 0
104 144 0
104 144 0
104 144 0
104 144 0
105 145 0
108 146 0
104 144 0
108 146 0
104 144 0
107 146 0
107 146 0
106 145 0
107 146 0
105 145 0
103 144 0
105 145 0
104 144 0
104 144 0
106 145 0
105 144 0
103 144 0
108 147 0
107 146 0
108 147 0
105 145 0
105 145 0
104 144 0
106 145 0
104 144 0
111 148 0
107 146 0
107 146 0
104 144 0
105 145 0
104 144 0
106 145 0
105 145 0
104 144 0
106 145 0
106 145 0
104 144 0
104 144 0
106 145 0
103 144 0
106 145 0
105 145 0
103 144 0
105 145 0
105 144 0
108 147 0
104 144 0
105 145 0
109 147 0
104 144 0
106 145 0
107 146 0
104 144 0
108 146 0
106 145 0
105 145 0
105 145 0
110 148 0
104 144 0
104 144 0
106 145 0
108 146 0
109 147 0
108 147 0
107 146 0
109 147 0
111 148 0
108 146 0
112 149 0
106 145 0
106 145 0
106 145 0
111 148 0
112 149 0
105 145 0
107 146 0
106 146 0
108 147 0
105 145 0
107 146 0
104 144 0
111 148 0
108 147 0
106 145 0
110 148 0
112 149 0
112 149 0
107 146 0
116 151 0
109 147 0
106 145 0
109 147 0
109 147 0
107 146 0
107 146 0
106 145 0
105 145 0
107 146 0
114 150 0
107 146 0
106 145 0
113 149 0
112 149 0
109 147 0
111 149 0
110 148 0
109 147 0
112 149 0
107 146 0
111 148 0
117 152 0
108 147 0
107 146 0
108 146 0
116 151 0
106 145 0
111 148 0
113 150 0
113 150 0
113 150 0
107 146 0
109 147 0
107 146 0
115 150 0
107 146 0
109 147 0
108 147 0
107 146 0
108 147 0
106 145 0
112 149 0
109 147 0
114 150 0
106 145 0
110 148 0
109 147 0
112 149 0
108 147 0
110 148 0
106 145 0
108 146 0
109 147 0
107 146 0
109 147 0
109 147 0
112 149 0
108 146 0
110 148 0
110 148 0
111 148 0
111 148 0
110 147 0
110 148 0
110 148 0
108 147 0
113 149 0
114 150 0
114 150 0
112 149 0
109 147 0
115 151 0
112 149 0
115 151 0
110 148 0
114 150 0
112 149 0
107 146 0
108 147 0
108 146 0
117 152 0
109 147 0
111 148 0
106 145 0
111 148 0
110 148 0
112 149 0
111 148 0
108 146 0
117 152 0
111 148 0
116 152 0
109 147 0
111 148 0
113 150 0
109 147 0
105 145 0
113 150 0
107 146 0
116 151 0
112 149 0
113 150 0
111 148 0
109 147 0
110 148 0
116 151 0
110 148 0
113 149 0
110 147 0
110 147 0
109 147 0
109 147 0
114 150 0
112 149 0
108 147 0
105 145 0
110 148 0
118 153 0
110 148 0
109 147 0
108 147 0
110 148 0
113 150 0
107 146 0
111 149 0
111 148 0
109 147 0
108 147 0
112 149 0
112 149 0
112 149 0
110 148 0
107 146 0
112 149 0
115 151 0
106 145 0
111 148 0
115 151 0
114 150 0
111 148 0
113 149 0
112 149 0
114 150 0
115 150 0
114 150 0
109 147 0
112 149 0
116 151 0
116 151 0
113 150 0
115 151 0
110 148 0
108 147 0
115 151 0
113 149 0
109 147 0
114 150 0
107 146 0
111 148 0
111 148 0
109 147 0
111 148 0
107 146 0
111 148 0
115 151 0
113 150 0
111 148 0
106 146 0
107 146 0
108 147 0
114 150 0
114 150 0
111 148 0
111 148 0
111 148 0
113 150 0
116 151 0
108 147 0
111 148 0
104 144 0
108 146 0
105 145 0
105 145 0
105 145 0
105 145 0
104 144 0
108 146 0
103 143 0
104 144 0
105 145 0
106 145 0
105 145 0
107 146 0
104 144 0
103 144 0
106 145 0
105 145 0
108 146 0
104 144 0
109 147 0
105 145 0
103 144 0
107 146 0
108 146 0
105 145 0
107 146 0
106 145 0
105 145 0
107 146 0
102 143 0
106 145 0
105 145 0
103 144 0
103 143 0
104 144 0
103 143 0
104 144 0
103 144 0
106 145 0
107 146 0
103 143 0
107 146 0
106 145 0
105 145 0
106 146 0
104 144 0
105 145 0
106 145 0
103 143 0
105 144 0
105 145 0
103 143 0
106 145 0
106 145 0
106 145 0
104 144 0
107 146 0
108 146 0
104 144 0
103 144 0
103 144 0
106 146 0
105 145 0
104 144 0
107 146 0
106 145 0
104 144 0
105 144 0
105 145 0
104 144 0
106 145 0
107 146 0
103 143 0
105 145 0
104 144 0
103 144 0
104 144 0
104 144 0
104 144 0
106 145 0
104 144 0
105 145 0
104 144 0
105 145 0
105 145 0
105 145 0
104 144 0
103 143 0
103 143 0
105 145 0
103 144 0
104 144 0
105 145 0
104 144 0
104 144 0
104 144 0
106 145 0
103 144 0
104 144 0
105 145 0
104 144 0
105 145 0
104 144 0
104 144 0
104 144 0
105 145 0
104 144 0
103 144 0
105 144 0
107 146 0
103 144 0
106 145 0
103 144 0
103 143 0
105 145 0
105 145 0
104 144 0
106 145 0
104 144 0
106 145 0
105 145 0
105 144 0
104 144 0
104 144 0
105 144 0
105 145 0
105 145 0
105 144 0
104 144 0
105 145 0
105 145 0
105 145 0
104 144 0
105 145 0
105 145 0
105 145 0
107 146 0
105 145 0
104 144 0
107 146 0
106 145 0
105 145 0
105 145 0
104 144 0
105 144 0
104 144 0
106 145 0
106 145 0
103 144 0
110 148 0
107 146 0
108 147 0
106 145 0
108 146 0
108 146 0
105 145 0
108 146 0
108 146 0
110 148 0
104 144 0
108 147 0
104 144 0
103 144 0
105 145 0
104 144 0
106 146 0
107 146 0
104 144 0
105 145 0
112 149 0
107 146 0
104 144 0
108 146 0
106 145 0
107 146 0
111 148 0
104 144 0
109 147 0
104 144 0
104 144 0
106 146 0
102 143 0
110 148 0
106 145 0
107 146 0
105 145 0
109 147 0
107 146 0
112 149 0
112 149 0
107 146 0
110 148 0
107 146 0
108 147 0
106 145 0
106 145 0
107 146 0
105 145 0
106 145 0
103 144 0
109 147 0
107 146 0
108 147 0
110 148 0
112 149 0
104 144 0
110 147 0
106 145 0
106 146 0
108 147 0
109 147 0
107 146 0
109 147 0
108 147 0
105 145 0
115 151 0
113 150 0
110 148 0
109 147 0
108 146 0
110 148 0
112 149 0
109 147 0
106 145 0
111 148 0
109 147 0
107 146 0
112 149 0
111 148 0
109 147 0
108 146 0
108 146 0
110 148 0
107 146 0
107 146 0
116 151 0
111 148 0
114 150 0
111 148 0
113 150 0
109 147 0
109 147 0
108 146 0
109 147 0
112 149 0
108 147 0
110 148 0
110 147 0
108 146 0
111 148 0
111 148 0
107 146 0
113 149 0
104 144 0
109 147 0
108 147 0
109 147 0
109 147 0
118 152 0
111 149 0
107 146 0
113 149 0
111 148 0
105 145 0
105 145 0
112 149 0
107 146 0
110 148 0
110 148 0
106 145 0
109 147 0
109 147 0
108 147 0
106 145 0
109 147 0
108 147 0
108 146 0
110 148 0
114 150 0
109 147 0
112 149 0
110 148 0
112 149 0
112 149 0
107 146 0
116 151 0
112 149 0
116 151 0
107 146 0
112 149 0
113 150 0
109 147 0
112 149 0
109 147 0
110 147 0
109 147 0
116 151 0
108 147 0
112 149 0
111 148 0
111 148 0
110 148 0
112 149 0
116 151 0
114 150 0
113 149 0
114 150 0
110 148 0
117 152 0
111 148 0
109 147 0
112 149 0
113 149 0
111 148 0
112 149 0
113 149 0
111 148 0
105 145 0
111 148 0
114 150 0
117 152 0
118 152 0
107 146 0
112 149 0
114 150 0
109 147 0
112 149 0
116 152 0
113 150 0
110 148 0
111 149 0
109 147 0
115 151 0
110 148 0
111 148 0
108 146 0
109 147 0
111 148 0
110 148 0
113 149 0
109 147 0
110 148 0
109 147 0
108 147 0
111 148 0
109 147 0
109 147 0
112 149 0
111 148 0
107 146 0
110 148 0
110 148 0
114 150 0
114 150 0
110 147 0
111 148 0
110 148 0
112 149 0
116 151 0
111 148 0
117 152 0
112 149 0
111 148 0
113 149 0
109 147 0
107 146 0
109 147 0
116 152 0
110 148 0
114 150 0
111 149 0
114 150 0
109 147 0
110 148 0
115 150 0
110 148 0
109 147 0
107 146 0
113 149 0
112 149 0
115 151 0
111 148 0
109 147 0
109 147 0
113 149 0
115 151 0
110 148 0
111 148 0
107 146 0
110 148 0
112 149 0
113 149 0
109 147 0
107 146 0
110 148 0
115 151 0
110 148 0
108 147 0
113 149 0
104 144 0
108 146 0
103 144 0
105 144 0
105 145 0
104 144 0
104 144 0
104 144 0
103 144 0
104 144 0
106 145 0
103 144 0
104 144 0
106 146 0
107 146 0
104 144 0
106 145 0
103 144 0
103 143 0
105 145 0
104 144 0
106 145 0
104 144 0
110 148 0
104 144 0
103 143 0
104 144 0
103 144 0
104 144 0
106 146 0
105 145 0
107 146 0
108 146 0
105 145 0
109 147 0
107 146 0
104 144 0
108 147 0
104 144 0
105 145 0
104 144 0
106 145 0
104 144 0
104 144 0
103 143 0
103 143 0
105 145 0
106 145 0
102 143 0
104 144 0
105 145 0
104 144 0
105 145 0
105 145 0
105 145 0
106 145 0
105 145 0
106 146 0
104 144 0
105 145 0
105 145 0
104 144 0
105 145 0
103 144 0
105 145 0
104 144 0
105 144 0
104 144 0
104 144 0
104 144 0
106 145 0
104 144 0
104 144 0
108 146 0
105 145 0
104 144 0
105 145 0
104 144 0
104 144 0
106 145 0
104 144 0
105 145 0
105 144 0
103 143 0
106 145 0
104 144 0
105 144 0
107 146 0
103 144 0
106 145 0
104 144 0
104 144 0
104 144 0
104 144 0
106 145 0
107 146 0
109 147 0
105 144 0
104 144 0
103 143 0
108 146 0
104 144 0
106 145 0
104 144 0
105 145 0
106 145 0
107 146 0
107 146 0
106 145 0
110 148 0
103 144 0
108 146 0
107 146 0
106 146 0
103 144 0
103 143 0
105 145 0
106 145 0
105 144 0
107 146 0
105 145 0
104 144 0
106 145 0
104 144 0
107 146 0
104 144 0
105 145 0
105 145 0
108 146 0
106 146 0
106 145 0
104 144 0
103 144 0
105 145 0
104 144 0
104 144 0
104 144 0
104 144 0
105 145 0
103 144 0
105 145 0
104 144 0
104 144 0
104 144 0
104 144 0
106 145 0
108 146 0
104 144 0
106 145 0
103 143 0
103 144 0
106 145 0
103 144 0
106 145 0
105 145 0
106 145 0
104 144 0
104 144 0
107 146 0
109 147 0
109 147 0
103 144 0
106 145 0
102 143 0
106 145 0
103 143 0
110 148 0
105 145 0
107 146 0
106 145 0
105 145 0
104 144 0
109 147 0
105 144 0
107 146 0
103 143 0
106 145 0
105 144 0
110 147 0
105 145 0
106 145 0
105 145 0
105 145 0
104 144 0
108 147 0
110 148 0
106 146 0
104 144 0
110 147 0
108 147 0
108 147 0
108 147 0
108 147 0
107 146 0
111 148 0
106 145 0
109 147 0
112 149 0
111 148 0
105 145 0
110 148 0
106 146 0
106 146 0
107 146 0
109 147 0
108 146 0
115 151 0
112 149 0
105 145 0
110 148 0
114 150 0
112 149 0
106 146 0
116 151 0
106 145 0
110 147 0
110 147 0
112 149 0
113 149 0
104 144 0
109 147 0
108 147 0
109 147 0
110 148 0
106 145 0
111 148 0
112 149 0
107 146 0
114 150 0
111 148 0
110 148 0
107 146 0
110 148 0
111 148 0
110 148 0
109 147 0
108 146 0
109 147 0
111 148 0
112 149 0
110 147 0
116 152 0
105 145 0
113 150 0
104 144 0
111 148 0
106 145 0
107 146 0
108 147 0
108 147 0
111 148 0
111 148 0
112 149 0
110 147 0
107 146 0
109 147 0
108 146 0
109 147 0
110 148 0
113 149 0
115 151 0
109 147 0
107 146 0
113 150 0
112 149 0
107 146 0
117 152 0
109 147 0
112 149 0
113 150 0
112 149 0
108 147 0
110 148 0
112 149 0
110 147 0
111 148 0
110 148 0
109 147 0
112 149 0
111 148 0
112 149 0
108 146 0
116 151 0
112 149 0
118 153 0
112 149 0
113 149 0
112 149 0
121 154 0
108 147 0
107 146 0
108 147 0
113 149 0
108 146 0
112 149 0
111 149 0
107 146 0
109 147 0
115 151 0
112 149 0
112 149 0
114 150 0
111 148 0
111 148 0
109 147 0
113 149 0
114 150 0
110 148 0
110 148 0
111 149 0
108 147 0
114 150 0
113 150 0
109 147 0
109 147 0
117 152 0
110 148 0
108 147 0
109 147 0
116 151 0
106 145 0
109 147 0
111 148 0
119 153 0
111 149 0
110 148 0
118 152 0
113 150 0
115 151 0
107 146 0
112 149 0
114 150 0
113 150 0
112 149 0
113 150 0
106 145 0
113 149 0
114 150 0
110 148 0
111 148 0
113 150 0
114 150 0
116 151 0
118 152 0
112 149 0
112 149 0
109 147 0
116 152 0
110 148 0
111 148 0
113 149 0
118 152 0
114 150 0
115 151 0
112 149 0
110 148 0
113 149 0
111 148 0
115 151 0
109 147 0
113 150 0
115 151 0
109 147 0
109 147 0
112 149 0
113 150 0
109 147 0
111 149 0
114 150 0
109 147 0
111 148 0
113 149 0
109 147 0
111 148 0
111 148 0
113 149 0
110 148 0
111 148 0
112 149 0
109 147 0
110 148 0
107 146 0
116 151 0
112 149 0
111 148 0
112 149 0
114 150 0
112 149 0
115 151 0
107 146 0
106 146 0
112 149 0
114 150 0
105 145 0
114 150 0
111 148 0
116 151 0
112 149 0
112 149 0
110 148 0
107 146 0
104 144 0
106 145 0
105 145 0
104 144 0
103 144 0
107 146 0
104 144 0
104 144 0
104 144 0
106 145 0
106 145 0
105 145 0
106 145 0
109 147 0
107 146 0
105 145 0
104 144 0
107 146 0
106 145 0
103 144 0
103 143 0
105 145 0
108 147 0
104 144 0
109 147 0
107 146 0
103 144 0
105 145 0
106 145 0
106 145 0
105 145 0
105 145 0
107 146 0
103 144 0
105 145 0
103 143 0
104 144 0
103 144 0
107 146 0
107 146 0
104 144 0
103 143 0
106 145 0
104 144 0
106 145 0
103 144 0
104 144 0
104 144 0
104 144 0
104 144 0
106 145 0
105 144 0
104 144 0
103 143 0
104 144 0
105 145 0
103 144 0
104 144 0
104 144 0
105 145 0
105 145 0
103 143 0
106 145 0
103 143 0
104 144 0
104 144 0
106 145 0
103 144 0
106 146 0
104 144 0
105 145 0
105 145 0
104 144 0
106 145 0
106 145 0
102 143 0
107 146 0
105 145 0
104 144 0
107 146 0
104 144 0
105 145 0
103 144 0
108 146 0
107 146 0
104 144 0
105 145 0
104 144 0
104 144 0
106 145 0
104 144 0
104 144 0
106 145 0
106 145 0
104 144 0
105 144 0
106 145 0
103 144 0
103 144 0
104 144 0
105 144 0
105 145 0
106 145 0
106 145 0
105 144 0
105 144 0
104 144 0
103 144 0
106 145 0
103 143 0
107 146 0
107 146 0
104 144 0
105 145 0
104 144 0
103 144 0
106 145 0
108 147 0
104 144 0
105 145 0
104 144 0
104 144 0
105 145 0
105 145 0
105 145 0
104 144 0
103 144 0
104 144 0
106 145 0
105 145 0
103 144 0
104 144 0
104 144 0
104 144 0
105 145 0
104 144 0
103 144 0
107 146 0
107 146 0
107 146 0
108 146 0
105 144 0
105 145 0
105 145 0
104 144 0
107 146 0
105 145 0
106 145 0
104 144 0
106 145 0
105 145 0
106 145 0
105 145 0
106 145 0
110 147 0
105 145 0
105 145 0
107 146 0
104 144 0
103 144 0
106 146 0
103 143 0
103 144 0
108 146 0
104 144 0
106 145 0
104 144 0
107 146 0
107 146 0
113 149 0
104 144 0
110 148 0
106 145 0
103 144 0
109 147 0
111 148 0
110 147 0
104 144 0
105 145 0
105 145 0
107 146 0
104 144 0
103 143 0
109 147 0
105 145 0
108 146 0
106 145 0
108 147 0
108 146 0
109 147 0
105 144 0
106 145 0
104 144 0
109 147 0
106 145 0
109 147 0
104 144 0
105 144 0
107 146 0
109 147 0
107 146 0
107 146 0
108 147 0
114 150 0
109 147 0
108 147 0
110 148 0
108 146 0
108 146 0
111 148 0
108 147 0
107 146 0
112 149 0
105 145 0
105 145 0
108 147 0
113 149 0
108 146 0
109 147 0
111 148 0
110 148 0
110 148 0
109 147 0
111 148 0
117 152 0
111 148 0
108 147 0
108 147 0
105 144 0
113 149 0
111 148 0
105 145 0
113 149 0
111 148 0
109 147 0
110 147 0
109 147 0
114 150 0
112 149 0
111 148 0
117 152 0
114 150 0
112 149 0
115 151 0
110 148 0
114 150 0
112 149 0
110 148 0
103 144 0
115 151 0
111 148 0
109 147 0
109 147 0
118 153 0
112 149 0
108 147 0
111 149 0
117 152 0
111 148 0
110 148 0
107 146 0
107 146 0
111 149 0
106 145 0
113 149 0
115 151 0
108 147 0
108 146 0
112 149 0
109 147 0
110 148 0
113 150 0
110 148 0
108 146 0
115 151 0
108 146 0
113 150 0
114 150 0
114 150 0
113 150 0
113 150 0
115 151 0
114 150 0
112 149 0
112 149 0
108 147 0
118 153 0
116 151 0
111 148 0
111 148 0
117 152 0
112 149 0
112 149 0
109 147 0
108 146 0
116 152 0
114 150 0
110 148 0
112 149 0
115 150 0
109 147 0
113 150 0
114 150 0
110 148 0
109 147 0
111 149 0
108 147 0
110 148 0
112 149 0
110 148 0
107 146 0
114 150 0
110 148 0
112 149 0
113 150 0
109 147 0
115 151 0
110 148 0
110 148 0
111 148 0
110 148 0
116 151 0
117 152 0
106 145 0
113 149 0
116 151 0
120 154 0
114 150 0
109 147 0
113 149 0
110 148 0
111 148 0
110 148 0
114 150 0
110 148 0
115 151 0
116 151 0
114 150 0
110 148 0
114 150 0
114 150 0
107 146 0
110 148 0
108 146 0
110 148 0
110 148 0
108 146 0
109 147 0
112 149 0
112 149 0
116 151 0
108 146 0
110 147 0
107 146 0
115 150 0
109 147 0
115 151 0
111 148 0
115 151 0
111 148 0
109 147 0
112 149 0
111 148 0
113 149 0
111 148 0
113 149 0
113 149 0
113 150 0
107 146 0
109 147 0
112 149 0
110 148 0
108 146 0
107 146 0
111 148 0
110 148 0
114 150 0
111 149 0
112 149 0
111 148 0
110 148 0
115 151 0
109 147 0
109 147 0
108 147 0
111 148 0
110 148 0
109 147 0
110 148 0
113 149 0
113 150 0
110 147 0
110 148 0
113 149 0
110 148 0
109 147 0
114 150 0
114 150 0
112 149 0
103 144 0
105 145 0
107 146 0
105 145 0
105 145 0
107 146 0
105 145 0
104 144 0
106 145 0
105 145 0
104 144 0
107 146 0
105 145 0
105 145 0
111 148 0
108 146 0
104 144 0
104 144 0
107 146 0
104 144 0
104 144 0
107 146 0
103 144 0
104 144 0
104 144 0
103 144 0
106 145 0
106 146 0
104 144 0
103 143 0
104 144 0
106 145 0
107 146 0
106 145 0
105 145 0
103 143 0
104 144 0
105 145 0
106 145 0
103 144 0
106 145 0
107 146 0
104 144 0
107 146 0
104 144 0
103 144 0
105 145 0
109 147 0
104 144 0
105 145 0
105 145 0
103 144 0
106 145 0
109 147 0
104 144 0
107 146 0
105 144 0
107 146 0
104 144 0
105 145 0
104 144 0
105 145 0
104 144 0
104 144 0
104 144 0
104 144 0
106 145 0
105 145 0
104 144 0
106 145 0
103 144 0
107 146 0
106 145 0
103 144 0
105 144 0
106 145 0
107 146 0
105 145 0
107 146 0
104 144 0
103 143 0
103 144 0
106 145 0
107 146 0
104 144 0
103 144 0
106 146 0
106 145 0
103 144 0
107 146 0
103 143 0
107 146 0
103 144 0
104 144 0
106 145 0
104 144 0
106 145 0
105 145 0
105 144 0
105 145 0
107 146 0
109 147 0
104 144 0
105 145 0
104 144 0
105 145 0
104 144 0
103 143 0
103 144 0
103 144 0
103 144 0
106 145 0
104 144 0
104 144 0
104 144 0
103 144 0
107 146 0
103 144 0
106 145 0
105 145 0
105 145 0
105 145 0
104 144 0
103 144 0
104 144 0
105 145 0
103 143 0
107 146 0
104 144 0
106 145 0
106 145 0
104 144 0
105 145 0
105 145 0
106 145 0
105 145 0
103 144 0
103 144 0
104 144 0
104 144 0
109 147 0
105 145 0
103 144 0
105 145 0
108 147 0
106 145 0
106 146 0
108 146 0
105 145 0
106 145 0
105 145 0
109 147 0
109 147 0
105 145 0
104 144 0
107 146 0
105 145 0
109 147 0
105 144 0
103 144 0
104 144 0
110 148 0
107 146 0
106 146 0
107 146 0
104 144 0
107 146 0
105 144 0
106 145 0
106 145 0
108 147 0
104 144 0
105 145 0
106 145 0
104 144 0
107 146 0
110 148 0
104 144 0
106 145 0
105 144 0
109 147 0
106 145 0
105 145 0
104 144 0
110 148 0
105 145 0
103 143 0
107 146 0
108 146 0
109 147 0
110 148 0
110 148 0
109 147 0
108 147 0
107 146 0
104 144 0
110 148 0
108 147 0
110 148 0
108 146 0
105 145 0
110 148 0
110 148 0
113 149 0
105 145 0
108 147 0
105 145 0
105 145 0
106 145 0
111 148 0
114 150 0
111 148 0
109 147 0
107 146 0
111 148 0
109 147 0
110 148 0
111 148 0
110 148 0
109 147 0
109 147 0
106 145 0
107 146 0
108 147 0
107 146 0
112 149 0
108 146 0
106 145 0
109 147 0
109 147 0
109 147 0
115 151 0
108 146 0
111 148 0
111 148 0
115 150 0
109 147 0
107 146 0
109 147 0
110 148 0
107 146 0
109 147 0
114 150 0
109 147 0
113 150 0
108 147 0
117 152 0
105 145 0
107 146 0
112 149 0
108 147 0
112 149 0
108 146 0
108 147 0
107 146 0
109 147 0
111 148 0
106 145 0
107 146 0
117 152 0
111 148 0
111 148 0
112 149 0
110 148 0
111 148 0
110 148 0
110 148 0
109 147 0
113 150 0
109 147 0
113 149 0
114 150 0
113 149 0
108 147 0
113 150 0
114 150 0
109 147 0
115 151 0
108 147 0
110 147 0
113 150 0
116 151 0
112 149 0
113 150 0
114 150 0
110 148 0
110 148 0
108 147 0
114 150 0
108 147 0
112 149 0
110 148 0
112 149 0
113 150 0
114 150 0
109 147 0
108 147 0
109 147 0
115 151 0
115 151 0
106 145 0
111 148 0
115 150 0
110 148 0
110 148 0
112 149 0
108 147 0
119 153 0
114 150 0
115 151 0
111 148 0
110 148 0
114 150 0
114 150 0
113 150 0
112 149 0
116 151 0
115 151 0
113 149 0
109 147 0
109 147 0
115 151 0
108 147 0
113 150 0
107 146 0
110 148 0
112 149 0
113 149 0
112 149 0
111 149 0
115 151 0
106 145 0
109 147 0
109 147 0
113 149 0
108 147 0
107 146 0
113 149 0
110 148 0
112 149 0
108 147 0
110 148 0
107 146 0
114 150 0
114 150 0
109 147 0
113 150 0
113 150 0
111 148 0
117 152 0
108 147 0
110 148 0
108 147 0
109 147 0
116 151 0
112 149 0
107 146 0
112 149 0
111 148 0
116 151 0
109 147 0
115 151 0
112 149 0
115 151 0
112 149 0
109 147 0
112 149 0
108 146 0
107 146 0
116 152 0
110 148 0
106 145 0
116 151 0
109 147 0
110 147 0
109 147 0
113 150 0
114 150 0
117 152 0
112 149 0
111 149 0
114 150 0
109 147 0
111 148 0
105 145 0
109 147 0
112 149 0
105 145 0
112 149 0
114 150 0
114 150 0
111 148 0
111 148 0
105 145 0
110 148 0
112 149 0
115 151 0
113 150 0
112 149 0
107 146 0
106 145 0
105 145 0
105 145 0
107 146 0
105 145 0
106 145 0
105 145 0
104 144 0
103 143 0
104 144 0
104 144 0
104 144 0
106 146 0
104 144 0
106 145 0
105 145 0
106 145 0
104 144 0
103 144 0
103 144 0
103 143 0
106 145 0
104 144 0
104 144 0
105 145 0
104 144 0
107 146 0
107 146 0
102 143 0
103 143 0
105 145 0
108 146 0
104 144 0
106 146 0
104 144 0
108 146 0
104 144 0
103 144 0
105 145 0
105 144 0
105 145 0
105 145 0
106 145 0
105 145 0
106 145 0
105 145 0
105 145 0
107 146 0
105 144 0
108 146 0
103 144 0
103 144 0
104 144 0
106 145 0
105 145 0
103 144 0
104 144 0
108 147 0
103 143 0
105 144 0
104 144 0
103 144 0
104 144 0
104 144 0
105 145 0
105 145 0
104 144 0
104 144 0
105 145 0
105 145 0
104 144 0
104 144 0
107 146 0
106 145 0
104 144 0
105 145 0
106 145 0
105 145 0
104 144 0
105 145 0
106 145 0
105 145 0
103 144 0
104 144 0
105 145 0
103 143 0
103 144 0
105 144 0
103 144 0
105 145 0
105 145 0
104 144 0
106 145 0
104 144 0
104 144 0
103 144 0
106 145 0
106 145 0
106 146 0
105 144 0
107 146 0
105 145 0
105 144 0
106 145 0
107 146 0
106 145 0
109 147 0
105 145 0
104 144 0
104 144 0
103 143 0
106 146 0
105 145 0
103 144 0
105 145 0
106 145 0
103 143 0
104 144 0
103 143 0
105 144 0
107 146 0
106 145 0
106 145 0
105 145 0
105 144 0
106 145 0
105 145 0
104 144 0
104 144 0
104 144 0
105 145 0
104 144 0
103 144 0
105 145 0
106 146 0
105 145 0
105 145 0
107 146 0
103 144 0
104 144 0
103 144 0
103 144 0
103 144 0
105 145 0
104 144 0
105 145 0
106 145 0
104 144 0
104 144 0
104 144 0
105 145 0
105 145 0
104 144 0
105 144 0
106 145 0
104 144 0
106 145 0
105 145 0
109 147 0
106 146 0
106 145 0
104 144 0
105 145 0
109 147 0
106 145 0
106 145 0
108 147 0
105 145 0
110 148 0
105 145 0
105 145 0
105 145 0
108 147 0
109 147 0
109 147 0
105 145 0
107 146 0
107 146 0
109 147 0
108 146 0
106 145 0
106 145 0
109 147 0
110 148 0
107 146 0
108 147 0
108 147 0
105 145 0
108 146 0
106 145 0
108 147 0
108 146 0
107 146 0
109 147 0
108 146 0
111 148 0
111 148 0
111 148 0
106 145 0
104 144 0
110 148 0
105 145 0
104 144 0
108 147 0
106 145 0
106 145 0
110 148 0
105 145 0
109 147 0
106 145 0
113 149 0
107 146 0
109 147 0
107 146 0
106 145 0
107 146 0
109 147 0
109 147 0
109 147 0
110 148 0
111 149 0
110 148 0
110 148 0
110 147 0
106 146 0
108 146 0
114 150 0
108 147 0
112 149 0
110 148 0
112 149 0
106 146 0
112 149 0
107 146 0
105 145 0
106 145 0
115 151 0
104 144 0
114 150 0
118 152 0
110 148 0
106 146 0
114 150 0
112 149 0
109 147 0
111 148 0
112 149 0
110 148 0
113 149 0
110 148 0
109 147 0
114 150 0
109 147 0
106 145 0
110 148 0
110 148 0
117 152 0
113 150 0
111 148 0
108 146 0
109 147 0
107 146 0
108 146 0
111 148 0
109 147 0
118 152 0
108 146 0
114 150 0
108 146 0
113 149 0
110 148 0
114 150 0
110 147 0
111 149 0
114 150 0
108 146 0
111 149 0
110 148 0
113 150 0
109 147 0
109 147 0
114 150 0
109 147 0
112 149 0
116 151 0
115 151 0
112 149 0
117 152 0
113 150 0
109 147 0
110 148 0
110 148 0
114 150 0
113 149 0
112 149 0
113 150 0
112 149 0
112 149 0
113 150 0
110 148 0
112 149 0
107 146 0
113 150 0
113 149 0
115 151 0
114 150 0
108 146 0
116 152 0
113 149 0
112 149 0
120 154 0
109 147 0
112 149 0
114 150 0
111 148 0
109 147 0
110 148 0
116 151 0
111 148 0
111 148 0
115 151 0
113 150 0
116 151 0
114 150 0
109 147 0
112 149 0
109 147 0
113 149 0
107 146 0
113 149 0
107 146 0
116 151 0
110 148 0
107 146 0
107 146 0
109 147 0
112 149 0
113 150 0
116 151 0
111 148 0
114 150 0
114 150 0
115 150 0
111 148 0
106 145 0
110 148 0
110 148 0
118 153 0
111 149 0
113 149 0
114 150 0
107 146 0
111 148 0
108 146 0
110 148 0
115 150 0
114 150 0
112 149 0
110 148 0
106 145 0
119 153 0
106 145 0
108 146 0
110 148 0
108 146 0
111 148 0
111 148 0
115 151 0
112 149 0
105 145 0
114 150 0
106 146 0
110 147 0
112 149 0
113 150 0
117 152 0
109 147 0
109 147 0
112 149 0
108 147 0
118 153 0
105 145 0
111 148 0
111 149 0
113 150 0
107 146 0
109 147 0
110 148 0
109 147 0
108 147 0
110 148 0
112 149 0
111 148 0
108 147 0
111 148 0
114 150 0
114 150 0
111 148 0
106 145 0
116 151 0
105 145 0
108 146 0
105 145 0
104 144 0
105 145 0
103 143 0
105 145 0
107 146 0
107 146 0
108 147 0
106 146 0
107 146 0
104 144 0
105 145 0
104 144 0
108 146 0
102 143 0
104 144 0
104 144 0
107 146 0
105 145 0
105 145 0
105 144 0
103 144 0
105 145 0
103 144 0
104 144 0
106 145 0
108 146 0
111 148 0
104 144 0
105 145 0
103 143 0
105 145 0
109 147 0
104 144 0
104 144 0
105 145 0
106 145 0
105 145 0
106 145 0
104 144 0
104 144 0
105 145 0
106 145 0
104 144 0
104 144 0
104 144 0
106 145 0
105 145 0
103 143 0
108 146 0
106 145 0
102 143 0
104 144 0
104 144 0
106 145 0
106 146 0
106 145 0
106 146 0
103 143 0
105 145 0
105 145 0
105 144 0
104 144 0
103 144 0
105 145 0
103 144 0
107 146 0
105 144 0
103 144 0
104 144 0
107 146 0
104 144 0
103 144 0
104 144 0
105 145 0
106 145 0
105 145 0
105 144 0
105 145 0
105 145 0
104 144 0
103 144 0
106 145 0
103 144 0
103 144 0
106 145 0
106 146 0
105 145 0
106 145 0
104 144 0
107 146 0
105 145 0
103 144 0
106 145 0
104 144 0
104 144 0
105 145 0
106 145 0
104 144 0
107 146 0
104 144 0
104 144 0
104 144 0
107 146 0
106 145 0
104 144 0
105 145 0
104 144 0
104 144 0
107 146 0
106 145 0
107 146 0
105 145 0
105 145 0
103 143 0
105 144 0
106 145 0
103 144 0
105 145 0
106 145 0
105 144 0
106 145 0
104 144 0
105 145 0
105 145 0
103 144 0
105 145 0
103 144 0
107 146 0
106 146 0
103 143 0
104 144 0
104 144 0
105 145 0
103 144 0
103 143 0
104 144 0
104 144 0
107 146 0
104 144 0
104 144 0
105 145 0
108 147 0
105 145 0
109 147 0
110 148 0
104 144 0
104 144 0
107 146 0
108 146 0
103 144 0
109 147 0
106 145 0
104 144 0
105 145 0
109 147 0
105 145 0
109 147 0
107 146 0
105 145 0
110 148 0
104 144 0
103 144 0
102 143 0
108 147 0
107 146 0
110 148 0
107 146 0
108 147 0
108 146 0
109 147 0
109 147 0
105 145 0
103 144 0
105 144 0
108 147 0
104 144 0
105 145 0
106 145 0
110 148 0
108 146 0
110 148 0
107 146 0
106 145 0
103 143 0
107 146 0
111 148 0
105 145 0
109 147 0
103 144 0
106 145 0
105 145 0
109 147 0
106 145 0
106 146 0
110 148 0
107 146 0
107 146 0
105 145 0
106 146 0
112 149 0
109 147 0
112 149 0
111 148 0
106 146 0
110 147 0
110 148 0
113 150 0
109 147 0
108 146 0
109 147 0
115 151 0
111 148 0
110 148 0
109 147 0
111 148 0
109 147 0
108 147 0
109 147 0
111 149 0
107 146 0
109 147 0
113 149 0
109 147 0
111 148 0
107 146 0
109 147 0
110 147 0
108 146 0
112 149 0
118 152 0
117 152 0
111 148 0
105 145 0
110 148 0
110 147 0
113 149 0
116 151 0
114 150 0
106 145 0
112 149 0
112 149 0
115 151 0
113 150 0
114 150 0
109 147 0
110 148 0
112 149 0
107 146 0
111 148 0
109 147 0
108 146 0
109 147 0
111 148 0
109 147 0
112 149 0
112 149 0
109 147 0
113 150 0
115 151 0
110 148 0
109 147 0
115 151 0
116 151 0
112 149 0
114 150 0
111 149 0
114 150 0
111 148 0
110 147 0
109 147 0
114 150 0
110 147 0
109 147 0
107 146 0
111 149 0
110 147 0
115 151 0
113 149 0
106 145 0
108 147 0
113 150 0
113 149 0
112 149 0
106 146 0
114 150 0
108 147 0
110 148 0
112 149 0
110 147 0
116 151 0
111 149 0
116 151 0
113 150 0
111 149 0
110 148 0
110 148 0
109 147 0
111 149 0
110 148 0
120 154 0
115 151 0
119 153 0
115 150 0
109 147 0
109 147 0
114 150 0
112 149 0
114 150 0
109 147 0
113 150 0
116 152 0
114 150 0
107 146 0
111 149 0
119 153 0
109 147 0
113 149 0
107 146 0
116 151 0
111 148 0
113 149 0
109 147 0
116 152 0
110 148 0
111 148 0
115 151 0
112 149 0
110 147 0
113 150 0
111 149 0
114 150 0
112 149 0
113 149 0
110 148 0
106 145 0
111 148 0
109 147 0
111 148 0
109 147 0
116 152 0
113 150 0
110 148 0
115 151 0
111 148 0
117 152 0
111 149 0
113 150 0
108 147 0
117 152 0
111 148 0
111 148 0
108 146 0
110 148 0
114 150 0
111 148 0
113 150 0
109 147 0
113 149 0
114 150 0
111 148 0
113 149 0
107 146 0
109 147 0
110 148 0
113 149 0
113 150 0
108 147 0
111 148 0
117 152 0
111 149 0
111 148 0
110 148 0
111 148 0
113 149 0
115 151 0
108 146 0
112 149 0
112 149 0
111 148 0
112 149 0
107 146 0
109 147 0
110 148 0
111 148 0
109 147 0
115 151 0
113 150 0
115 150 0
115 151 0
107 146 0
114 150 0
113 150 0
114 150 0
119 153 0
113 150 0
114 150 0
108 146 0
107 146 0
104 144 0
104 144 0
108 146 0
104 144 0
105 145 0
104 144 0
104 144 0
107 146 0
104 144 0
105 145 0
109 147 0
103 143 0
106 145 0
103 144 0
106 145 0
103 144 0
105 145 0
107 146 0
106 145 0
103 143 0
108 146 0
104 144 0
105 145 0
105 145 0
107 146 0
103 143 0
103 144 0
107 146 0
105 144 0
107 146 0
104 144 0
106 145 0
107 146 0
104 144 0
106 145 0
106 146 0
107 146 0
109 147 0
105 145 0
109 147 0
105 145 0
104 144 0
106 145 0
105 145 0
104 144 0
106 145 0
104 144 0
105 145 0
104 144 0
103 144 0
106 146 0
105 145 0
106 145 0
104 144 0
104 144 0
106 145 0
103 144 0
104 144 0
105 144 0
106 145 0
106 145 0
106 146 0
102 143 0
106 145 0
103 143 0
105 145 0
105 145 0
108 146 0
104 144 0
104 144 0
104 144 0
107 146 0
104 144 0
105 145 0
105 145 0
104 144 0
105 145 0
103 143 0
106 145 0
103 143 0
103 144 0
103 144 0
105 145 0
104 144 0
105 144 0
105 145 0
103 143 0
104 144 0
107 146 0
104 144 0
107 146 0
106 146 0
105 145 0
104 144 0
104 144 0
104 144 0
106 145 0
107 146 0
104 144 0
105 145 0
103 144 0
103 144 0
104 144 0
104 144 0
102 143 0
105 145 0
105 145 0
106 146 0
104 144 0
106 146 0
104 144 0
103 144 0
103 144 0
106 145 0
103 144 0
105 145 0
106 146 0
104 144 0
105 144 0
103 144 0
104 144 0
103 144 0
104 144 0
105 145 0
104 144 0
102 143 0
103 143 0
105 145 0
103 144 0
107 146 0
103 143 0
106 145 0
104 144 0
105 145 0
104 144 0
107 146 0
107 146 0
106 145 0
104 144 0
104 144 0
106 145 0
110 148 0
105 145 0
106 146 0
104 144 0
107 146 0
104 144 0
105 145 0
106 145 0
103 144 0
104 144 0
106 145 0
105 145 0
106 145 0
106 145 0
106 145 0
104 144 0
107 146 0
108 147 0
105 145 0
106 146 0
103 144 0
109 147 0
108 147 0
104 144 0
106 145 0
104 144 0
110 148 0
104 144 0
113 149 0
106 145 0
106 145 0
114 150 0
110 148 0
107 146 0
107 146 0
114 150 0
108 147 0
112 149 0
108 147 0
109 147 0
107 146 0
107 146 0
111 148 0
106 146 0
108 146 0
105 145 0
105 145 0
111 148 0
107 146 0
105 145 0
105 145 0
108 146 0
109 147 0
107 146 0
114 150 0
106 145 0
109 147 0
107 146 0
105 145 0
110 148 0
105 145 0
109 147 0
106 145 0
109 147 0
105 145 0
115 151 0
107 146 0
106 145 0
107 146 0
110 148 0
111 148 0
115 151 0
112 149 0
111 148 0
107 146 0
110 148 0
109 147 0
109 147 0
111 148 0
107 146 0
112 149 0
109 147 0
112 149 0
109 147 0
112 149 0
108 146 0
108 147 0
116 151 0
110 148 0
105 145 0
109 147 0
113 149 0
113 150 0
110 148 0
113 149 0
111 149 0
109 147 0
107 146 0
110 147 0
111 148 0
113 149 0
116 151 0
110 148 0
111 149 0
110 147 0
111 148 0
110 148 0
114 150 0
108 146 0
108 147 0
106 146 0
110 148 0
110 148 0
114 150 0
105 145 0
109 147 0
109 147 0
112 149 0
113 149 0
120 154 0
107 146 0
113 150 0
110 148 0
109 147 0
105 145 0
109 147 0
110 148 0
113 149 0
119 153 0
114 150 0
107 146 0
110 148 0
113 149 0
111 148 0
113 150 0
113 150 0
111 148 0
117 152 0
108 146 0
112 149 0
109 147 0
109 147 0
114 150 0
116 151 0
111 149 0
112 149 0
107 146 0
113 149 0
116 151 0
113 149 0
110 148 0
110 148 0
110 148 0
110 148 0
115 151 0
105 145 0
112 149 0
112 149 0
113 149 0
116 151 0
112 149 0
110 148 0
109 147 0
109 147 0
114 150 0
115 151 0
112 149 0
109 147 0
111 149 0
112 149 0
116 151 0
110 148 0
111 149 0
109 147 0
114 150 0
111 148 0
111 148 0
110 148 0
112 149 0
113 150 0
116 151 0
113 149 0
113 150 0
113 150 0
112 149 0
113 149 0
111 149 0
113 149 0
107 146 0
112 149 0
111 149 0
112 149 0
111 148 0
111 148 0
111 149 0
112 149 0
115 151 0
111 149 0
109 147 0
115 151 0
113 150 0
114 150 0
112 149 0
111 148 0
112 149 0
110 148 0
112 149 0
109 147 0
114 150 0
112 149 0
114 150 0
110 148 0
113 149 0
120 154 0
116 152 0
118 153 0
107 146 0
112 149 0
112 149 0
112 149 0
111 148 0
112 149 0
108 147 0
109 147 0
112 149 0
111 148 0
107 146 0
114 150 0
110 147 0
119 153 0
111 148 0
110 148 0
108 146 0
113 150 0
115 151 0
112 149 0
110 148 0
109 147 0
112 149 0
112 149 0
115 150 0
112 149 0
115 151 0
111 148 0
114 150 0
113 150 0
109 147 0
114 150 0
112 149 0
118 152 0
111 148 0
112 149 0
113 149 0
108 146 0
118 153 0
112 149 0
112 149 0
108 146 0
106 145 0
107 146 0
107 146 0
106 146 0
103 143 0
106 146 0
104 144 0
103 144 0
105 145 0
104 144 0
104 144 0
105 145 0
107 146 0
104 144 0
104 144 0
105 144 0
106 146 0
107 146 0
104 144 0
104 144 0
106 145 0
105 144 0
106 145 0
104 144 0
103 144 0
103 144 0
106 145 0
110 148 0
105 145 0
104 144 0
106 146 0
104 144 0
103 143 0
107 146 0
107 146 0
104 144 0
107 146 0
108 147 0
107 146 0
103 144 0
106 146 0
105 145 0
104 144 0
104 144 0
104 144 0
103 144 0
105 145 0
105 144 0
106 145 0
105 145 0
106 145 0
105 144 0
105 145 0
105 145 0
104 144 0
105 145 0
106 146 0
104 144 0
106 145 0
105 145 0
104 144 0
104 144 0
107 146 0
103 144 0
104 144 0
104 144 0
105 145 0
103 144 0
104 144 0
104 144 0
107 146 0
107 146 0
107 146 0
104 144 0
103 143 0
106 145 0
105 145 0
104 144 0
106 145 0
104 144 0
104 144 0
105 145 0
106 145 0
103 143 0
103 144 0
104 144 0
105 145 0
104 144 0
103 143 0
104 144 0
108 147 0
104 144 0
103 144 0
108 147 0
104 144 0
105 145 0
103 144 0
103 144 0
105 145 0
104 144 0
106 145 0
104 144 0
103 144 0
103 144 0
103 144 0
104 144 0
106 145 0
104 144 0
105 145 0
106 145 0
106 145 0
104 144 0
105 144 0
104 144 0
107 146 0
105 144 0
106 146 0
103 144 0
105 145 0
102 143 0
105 145 0
104 144 0
106 145 0
105 145 0
106 146 0
104 144 0
103 144 0
105 145 0
110 148 0
107 146 0
106 145 0
105 144 0
105 145 0
103 144 0
103 143 0
104 144 0
104 144 0
104 144 0
105 145 0
103 144 0
104 144 0
108 146 0
104 144 0
106 145 0
103 143 0
104 144 0
109 147 0
105 145 0
102 143 0
104 144 0
103 143 0
107 146 0
106 145 0
113 149 0
106 145 0
108 147 0
104 144 0
107 146 0
106 145 0
108 147 0
105 145 0
107 146 0
108 146 0
104 144 0
105 145 0
110 148 0
111 148 0
107 146 0
107 146 0
105 145 0
108 146 0
110 148 0
108 147 0
109 147 0
104 144 0
106 146 0
105 145 0
108 146 0
110 147 0
105 145 0
108 146 0
110 148 0
103 143 0
108 146 0
110 148 0
103 144 0
106 146 0
104 144 0
105 145 0
107 146 0
106 145 0
109 147 0
110 148 0
110 148 0
110 148 0
112 149 0
110 148 0
105 145 0
111 149 0
111 148 0
109 147 0
106 145 0
109 147 0
109 147 0
105 145 0
105 144 0
108 147 0
110 148 0
111 148 0
111 148 0
106 145 0
112 149 0
113 150 0
106 145 0
107 146 0
111 148 0
109 147 0
108 147 0
110 148 0
110 148 0
111 148 0
104 144 0
112 149 0
112 149 0
111 148 0
112 149 0
120 154 0
115 151 0
111 149 0
115 151 0
108 147 0
112 149 0
111 148 0
109 147 0
108 146 0
107 146 0
110 148 0
107 146 0
108 147 0
112 149 0
112 149 0
112 149 0
110 148 0
111 149 0
110 148 0
112 149 0
109 147 0
114 150 0
110 148 0
111 149 0
113 149 0
105 145 0
110 148 0
113 150 0
111 149 0
113 150 0
108 146 0
113 149 0
110 147 0
110 148 0
109 147 0
110 148 0
108 147 0
113 150 0
116 152 0
110 148 0
117 152 0
108 147 0
112 149 0
116 151 0
109 147 0
111 148 0
109 147 0
111 148 0
116 151 0
111 148 0
115 151 0
109 147 0
111 148 0
113 149 0
114 150 0
110 148 0
108 146 0
105 145 0
117 152 0
110 148 0
112 149 0
112 149 0
112 149 0
116 151 0
109 147 0
114 150 0
113 150 0
112 149 0
111 148 0
108 147 0
110 148 0
109 147 0
111 148 0
108 147 0
110 148 0
112 149 0
107 146 0
114 150 0
113 150 0
112 149 0
110 148 0
114 150 0
110 148 0
115 151 0
111 148 0
112 149 0
105 145 0
110 148 0
115 151 0
113 149 0
110 147 0
118 153 0
110 148 0
112 149 0
111 148 0
115 151 0
113 150 0
111 149 0
108 146 0
112 149 0
111 148 0
113 149 0
108 147 0
118 153 0
112 149 0
114 150 0
118 153 0
115 151 0
109 147 0
115 151 0
121 155 0
114 150 0
113 149 0
113 150 0
114 150 0
112 149 0
113 150 0
109 147 0
108 147 0
112 149 0
107 146 0
113 149 0
111 149 0
117 152 0
114 150 0
115 151 0
111 148 0
116 152 0
115 151 0
114 150 0
117 152 0
112 149 0
111 148 0
109 147 0
112 149 0
107 146 0
113 149 0
108 147 0
108 147 0
115 150 0
107 146 0
115 150 0
119 153 0
110 148 0
114 150 0
116 152 0
110 148 0
115 151 0
112 149 0
113 150 0
112 149 0
117 152 0
112 149 0
111 148 0
113 150 0
113 149 0
110 147 0
119 153 0
106 145 0
117 152 0
112 149 0
109 147 0
117 152 0
120 154 0
110 148 0
116 151 0
111 148 0
113 149 0
118 152 0
109 147 0
114 150 0
113 150 0
114 150 0
114 150 0
104 144 0
107 146 0
107 146 0
105 144 0
105 145 0
106 145 0
106 145 0
103 144 0
106 146 0
105 145 0
103 144 0
106 145 0
105 145 0
104 144 0
103 144 0
104 144 0
104 144 0
107 146 0
105 145 0
105 145 0
103 143 0
107 146 0
107 146 0
103 143 0
104 144 0
103 144 0
107 146 0
108 147 0
105 145 0
104 144 0
103 144 0
105 145 0
105 145 0
104 144 0
103 144 0
106 145 0
104 144 0
104 144 0
108 146 0
104 144 0
105 145 0
106 145 0
103 143 0
104 144 0
104 144 0
105 144 0
105 145 0
106 145 0
107 146 0
105 144 0
104 144 0
104 144 0
107 146 0
105 145 0
105 145 0
106 145 0
103 143 0
103 144 0
104 144 0
106 145 0
106 146 0
106 145 0
104 144 0
103 144 0
103 143 0
103 144 0
104 144 0
103 143 0
104 144 0
107 146 0
104 144 0
104 144 0
105 145 0
105 145 0
105 145 0
104 144 0
105 145 0
103 144 0
105 145 0
104 144 0
105 145 0
106 146 0
104 144 0
105 145 0
106 145 0
105 145 0
105 145 0
104 144 0
104 144 0
105 144 0
105 145 0
104 144 0
105 145 0
103 144 0
103 143 0
105 144 0
109 147 0
106 145 0
104 144 0
103 143 0
105 144 0
105 145 0
106 145 0
107 146 0
104 144 0
104 144 0
104 144 0
105 145 0
105 145 0
104 144 0
104 144 0
104 144 0
104 144 0
106 145 0
104 144 0
106 145 0
104 144 0
104 144 0
103 144 0
102 143 0
104 144 0
105 145 0
107 146 0
106 145 0
105 145 0
107 146 0
106 145 0
106 145 0
106 145 0
104 144 0
104 144 0
106 146 0
107 146 0
105 145 0
104 144 0
105 145 0
108 147 0
106 146 0
106 145 0
104 144 0
104 144 0
108 147 0
107 146 0
106 145 0
104 144 0
103 144 0
106 145 0
104 144 0
107 146 0
105 144 0
104 144 0
111 148 0
108 146 0
105 145 0
106 145 0
107 146 0
108 147 0
109 147 0
105 145 0
107 146 0
105 145 0
109 147 0
106 145 0
104 144 0
105 145 0
105 145 0
106 145 0
105 144 0
110 148 0
110 147 0
105 144 0
106 145 0
110 147 0
111 149 0
106 146 0
104 144 0
106 146 0
112 149 0
105 144 0
105 145 0
108 146 0
104 144 0
104 144 0
106 145 0
109 147 0
111 148 0
107 146 0
105 145 0
109 147 0
109 147 0
104 144 0
110 148 0
111 148 0
107 146 0
108 146 0
110 148 0
105 145 0
110 148 0
107 146 0
113 150 0
103 143 0
109 147 0
109 147 0
107 146 0
107 146 0
110 148 0
111 148 0
107 146 0
109 147 0
113 149 0
106 145 0
117 152 0
108 147 0
111 149 0
109 147 0
111 148 0
109 147 0
105 145 0
109 147 0
111 148 0
110 148 0
109 147 0
114 150 0
107 146 0
107 146 0
108 147 0
105 145 0
110 148 0
113 149 0
108 146 0
107 146 0
110 148 0
107 146 0
117 152 0
111 148 0
111 148 0
106 145 0
117 152 0
114 150 0
109 147 0
114 150 0
111 149 0
111 148 0
117 152 0
120 154 0
110 148 0
111 148 0
112 149 0
107 146 0
115 151 0
113 150 0
108 146 0
114 150 0
112 149 0
109 147 0
109 147 0
116 151 0
116 151 0
116 151 0
115 151 0
112 149 0
109 147 0
113 150 0
115 151 0
108 147 0
111 148 0
115 151 0
109 147 0
109 147 0
106 145 0
115 151 0
110 148 0
110 148 0
107 146 0
114 150 0
109 147 0
111 148 0
113 150 0
114 150 0
115 151 0
108 146 0
107 146 0
112 149 0
114 150 0
108 147 0
114 150 0
116 151 0
114 150 0
106 145 0
110 148 0
111 148 0
115 151 0
112 149 0
107 146 0
119 153 0
110 147 0
108 146 0
110 148 0
116 151 0
109 147 0
112 149 0
108 146 0
111 148 0
116 151 0
119 153 0
116 151 0
115 151 0
113 150 0
109 147 0
110 148 0
116 152 0
116 151 0
109 147 0
110 148 0
112 149 0
110 148 0
116 151 0
112 149 0
115 151 0
111 148 0
116 151 0
112 149 0
112 149 0
116 151 0
114 150 0
113 149 0
110 148 0
112 149 0
116 151 0
113 149 0
116 151 0
107 146 0
118 152 0
112 149 0
111 148 0
112 149 0
112 149 0
116 151 0
113 149 0
109 147 0
112 149 0
108 146 0
118 152 0
114 150 0
113 150 0
107 146 0
109 147 0
115 151 0
115 151 0
113 149 0
113 150 0
112 149 0
110 148 0
113 149 0
113 150 0
117 152 0
110 148 0
112 149 0
111 148 0
115 151 0
108 147 0
117 152 0
111 148 0
110 148 0
110 148 0
112 149 0
114 150 0
116 151 0
111 148 0
112 149 0
111 148 0
113 150 0
109 147 0
110 148 0
109 147 0
108 147 0
111 148 0
119 153 0
109 147 0
108 147 0
112 149 0
110 148 0
113 150 0
108 146 0
108 146 0
108 146 0
107 146 0
111 148 0
111 148 0
115 150 0
114 150 0
113 150 0
114 150 0
113 150 0
113 149 0
114 150 0
115 151 0
110 148 0
108 147 0
109 147 0
107 146 0
106 145 0
107 146 0
107 146 0
102 143 0
105 145 0
104 144 0
108 147 0
104 144 0
104 144 0
105 145 0
105 144 0
105 145 0
105 145 0
104 144 0
105 145 0
106 145 0
103 144 0
105 145 0
104 144 0
104 144 0
106 145 0
103 144 0
108 147 0
105 145 0
103 144 0
106 145 0
106 145 0
104 144 0
103 143 0
105 145 0
106 145 0
105 145 0
104 144 0
104 144 0
103 143 0
107 146 0
104 144 0
105 144 0
107 146 0
106 145 0
104 144 0
103 144 0
105 145 0
105 145 0
106 146 0
104 144 0
106 145 0
105 145 0
104 144 0
103 143 0
104 144 0
105 144 0
104 144 0
105 145 0
106 145 0
105 145 0
104 144 0
106 145 0
107 146 0
104 144 0
105 144 0
105 145 0
105 145 0
104 144 0
106 145 0
102 143 0
105 145 0
105 145 0
105 145 0
106 145 0
104 144 0
106 146 0
106 146 0
104 144 0
104 144 0
103 144 0
105 145 0
102 143 0
107 146 0
105 144 0
105 145 0
103 144 0
103 143 0
105 145 0
106 145 0
106 145 0
104 144 0
104 144 0
105 145 0
104 144 0
104 144 0
104 144 0
104 144 0
106 146 0
105 145 0
104 144 0
106 145 0
106 145 0
105 144 0
104 144 0
106 145 0
103 144 0
105 145 0
104 144 0
104 144 0
105 145 0
106 145 0
107 146 0
103 144 0
105 144 0
107 146 0
106 145 0
104 144 0
106 145 0
103 143 0
104 144 0
104 144 0
106 145 0
105 145 0
106 145 0
104 144 0
104 144 0
104 144 0
103 144 0
105 145 0
105 145 0
103 144 0
105 145 0
105 144 0
105 145 0
104 144 0
108 146 0
104 144 0
108 146 0
103 144 0
103 144 0
103 144 0
104 144 0
110 148 0
105 145 0
105 145 0
104 144 0
106 145 0
106 146 0
108 147 0
105 145 0
104 144 0
109 147 0
105 145 0
103 144 0
104 144 0
106 145 0
108 147 0
107 146 0
105 145 0
103 144 0
108 146 0
107 146 0
104 144 0
103 144 0
104 144 0
107 146 0
105 145 0
105 145 0
110 148 0
104 144 0
106 145 0
103 143 0
107 146 0
105 145 0
105 145 0
110 148 0
106 145 0
108 146 0
108 147 0
111 149 0
111 148 0
112 149 0
104 144 0
106 146 0
104 144 0
111 148 0
105 145 0
107 146 0
103 144 0
109 147 0
108 147 0
108 147 0
112 149 0
109 147 0
106 145 0
109 147 0
112 149 0
113 149 0
115 151 0
110 148 0
109 147 0
112 149 0
111 148 0
103 143 0
107 146 0
110 148 0
111 149 0
110 148 0
111 148 0
110 148 0
113 150 0
108 146 0
107 146 0
112 149 0
111 148 0
119 153 0
113 150 0
108 146 0
118 153 0
108 147 0
107 146 0
112 149 0
112 149 0
109 147 0
117 152 0
113 149 0
119 153 0
111 148 0
110 147 0
112 149 0
109 147 0
112 149 0
108 147 0
107 146 0
112 149 0
112 149 0
111 148 0
111 149 0
109 147 0
111 148 0
116 151 0
107 146 0
110 148 0
108 146 0
112 149 0
112 149 0
110 148 0
111 148 0
113 149 0
114 150 0
114 150 0
108 147 0
114 150 0
110 147 0
111 148 0
108 147 0
110 148 0
111 149 0
109 147 0
108 146 0
107 146 0
108 147 0
109 147 0
107 146 0
109 147 0
107 146 0
122 155 0
116 151 0
111 149 0
114 150 0
106 146 0
107 146 0
109 147 0
111 149 0
116 152 0
115 151 0
118 152 0
110 148 0
114 150 0
112 149 0
115 151 0
114 150 0
113 150 0
105 145 0
110 148 0
115 150 0
113 149 0
110 148 0
110 148 0
112 149 0
115 151 0
110 148 0
108 147 0
110 148 0
115 151 0
108 147 0
114 150 0
115 151 0
114 150 0
115 151 0
109 147 0
108 147 0
111 148 0
111 148 0
109 147 0
114 150 0
111 149 0
114 150 0
110 148 0
111 149 0
116 151 0
112 149 0
118 152 0
116 151 0
112 149 0
111 148 0
114 150 0
113 149 0
113 149 0
113 149 0
110 148 0
113 149 0
113 149 0
113 149 0
116 151 0
117 152 0
113 149 0
112 149 0
115 151 0
111 148 0
113 150 0
110 147 0
119 153 0
114 150 0
112 149 0
112 149 0
119 153 0
109 147 0
109 147 0
108 146 0
115 151 0
109 147 0
109 147 0
110 148 0
110 148 0
115 151 0
118 152 0
113 150 0
117 152 0
110 148 0
109 147 0
113 150 0
115 151 0
114 150 0
113 149 0
113 150 0
111 148 0
113 150 0
113 150 0
113 149 0
115 150 0
113 149 0
108 147 0
115 151 0
111 149 0
111 148 0
116 152 0
117 152 0
117 152 0
110 147 0
112 149 0
113 149 0
106 145 0
111 148 0
111 148 0
111 148 0
115 151 0
111 149 0
120 154 0
113 149 0
111 148 0
113 149 0
110 148 0
114 150 0
110 148 0
113 150 0
115 151 0
113 150 0
115 151 0
112 149 0
113 150 0
111 148 0
116 151 0
113 150 0
113 150 0
114 150 0
109 147 0
109 147 0
114 150 0
113 150 0
116 151 0
107 146 0
110 148 0
103 143 0
103 144 0
104 144 0
102 143 0
104 144 0
106 146 0
105 145 0
104 144 0
106 145 0
104 144 0
104 144 0
104 144 0
102 143 0
106 145 0
103 144 0
104 144 0
105 145 0
104 144 0
106 145 0
104 144 0
105 145 0
107 146 0
106 145 0
105 145 0
103 144 0
105 145 0
103 144 0
108 147 0
108 146 0
104 144 0
104 144 0
107 146 0
103 144 0
104 144 0
104 144 0
105 145 0
107 146 0
105 145 0
104 144 0
104 144 0
103 144 0
106 146 0
107 146 0
104 144 0
104 144 0
103 144 0
104 144 0
106 145 0
104 144 0
107 146 0
104 144 0
105 145 0
103 144 0
105 145 0
104 144 0
107 146 0
104 144 0
105 145 0
105 145 0
107 146 0
105 145 0
106 145 0
104 144 0
104 144 0
106 145 0
106 145 0
106 145 0
104 144 0
103 144 0
103 143 0
103 144 0
105 144 0
106 146 0
104 144 0
105 145 0
105 145 0
105 144 0
109 147 0
105 145 0
107 146 0
105 145 0
103 144 0
106 146 0
105 145 0
103 143 0
105 145 0
107 146 0
104 144 0
104 144 0
104 144 0
106 145 0
104 144 0
106 145 0
103 143 0
105 145 0
106 146 0
105 145 0
104 144 0
108 146 0
104 144 0
104 144 0
104 144 0
105 145 0
104 144 0
105 145 0
104 144 0
104 144 0
104 144 0
106 145 0
105 145 0
104 144 0
105 145 0
107 146 0
104 144 0
105 145 0
104 144 0
106 146 0
105 145 0
103 144 0
103 144 0
103 144 0
107 146 0
105 145 0
104 144 0
106 145 0
104 144 0
106 145 0
104 144 0
103 144 0
106 145 0
106 145 0
104 144 0
103 144 0
103 144 0
104 144 0
106 145 0
110 148 0
107 146 0
104 144 0
105 145 0
106 145 0
104 144 0
105 145 0
105 144 0
106 145 0
106 145 0
108 146 0
103 144 0
105 145 0
106 145 0
103 144 0
107 146 0
104 144 0
106 145 0
103 144 0
105 145 0
106 146 0
106 146 0
110 148 0
110 148 0
103 144 0
108 146 0
104 144 0
104 144 0
106 145 0
106 145 0
110 148 0
105 145 0
104 144 0
110 148 0
105 144 0
110 148 0
107 146 0
105 145 0
105 145 0
109 147 0
109 147 0
106 145 0
103 143 0
109 147 0
105 145 0
109 147 0
108 147 0
108 146 0
109 147 0
111 148 0
103 143 0
103 144 0
106 145 0
109 147 0
111 148 0
107 146 0
107 146 0
106 145 0
108 146 0
113 150 0
105 145 0
106 145 0
108 147 0
108 146 0
108 146 0
109 147 0
110 148 0
111 148 0
105 145 0
109 147 0
107 146 0
108 147 0
109 147 0
104 144 0
109 147 0
111 148 0
116 151 0
108 146 0
117 152 0
106 145 0
111 148 0
106 145 0
114 150 0
110 148 0
109 147 0
114 150 0
109 147 0
106 145 0
108 146 0
117 152 0
111 148 0
110 147 0
105 145 0
109 147 0
114 150 0
111 148 0
114 150 0
114 150 0
112 149 0
109 147 0
113 150 0
112 149 0
116 152 0
110 148 0
110 147 0
111 148 0
119 153 0
113 150 0
109 147 0
112 149 0
110 148 0
114 150 0
114 150 0
108 147 0
112 149 0
109 147 0
108 146 0
110 148 0
111 148 0
113 149 0
105 145 0
107 146 0
122 155 0
112 149 0
117 152 0
109 147 0
113 150 0
109 147 0
111 148 0
117 152 0
114 150 0
113 150 0
110 148 0
117 152 0
116 151 0
113 149 0
112 149 0
113 150 0
109 147 0
113 150 0
112 149 0
112 149 0
112 149 0
112 149 0
111 149 0
109 147 0
111 148 0
110 148 0
112 149 0
119 153 0
111 148 0
113 150 0
112 149 0
112 149 0
113 149 0
117 152 0
114 150 0
118 152 0
108 147 0
113 150 0
114 150 0
115 151 0
111 148 0
113 150 0
109 147 0
117 152 0
110 148 0
111 148 0
111 148 0
116 151 0
111 148 0
107 146 0
109 147 0
115 151 0
115 151 0
119 153 0
109 147 0
110 148 0
116 151 0
114 150 0
110 148 0
114 150 0
116 151 0
114 150 0
116 151 0
112 149 0
112 149 0
109 147 0
113 149 0
115 151 0
116 151 0
109 147 0
109 147 0
110 148 0
110 148 0
114 150 0
109 147 0
112 149 0
115 151 0
114 150 0
106 145 0
114 150 0
112 149 0
110 147 0
114 150 0
112 149 0
110 147 0
110 148 0
114 150 0
114 150 0
113 150 0
111 149 0
111 148 0
111 148 0
114 150 0
116 151 0
112 149 0
117 152 0
115 151 0
112 149 0
112 149 0
111 148 0
108 147 0
117 152 0
112 149 0
113 149 0
115 151 0
115 151 0
116 151 0
115 151 0
112 149 0
113 150 0
112 149 0
113 149 0
112 149 0
109 147 0
112 149 0
115 151 0
114 150 0
107 146 0
112 149 0
117 152 0
116 151 0
109 147 0
111 148 0
109 147 0
113 149 0
112 149 0
109 147 0
109 147 0
112 149 0
118 153 0
109 147 0
111 149 0
115 151 0
109 147 0
114 150 0
110 148 0
107 146 0
110 148 0
114 150 0
116 151 0
112 149 0
113 149 0
105 145 0
105 145 0
103 144 0
106 145 0
107 146 0
106 145 0
104 144 0
104 144 0
104 144 0
107 146 0
105 145 0
104 144 0
102 143 0
107 146 0
104 144 0
109 147 0
103 143 0
105 144 0
102 143 0
107 146 0
106 145 0
107 146 0
107 146 0
104 144 0
104 144 0
104 144 0
107 146 0
103 144 0
104 144 0
105 145 0
108 147 0
107 146 0
104 144 0
107 146 0
104 144 0
105 145 0
104 144 0
105 145 0
107 146 0
103 143 0
108 147 0
106 146 0
107 146 0
107 146 0
104 144 0
105 145 0
107 146 0
102 143 0
105 145 0
107 146 0
105 144 0
106 145 0
104 144 0
105 145 0
104 144 0
104 144 0
105 145 0
104 144 0
105 145 0
105 144 0
104 144 0
107 146 0
103 144 0
103 143 0
106 145 0
104 144 0
105 145 0
106 145 0
104 144 0
103 143 0
104 144 0
104 144 0
105 145 0
104 144 0
104 144 0
105 145 0
104 144 0
104 144 0
104 144 0
104 144 0
104 144 0
103 144 0
103 144 0
106 145 0
104 144 0
104 144 0
108 147 0
103 144 0
104 144 0
106 145 0
107 146 0
103 143 0
104 144 0
104 144 0
103 144 0
107 146 0
104 144 0
103 144 0
104 144 0
103 144 0
103 143 0
105 145 0
103 144 0
104 144 0
104 144 0
104 144 0
105 145 0
104 144 0
105 145 0
107 146 0
104 144 0
103 143 0
106 145 0
106 145 0
104 144 0
107 146 0
104 144 0
104 144 0
105 145 0
104 144 0
103 144 0
105 145 0
108 146 0
109 147 0
106 145 0
106 145 0
105 145 0
106 145 0
104 144 0
103 144 0
104 144 0
105 145 0
103 144 0
103 144 0
105 145 0
105 145 0
104 144 0
105 145 0
103 144 0
104 144 0
107 146 0
105 145 0
105 145 0
104 144 0
106 145 0
110 148 0
106 145 0
105 145 0
103 144 0
107 146 0
102 143 0
107 146 0
104 144 0
107 146 0
107 146 0
107 146 0
103 143 0
104 144 0
105 145 0
110 147 0
108 146 0
105 145 0
112 149 0
108 146 0
102 143 0
107 146 0
105 145 0
106 145 0
105 145 0
106 145 0
103 143 0
111 149 0
109 147 0
105 145 0
106 145 0
108 147 0
110 148 0
110 147 0
110 148 0
107 146 0
106 146 0
106 145 0
112 149 0
105 145 0
104 144 0
105 144 0
109 147 0
107 146 0
110 148 0
105 145 0
110 148 0
106 145 0
113 150 0
104 144 0
106 145 0
105 145 0
108 146 0
106 145 0
108 147 0
111 148 0
109 147 0
106 145 0
109 147 0
112 149 0
109 147 0
112 149 0
112 149 0
104 144 0
106 145 0
107 146 0
114 150 0
110 148 0
116 151 0
112 149 0
108 147 0
107 146 0
113 149 0
105 145 0
108 147 0
110 148 0
109 147 0
109 147 0
108 146 0
110 148 0
108 146 0
110 147 0
111 148 0
113 150 0
106 145 0
112 149 0
105 145 0
105 145 0
108 147 0
112 149 0
105 145 0
110 148 0
113 149 0
105 145 0
115 150 0
113 150 0
113 149 0
108 146 0
120 154 0
108 147 0
111 148 0
111 148 0
110 148 0
107 146 0
114 150 0
113 149 0
116 151 0
112 149 0
112 149 0
106 145 0
115 151 0
116 151 0
107 146 0
112 149 0
110 148 0
112 149 0
113 150 0
108 146 0
107 146 0
109 147 0
116 151 0
110 147 0
114 150 0
112 149 0
107 146 0
111 148 0
109 147 0
118 152 0
109 147 0
117 152 0
116 151 0
111 148 0
108 147 0
108 147 0
113 149 0
119 153 0
110 148 0
113 149 0
121 154 0
114 150 0
116 151 0
116 151 0
108 146 0
110 148 0
106 145 0
112 149 0
110 148 0
108 147 0
116 151 0
116 151 0
110 148 0
111 149 0
113 150 0
117 152 0
107 146 0
113 150 0
114 150 0
115 150 0
107 146 0
113 150 0
120 154 0
111 148 0
113 150 0
110 148 0
113 149 0
109 147 0
116 151 0
115 151 0
110 148 0
109 147 0
115 151 0
110 148 0
110 148 0
109 147 0
113 149 0
110 148 0
118 152 0
113 150 0
117 152 0
113 149 0
116 151 0
115 151 0
113 149 0
113 149 0
107 146 0
113 149 0
111 149 0
121 155 0
106 145 0
110 148 0
118 153 0
114 150 0
111 149 0
119 153 0
121 154 0
110 148 0
113 150 0
109 147 0
116 151 0
114 150 0
107 146 0
111 148 0
111 148 0
115 151 0
110 148 0
113 150 0
116 152 0
110 148 0
111 149 0
109 147 0
108 146 0
110 147 0
107 146 0
113 149 0
118 152 0
107 146 0
113 150 0
110 148 0
114 150 0
109 147 0
117 152 0
118 152 0
114 150 0
108 146 0
113 149 0
111 148 0
117 152 0
113 149 0
111 148 0
107 146 0
110 148 0
109 147 0
108 147 0
114 150 0
111 148 0
111 148 0
111 148 0
110 147 0
110 148 0
110 148 0
109 147 0
112 149 0
110 148 0
114 150 0
113 150 0
112 149 0
114 150 0
114 150 0
117 152 0
111 148 0
117 152 0
108 146 0
113 149 0
110 148 0
108 147 0
113 150 0
105 145 0
104 144 0
104 144 0
106 145 0
102 143 0
105 145 0
103 144 0
107 146 0
105 145 0
104 144 0
106 145 0
105 144 0
104 144 0
106 145 0
104 144 0
104 144 0
103 143 0
106 145 0
105 145 0
103 144 0
104 144 0
106 145 0
104 144 0
105 145 0
105 145 0
103 144 0
104 144 0
103 144 0
103 143 0
104 144 0
107 146 0
107 146 0
103 144 0
104 144 0
104 144 0
106 145 0
106 145 0
104 144 0
104 144 0
105 145 0
104 144 0
105 145 0
106 145 0
104 144 0
105 145 0
105 145 0
105 145 0
105 145 0
104 144 0
103 143 0
104 144 0
107 146 0
103 143 0
106 145 0
107 146 0
103 143 0
104 144 0
107 146 0
106 145 0
106 145 0
104 144 0
104 144 0
107 146 0
104 144 0
104 144 0
106 145 0
104 144 0
104 144 0
104 144 0
103 144 0
104 144 0
105 145 0
105 145 0
104 144 0
107 146 0
104 144 0
106 145 0
104 144 0
104 144 0
104 144 0
103 144 0
105 145 0
105 145 0
107 146 0
104 144 0
103 144 0
104 144 0
106 145 0
104 144 0
105 145 0
105 145 0
104 144 0
104 144 0
105 145 0
103 144 0
106 145 0
104 144 0
104 144 0
106 145 0
105 145 0
105 144 0
106 145 0
104 144 0
107 146 0
105 145 0
106 145 0
103 144 0
106 145 0
104 144 0
108 147 0
103 144 0
104 144 0
106 145 0
106 145 0
106 146 0
104 144 0
104 144 0
103 144 0
104 144 0
103 144 0
108 147 0
106 145 0
105 144 0
104 144 0
103 144 0
106 145 0
105 145 0
107 146 0
103 144 0
103 144 0
105 145 0
104 144 0
105 145 0
103 144 0
106 146 0
105 145 0
106 145 0
108 146 0
109 147 0
104 144 0
107 146 0
105 145 0
104 144 0
105 145 0
105 144 0
107 146 0
108 146 0
107 146 0
105 145 0
106 145 0
109 147 0
106 146 0
106 145 0
105 145 0
107 146 0
105 145 0
103 144 0
108 147 0
108 147 0
104 144 0
108 146 0
107 146 0
108 146 0
104 144 0
104 144 0
105 145 0
106 145 0
114 150 0
105 145 0
106 146 0
105 144 0
105 145 0
105 145 0
104 144 0
103 144 0
106 145 0
107 146 0
106 146 0
107 146 0
107 146 0
106 146 0
108 147 0
107 146 0
109 147 0
105 144 0
113 150 0
113 150 0
106 145 0
105 145 0
112 149 0
109 147 0
105 145 0
105 145 0
116 151 0
109 147 0
111 149 0
107 146 0
108 147 0
110 148 0
111 148 0
111 148 0
113 150 0
114 150 0
109 147 0
106 145 0
107 146 0
111 148 0
115 151 0
106 145 0
113 150 0
105 145 0
111 148 0
111 148 0
110 148 0
115 150 0
108 146 0
113 150 0
106 145 0
110 148 0
108 147 0
109 147 0
105 145 0
112 149 0
108 146 0
109 147 0
105 145 0
116 151 0
112 149 0
111 148 0
115 150 0
106 145 0
107 146 0
116 151 0
114 150 0
107 146 0
113 150 0
118 152 0
107 146 0
113 150 0
113 149 0
113 149 0
108 147 0
114 150 0
109 147 0
110 148 0
113 150 0
110 148 0
107 146 0
110 148 0
115 150 0
113 149 0
113 149 0
109 147 0
112 149 0
111 148 0
108 146 0
114 150 0
117 152 0
116 151 0
113 149 0
111 149 0
109 147 0
110 148 0
109 147 0
109 147 0
110 148 0
110 148 0
111 148 0
110 148 0
115 151 0
110 148 0
114 150 0
113 150 0
108 146 0
117 152 0
113 149 0
109 147 0
119 153 0
111 149 0
117 152 0
117 152 0
116 151 0
110 148 0
113 149 0
121 154 0
118 152 0
114 150 0
106 145 0
112 149 0
112 149 0
118 153 0
114 150 0
113 149 0
112 149 0
119 153 0
113 150 0
116 151 0
112 149 0
110 148 0
110 148 0
114 150 0
119 153 0
111 148 0
113 150 0
116 151 0
116 151 0
117 152 0
113 149 0
116 151 0
112 149 0
111 148 0
115 151 0
114 150 0
112 149 0
115 151 0
121 154 0
107 146 0
109 147 0
115 151 0
115 151 0
113 150 0
113 149 0
111 148 0
107 146 0
109 147 0
111 148 0
115 151 0
113 149 0
115 151 0
111 148 0
109 147 0
119 153 0
111 148 0
112 149 0
108 147 0
117 152 0
112 149 0
110 148 0
111 148 0
117 152 0
115 151 0
109 147 0
118 153 0
109 147 0
115 151 0
107 146 0
109 147 0
115 151 0
112 149 0
109 147 0
113 150 0
115 151 0
116 151 0
114 150 0
111 148 0
111 148 0
112 149 0
114 150 0
107 146 0
111 148 0
113 150 0
116 151 0
112 149 0
113 150 0
113 149 0
114 150 0
113 149 0
110 148 0
119 153 0
110 148 0
109 147 0
111 148 0
112 149 0
113 149 0
111 148 0
117 152 0
112 149 0
113 149 0
108 146 0
112 149 0
108 147 0
111 148 0
120 154 0
117 152 0
115 151 0
115 151 0
111 148 0
112 149 0
115 150 0
111 148 0
113 150 0
108 147 0
116 151 0
113 149 0
114 150 0
108 147 0
106 146 0
108 147 0
112 149 0
114 150 0
106 145 0
107 146 0
107 146 0
104 144 0
104 144 0
104 144 0
106 145 0
106 145 0
103 143 0
103 143 0
103 144 0
104 144 0
106 145 0
107 146 0
106 145 0
103 143 0
104 144 0
103 143 0
103 143 0
103 143 0
105 145 0
104 144 0
104 144 0
103 144 0
103 144 0
107 146 0
104 144 0
105 145 0
103 143 0
104 144 0
104 144 0
106 145 0
104 144 0
104 144 0
103 144 0
105 145 0
104 144 0
103 144 0
107 146 0
107 146 0
102 143 0
104 144 0
102 143 0
103 143 0
104 144 0
105 145 0
106 146 0
105 145 0
103 144 0
104 144 0
105 145 0
105 145 0
105 144 0
104 144 0
107 146 0
104 144 0
106 145 0
106 145 0
104 144 0
103 143 0
105 145 0
104 144 0
105 145 0
106 145 0
106 145 0
104 144 0
104 144 0
104 144 0
105 145 0
105 145 0
105 145 0
105 144 0
105 145 0
105 145 0
105 145 0
108 146 0
107 146 0
104 144 0
106 145 0
103 144 0
105 144 0
106 145 0
105 145 0
104 144 0
104 144 0
105 145 0
105 145 0
106 146 0
104 144 0
106 145 0
104 144 0
103 144 0
104 144 0
105 145 0
104 144 0
104 144 0
108 146 0
103 144 0
105 145 0
104 144 0
103 144 0
106 145 0
105 145 0
107 146 0
103 144 0
105 145 0
103 144 0
104 144 0
105 145 0
105 145 0
104 144 0
105 145 0
106 145 0
104 144 0
107 146 0
104 144 0
105 145 0
108 147 0
104 144 0
105 145 0
106 145 0
103 143 0
103 143 0
104 144 0
104 144 0
104 144 0
105 145 0
105 145 0
104 144 0
104 144 0
105 145 0
105 145 0
106 145 0
104 144 0
105 145 0
105 144 0
105 145 0
106 145 0
104 144 0
104 144 0
103 144 0
104 144 0
107 146 0
107 146 0
103 144 0
103 143 0
104 144 0
110 148 0
107 146 0
105 145 0
104 144 0
105 145 0
105 145 0
108 147 0
104 144 0
104 144 0
105 145 0
105 145 0
106 145 0
104 144 0
104 144 0
104 144 0
108 147 0
106 145 0
105 145 0
109 147 0
108 146 0
104 144 0
106 145 0
110 148 0
107 146 0
108 147 0
105 145 0
107 146 0
105 145 0
109 147 0
108 146 0
106 145 0
105 145 0
109 147 0
107 146 0
110 148 0
106 145 0
110 148 0
105 145 0
108 146 0
109 147 0
106 145 0
107 146 0
113 149 0
106 146 0
104 144 0
108 146 0
112 149 0
115 151 0
107 146 0
114 150 0
111 148 0
114 150 0
110 148 0
109 147 0
110 148 0
107 146 0
109 147 0
108 146 0
109 147 0
111 148 0
106 145 0
111 148 0
113 150 0
111 148 0
109 147 0
108 147 0
114 150 0
108 147 0
108 146 0
108 147 0
113 149 0
108 146 0
114 150 0
116 151 0
111 148 0
114 150 0
110 147 0
111 149 0
112 149 0
111 148 0
109 147 0
112 149 0
110 148 0
111 148 0
111 148 0
108 146 0
115 151 0
107 146 0
116 152 0
116 151 0
112 149 0
112 149 0
111 148 0
111 148 0
120 154 0
110 147 0
112 149 0
110 148 0
115 151 0
116 151 0
114 150 0
106 145 0
119 153 0
109 147 0
114 150 0
122 155 0
113 150 0
110 148 0
115 151 0
111 149 0
114 150 0
108 146 0
113 150 0
111 148 0
110 148 0
112 149 0
108 146 0
108 147 0
109 147 0
108 146 0
109 147 0
113 150 0
108 147 0
114 150 0
115 151 0
111 148 0
111 149 0
116 151 0
116 151 0
112 149 0
114 150 0
109 147 0
111 148 0
112 149 0
117 152 0
117 152 0
115 151 0
118 152 0
112 149 0
113 150 0
113 150 0
114 150 0
116 151 0
109 147 0
109 147 0
117 152 0
111 148 0
113 149 0
113 149 0
116 151 0
110 148 0
110 148 0
119 153 0
111 148 0
113 150 0
110 148 0
112 149 0
115 151 0
113 149 0
111 148 0
114 150 0
120 154 0
116 152 0
113 149 0
109 147 0
112 149 0
118 153 0
112 149 0
115 150 0
114 150 0
114 150 0
109 147 0
115 151 0
111 149 0
112 149 0
113 150 0
113 150 0
113 150 0
111 149 0
110 148 0
116 151 0
113 150 0
112 149 0
111 148 0
119 153 0
115 151 0
113 149 0
109 147 0
115 150 0
115 151 0
116 151 0
118 153 0
108 147 0
114 150 0
109 147 0
119 153 0
111 149 0
113 149 0
108 147 0
110 147 0
110 148 0
112 149 0
111 148 0
113 150 0
109 147 0
108 147 0
109 147 0
110 147 0
113 150 0
112 149 0
110 148 0
111 148 0
112 149 0
108 147 0
110 148 0
113 149 0
114 150 0
107 146 0
114 150 0
111 148 0
114 150 0
113 149 0
111 148 0
111 149 0
116 151 0
114 150 0
117 152 0
113 149 0
119 153 0
111 148 0
114 150 0
113 150 0
116 151 0
117 152 0
116 151 0
109 147 0
111 148 0
114 150 0
109 147 0
111 148 0
114 150 0
107 146 0
109 147 0
113 150 0
111 148 0
114 150 0
113 150 0
112 149 0
113 149 0
109 147 0
112 149 0
115 151 0
109 147 0
107 146 0
105 145 0
107 146 0
104 144 0
110 148 0
104 144 0
107 146 0
104 144 0
104 144 0
107 146 0
106 146 0
105 145 0
106 145 0
103 144 0
104 144 0
107 146 0
104 144 0
105 145 0
104 144 0
106 145 0
104 144 0
103 144 0
104 144 0
104 144 0
107 146 0
105 145 0
106 145 0
104 144 0
103 144 0
103 143 0
104 144 0
107 146 0
104 144 0
106 145 0
105 144 0
106 145 0
107 146 0
108 147 0
106 145 0
103 144 0
104 144 0
104 144 0
106 146 0
104 144 0
106 145 0
106 145 0
106 145 0
105 145 0
104 144 0
107 146 0
105 145 0
107 146 0
104 144 0
104 144 0
104 144 0
106 145 0
103 143 0
103 144 0
104 144 0
107 146 0
103 144 0
104 144 0
106 145 0
104 144 0
106 145 0
106 146 0
104 144 0
105 145 0
105 145 0
106 145 0
107 146 0
104 144 0
104 144 0
109 147 0
105 145 0
105 145 0
107 146 0
104 144 0
103 144 0
105 145 0
106 146 0
105 145 0
103 144 0
105 144 0
106 145 0
105 145 0
105 144 0
105 145 0
103 144 0
106 146 0
104 144 0
104 144 0
106 145 0
105 145 0
106 145 0
106 145 0
104 144 0
104 144 0
106 145 0
103 144 0
104 144 0
103 144 0
103 143 0
104 144 0
105 145 0
105 145 0
104 144 0
105 145 0
105 145 0
107 146 0
103 144 0
103 143 0
105 144 0
105 144 0
105 145 0
103 144 0
106 145 0
108 146 0
104 144 0
105 145 0
106 145 0
107 146 0
104 144 0
104 144 0
103 144 0
104 144 0
107 146 0
106 146 0
107 146 0
106 145 0
105 145 0
107 146 0
104 144 0
106 146 0
105 145 0
107 146 0
104 144 0
103 144 0
105 145 0
109 147 0
106 146 0
104 144 0
104 144 0
104 144 0
107 146 0
104 144 0
103 144 0
103 143 0
105 145 0
106 145 0
110 148 0
104 144 0
104 144 0
106 146 0
106 145 0
109 147 0
107 146 0
104 144 0
106 145 0
104 144 0
106 145 0
108 146 0
109 147 0
104 144 0
112 149 0
105 145 0
106 146 0
105 145 0
109 147 0
107 146 0
110 148 0
104 144 0
105 145 0
108 146 0
105 145 0
111 149 0
109 147 0
105 145 0
108 146 0
108 147 0
108 147 0
107 146 0
110 148 0
106 145 0
103 143 0
108 147 0
110 147 0
111 148 0
106 145 0
106 145 0
109 147 0
108 146 0
113 149 0
108 147 0
107 146 0
106 145 0
105 145 0
112 149 0
111 148 0
110 148 0
107 146 0
106 145 0
113 150 0
107 146 0
111 148 0
116 151 0
104 144 0
110 148 0
105 145 0
109 147 0
110 148 0
105 145 0
115 150 0
107 146 0
113 149 0
111 148 0
109 147 0
108 147 0
117 152 0
121 154 0
111 148 0
108 147 0
107 146 0
116 151 0
111 148 0
112 149 0
108 146 0
116 151 0
115 150 0
113 150 0
111 148 0
116 151 0
111 149 0
114 150 0
106 145 0
108 147 0
116 151 0
106 145 0
116 151 0
115 151 0
114 150 0
111 148 0
106 145 0
116 151 0
113 150 0
117 152 0
110 148 0
115 151 0
111 149 0
112 149 0
116 151 0
115 151 0
108 147 0
112 149 0
113 149 0
115 151 0
114 150 0
116 151 0
115 151 0
111 148 0
112 149 0
111 148 0
114 150 0
113 149 0
113 150 0
114 150 0
108 147 0
114 150 0
110 148 0
113 150 0
112 149 0
115 151 0
110 148 0
114 150 0
115 151 0
120 154 0
117 152 0
115 150 0
114 150 0
112 149 0
109 147 0
111 148 0
119 153 0
114 150 0
106 146 0
110 148 0
109 147 0
115 150 0
112 149 0
109 147 0
115 151 0
115 151 0
116 151 0
115 151 0
110 148 0
112 149 0
116 151 0
110 148 0
117 152 0
112 149 0
116 151 0
115 151 0
111 148 0
114 150 0
115 151 0
109 147 0
117 152 0
115 151 0
117 152 0
114 150 0
114 150 0
113 149 0
114 150 0
120 154 0
108 146 0
117 152 0
114 150 0
111 148 0
111 148 0
114 150 0
107 146 0
115 151 0
112 149 0
109 147 0
114 150 0
116 152 0
112 149 0
111 149 0
114 150 0
112 149 0
112 149 0
112 149 0
115 150 0
113 149 0
109 147 0
115 151 0
118 153 0
112 149 0
109 147 0
117 152 0
110 148 0
115 151 0
116 151 0
116 151 0
115 151 0
113 150 0
122 155 0
110 148 0
115 151 0
111 148 0
113 149 0
111 148 0
110 148 0
111 149 0
111 148 0
124 156 0
110 148 0
114 150 0
113 149 0
113 149 0
114 150 0
109 147 0
114 150 0
109 147 0
109 147 0
113 150 0
108 147 0
113 150 0
110 148 0
113 149 0
114 150 0
112 149 0
111 149 0
109 147 0
113 150 0
112 149 0
109 147 0
115 151 0
110 148 0
112 149 0
111 148 0
115 151 0
110 148 0
111 149 0
109 147 0
111 148 0
116 151 0
114 150 0
116 151 0
109 147 0
119 153 0
113 149 0
107 146 0
112 149 0
116 151 0
113 149 0
110 148 0
114 150 0
113 149 0
113 150 0
105 145 0
108 147 0
107 146 0
105 145 0
104 144 0
105 145 0
104 144 0
105 145 0
106 145 0
104 144 0
107 146 0
106 145 0
103 143 0
106 145 0
105 145 0
104 144 0
105 144 0
106 145 0
107 146 0
106 145 0
105 145 0
105 145 0
108 146 0
107 146 0
104 144 0
104 144 0
106 145 0
105 145 0
105 144 0
104 144 0
108 146 0
104 144 0
104 144 0
106 145 0
105 145 0
103 144 0
106 145 0
105 145 0
106 145 0
103 143 0
105 145 0
106 145 0
105 145 0
105 145 0
104 144 0
103 144 0
104 144 0
105 145 0
104 144 0
104 144 0
103 143 0
103 143 0
105 145 0
104 144 0
106 145 0
104 144 0
108 147 0
103 144 0
103 144 0
105 145 0
104 144 0
103 144 0
105 145 0
105 145 0
105 144 0
104 144 0
104 144 0
104 144 0
105 145 0
108 146 0
105 144 0
104 144 0
105 145 0
107 146 0
105 145 0
104 144 0
104 144 0
104 144 0
105 144 0
103 143 0
105 145 0
104 144 0
104 144 0
104 144 0
104 144 0
104 144 0
106 145 0
103 143 0
104 144 0
105 145 0
104 144 0
104 144 0
106 145 0
105 145 0
105 144 0
105 145 0
103 143 0
103 143 0
104 144 0
103 144 0
105 145 0
104 144 0
105 145 0
105 144 0
104 144 0
109 147 0
106 145 0
109 147 0
105 145 0
107 146 0
103 144 0
104 144 0
105 145 0
104 144 0
104 144 0
104 144 0
105 145 0
104 144 0
105 144 0
105 145 0
106 145 0
104 144 0
105 144 0
104 144 0
104 144 0
107 146 0
105 145 0
106 145 0
104 144 0
104 144 0
105 144 0
103 144 0
106 145 0
105 145 0
105 145 0
106 146 0
103 144 0
107 146 0
104 144 0
104 144 0
105 145 0
105 145 0
105 145 0
104 144 0
104 144 0
110 148 0
109 147 0
106 145 0
109 147 0
103 143 0
104 144 0
103 144 0
106 145 0
109 147 0
106 145 0
105 145 0
107 146 0
107 146 0
105 145 0
108 146 0
105 145 0
108 147 0
108 146 0
103 144 0
105 145 0
107 146 0
109 147 0
107 146 0
109 147 0
103 144 0
112 149 0
107 146 0
104 144 0
111 148 0
107 146 0
106 145 0
107 146 0
109 147 0
114 150 0
106 145 0
106 145 0
109 147 0
109 147 0
105 145 0
104 144 0
112 149 0
108 146 0
110 148 0
108 147 0
109 147 0
108 146 0
106 145 0
109 147 0
107 146 0
106 146 0
109 147 0
105 145 0
109 147 0
110 148 0
113 150 0
111 148 0
119 153 0
103 143 0
119 153 0
108 147 0
112 149 0
115 151 0
108 147 0
108 146 0
108 146 0
108 147 0
109 147 0
107 146 0
113 150 0
112 149 0
109 147 0
108 146 0
109 147 0
115 150 0
116 151 0
116 151 0
107 146 0
110 148 0
106 146 0
110 148 0
109 147 0
109 147 0
109 147 0
115 151 0
116 151 0
116 151 0
113 150 0
125 156 0
109 147 0
110 148 0
111 148 0
108 147 0
115 151 0
116 151 0
107 146 0
112 149 0
106 146 0
108 146 0
115 151 0
110 148 0
109 147 0
109 147 0
106 145 0
117 152 0
110 148 0
106 145 0
113 150 0
116 152 0
110 148 0
110 148 0
112 149 0
117 152 0
110 148 0
123 156 0
110 148 0
119 153 0
112 149 0
114 150 0
111 149 0
115 151 0
119 153 0
123 155 0
110 148 0
112 149 0
113 150 0
111 148 0
113 149 0
108 146 0
111 149 0
120 154 0
112 149 0
111 148 0
110 148 0
116 152 0
112 149 0
113 149 0
116 151 0
117 152 0
109 147 0
111 148 0
115 151 0
110 148 0
114 150 0
114 150 0
108 147 0
113 150 0
117 152 0
113 150 0
114 150 0
114 150 0
113 149 0
110 148 0
116 151 0
116 151 0
115 151 0
110 147 0
116 151 0
120 154 0
115 151 0
114 150 0
110 148 0
112 149 0
116 151 0
112 149 0
114 150 0
116 151 0
114 150 0
116 151 0
112 149 0
111 148 0
115 150 0
109 147 0
119 153 0
119 153 0
113 149 0
108 146 0
110 148 0
112 149 0
110 148 0
114 150 0
110 148 0
111 149 0
114 150 0
111 149 0
116 151 0
107 146 0
112 149 0
116 151 0
115 151 0
113 150 0
108 147 0
110 148 0
111 149 0
110 148 0
108 147 0
114 150 0
117 152 0
112 149 0
113 149 0
115 151 0
115 150 0
113 150 0
113 150 0
112 149 0
110 147 0
113 150 0
113 149 0
115 151 0
115 151 0
115 151 0
114 150 0
110 148 0
121 154 0
113 150 0
114 150 0
112 149 0
111 148 0
110 148 0
112 149 0
116 151 0
117 152 0
111 149 0
112 149 0
108 147 0
115 151 0
114 150 0
109 147 0
125 157 0
107 146 0
112 149 0
113 150 0
112 149 0
111 148 0
113 150 0
109 147 0
114 150 0
112 149 0
111 148 0
113 150 0
111 148 0
116 151 0
113 149 0
109 147 0
112 149 0
110 147 0
112 149 0
116 151 0
113 149 0
110 148 0
110 148 0
113 149 0
120 153 0
109 147 0
112 149 0
112 149 0
103 144 0
105 145 0
104 144 0
106 145 0
108 147 0
103 143 0
106 145 0
107 146 0
106 145 0
106 145 0
105 145 0
108 147 0
105 145 0
106 146 0
105 145 0
107 146 0
104 144 0
103 143 0
104 144 0
105 145 0
103 144 0
106 145 0
106 145 0
105 145 0
103 144 0
104 144 0
104 144 0
106 146 0
104 144 0
103 144 0
106 145 0
103 144 0
103 143 0
103 143 0
106 145 0
104 144 0
104 144 0
104 144 0
105 145 0
106 146 0
104 144 0
103 144 0
105 145 0
105 145 0
105 145 0
107 146 0
106 145 0
104 144 0
103 144 0
106 145 0
105 145 0
105 144 0
106 145 0
105 145 0
105 145 0
103 143 0
103 144 0
106 146 0
104 144 0
104 144 0
104 144 0
103 144 0
104 144 0
104 144 0
104 144 0
103 144 0
105 145 0
106 145 0
104 144 0
106 145 0
106 145 0
103 144 0
105 144 0
108 146 0
105 145 0
105 145 0
105 145 0
105 145 0
105 145 0
104 144 0
105 145 0
104 144 0
103 144 0
105 145 0
105 145 0
106 145 0
105 145 0
105 145 0
103 144 0
104 144 0
103 143 0
105 145 0
108 146 0
106 145 0
104 144 0
104 144 0
104 144 0
104 144 0
104 144 0
105 144 0
104 144 0
104 144 0
108 146 0
105 145 0
105 144 0
103 144 0
102 143 0
106 145 0
104 144 0
106 145 0
106 145 0
104 144 0
105 145 0
104 144 0
105 145 0
106 145 0
106 145 0
105 145 0
105 145 0
105 144 0
106 145 0
106 145 0
106 145 0
105 145 0
104 144 0
104 144 0
108 147 0
104 144 0
105 145 0
104 144 0
106 145 0
107 146 0
104 144 0
103 144 0
108 146 0
106 145 0
106 145 0
105 145 0
104 144 0
106 146 0
104 144 0
104 144 0
103 144 0
105 145 0
107 146 0
104 144 0
107 146 0
105 145 0
108 147 0
112 149 0
104 144 0
109 147 0
103 144 0
106 145 0
106 145 0
107 146 0
105 145 0
103 144 0
107 146 0
107 146 0
107 146 0
105 144 0
103 143 0
113 150 0
108 146 0
107 146 0
109 147 0
108 147 0
107 146 0
107 146 0
107 146 0
105 145 0
105 145 0
109 147 0
107 146 0
106 145 0
108 146 0
106 145 0
108 147 0
112 149 0
106 145 0
111 148 0
107 146 0
104 144 0
108 147 0
110 148 0
104 144 0
105 145 0
108 146 0
106 145 0
111 148 0
109 147 0
111 148 0
105 145 0
105 144 0
107 146 0
108 146 0
110 148 0
108 146 0
111 148 0
113 149 0
113 149 0
105 145 0
110 148 0
114 150 0
110 147 0
114 150 0
114 150 0
104 144 0
108 147 0
115 151 0
110 148 0
108 147 0
117 152 0
108 147 0
110 148 0
114 150 0
115 150 0
118 152 0
115 151 0
116 151 0
110 148 0
112 149 0
114 150 0
112 149 0
110 148 0
116 151 0
118 152 0
117 152 0
109 147 0
113 149 0
116 151 0
115 150 0
106 145 0
105 144 0
109 147 0
109 147 0
112 149 0
115 151 0
118 152 0
110 148 0
116 151 0
114 150 0
115 151 0
116 151 0
110 147 0
110 148 0
110 147 0
119 153 0
110 148 0
113 150 0
115 151 0
112 149 0
107 146 0
114 150 0
115 151 0
115 151 0
114 150 0
108 147 0
111 148 0
120 153 0
115 151 0
118 152 0
114 150 0
115 151 0
113 149 0
116 151 0
109 147 0
119 153 0
114 150 0
118 152 0
119 153 0
112 149 0
111 148 0
116 151 0
113 150 0
109 147 0
111 148 0
117 152 0
110 147 0
113 149 0
116 151 0
116 151 0
114 150 0
107 146 0
107 146 0
113 150 0
113 149 0
108 147 0
109 147 0
112 149 0
110 148 0
114 150 0
115 151 0
116 152 0
115 151 0
116 151 0
110 148 0
116 152 0
114 150 0
110 148 0
110 148 0
112 149 0
115 151 0
113 150 0
115 151 0
111 148 0
112 149 0
117 152 0
112 149 0
114 150 0
114 150 0
114 150 0
112 149 0
110 148 0
116 151 0
106 145 0
111 149 0
113 149 0
111 149 0
116 152 0
113 149 0
113 149 0
113 150 0
113 150 0
114 150 0
112 149 0
113 150 0
117 152 0
112 149 0
116 151 0
113 149 0
114 150 0
112 149 0
118 153 0
109 147 0
116 151 0
115 151 0
115 151 0
115 151 0
110 148 0
113 149 0
112 149 0
111 148 0
112 149 0
114 150 0
113 150 0
114 150 0
118 153 0
120 153 0
113 150 0
114 150 0
114 150 0
108 146 0
110 147 0
113 149 0
113 149 0
113 150 0
112 149 0
118 152 0
120 154 0
113 150 0
113 149 0
113 149 0
112 149 0
111 149 0
115 151 0
118 153 0
112 149 0
117 152 0
117 152 0
119 153 0
110 148 0
112 149 0
113 150 0
113 149 0
115 151 0
115 151 0
111 148 0
113 150 0
113 150 0
114 150 0
106 146 0
116 152 0
111 148 0
118 153 0
112 149 0
110 148 0
113 150 0
112 149 0
115 151 0
118 153 0
118 153 0
111 149 0
115 151 0
115 151 0
108 147 0
112 149 0
111 148 0
108 147 0
105 145 0
108 146 0
105 144 0
105 145 0
110 148 0
107 146 0
105 145 0
104 144 0
105 145 0
105 145 0
106 145 0
105 145 0
103 144 0
109 147 0
105 145 0
105 145 0
104 144 0
103 144 0
107 146 0
104 144 0
108 146 0
105 145 0
105 145 0
103 144 0
103 144 0
106 145 0
105 145 0
104 144 0
103 144 0
103 143 0
106 145 0
105 144 0
107 146 0
107 146 0
103 144 0
105 145 0
106 145 0
104 144 0
104 144 0
105 145 0
107 146 0
103 144 0
107 146 0
106 145 0
104 144 0
103 144 0
103 144 0
104 144 0
104 144 0
105 145 0
104 144 0
105 145 0
106 145 0
104 144 0
103 144 0
104 144 0
104 144 0
106 145 0
104 144 0
106 145 0
103 144 0
106 145 0
106 145 0
106 145 0
105 145 0
106 145 0
104 144 0
103 144 0
106 145 0
107 146 0
105 145 0
104 144 0
104 144 0
105 145 0
103 144 0
105 145 0
104 144 0
103 144 0
106 145 0
104 144 0
104 144 0
107 146 0
104 144 0
106 145 0
104 144 0
104 144 0
105 145 0
104 144 0
104 144 0
103 144 0
105 145 0
105 145 0
103 143 0
106 146 0
105 145 0
103 144 0
105 145 0
106 145 0
107 146 0
103 144 0
104 144 0
103 144 0
104 144 0
106 145 0
105 145 0
105 145 0
105 145 0
105 145 0
104 144 0
107 146 0
103 144 0
106 145 0
103 144 0
109 147 0
106 145 0
106 145 0
106 146 0
104 144 0
106 145 0
109 147 0
103 143 0
105 145 0
105 144 0
104 144 0
106 146 0
103 143 0
107 146 0
110 148 0
104 144 0
103 143 0
108 147 0
105 144 0
107 146 0
103 143 0
106 145 0
107 146 0
103 144 0
110 148 0
105 145 0
104 144 0
107 146 0
105 145 0
107 146 0
105 145 0
106 145 0
112 149 0
107 146 0
108 147 0
106 145 0
105 145 0
103 144 0
108 147 0
103 144 0
104 144 0
108 147 0
107 146 0
110 148 0
109 147 0
107 146 0
107 146 0
107 146 0
108 146 0
106 145 0
105 145 0
106 146 0
106 146 0
110 148 0
105 144 0
110 148 0
108 147 0
111 148 0
108 147 0
108 147 0
109 147 0
106 145 0
110 148 0
108 146 0
104 144 0
112 149 0
105 145 0
108 147 0
106 145 0
110 147 0
107 146 0
107 146 0
108 146 0
108 147 0
106 146 0
112 149 0
109 147 0
110 148 0
113 150 0
110 148 0
111 148 0
108 147 0
109 147 0
105 145 0
106 145 0
105 145 0
110 148 0
107 146 0
110 147 0
107 146 0
109 147 0
111 148 0
116 152 0
113 149 0
110 148 0
109 147 0
110 148 0
111 149 0
111 148 0
116 151 0
109 147 0
114 150 0
108 147 0
115 151 0
108 147 0
110 148 0
108 146 0
110 148 0
113 150 0
111 148 0
111 149 0
113 149 0
118 152 0
112 149 0
112 149 0
114 150 0
114 150 0
115 151 0
117 152 0
111 149 0
110 148 0
121 155 0
109 147 0
116 151 0
115 151 0
120 154 0
115 151 0
111 148 0
109 147 0
110 148 0
114 150 0
113 150 0
107 146 0
116 152 0
116 151 0
118 152 0
111 148 0
110 148 0
111 148 0
113 150 0
119 153 0
112 149 0
117 152 0
117 152 0
114 150 0
110 148 0
108 147 0
112 149 0
112 149 0
112 149 0
110 147 0
117 152 0
107 146 0
113 150 0
113 150 0
117 152 0
114 150 0
112 149 0
112 149 0
113 150 0
112 149 0
114 150 0
123 156 0
111 148 0
113 150 0
112 149 0
109 147 0
113 150 0
114 150 0
115 151 0
112 149 0
110 147 0
119 153 0
116 151 0
113 150 0
120 153 0
115 151 0
116 151 0
114 150 0
115 151 0
113 150 0
115 151 0
115 151 0
112 149 0
114 150 0
110 148 0
116 152 0
113 149 0
111 148 0
113 149 0
112 149 0
114 150 0
111 148 0
114 150 0
120 154 0
112 149 0
113 150 0
121 154 0
114 150 0
120 154 0
114 150 0
109 147 0
110 148 0
118 152 0
115 150 0
105 145 0
116 151 0
115 151 0
110 148 0
115 151 0
117 152 0
110 148 0
117 152 0
112 149 0
114 150 0
114 150 0
113 150 0
115 151 0
109 147 0
117 152 0
115 151 0
113 149 0
115 151 0
109 147 0
114 150 0
114 150 0
116 152 0
110 148 0
109 147 0
113 150 0
116 151 0
111 149 0
114 150 0
108 146 0
122 155 0
114 150 0
107 146 0
117 152 0
111 148 0
116 152 0
114 150 0
109 147 0
119 153 0
114 150 0
114 150 0
112 149 0
117 152 0
111 148 0
111 149 0
109 147 0
110 148 0
114 150 0
112 149 0
113 150 0
115 150 0
113 149 0
112 149 0
113 149 0
112 149 0
111 148 0
110 148 0
112 149 0
112 149 0
111 148 0
116 151 0
111 148 0
111 148 0
113 149 0
109 147 0
113 149 0
112 149 0
116 151 0
116 151 0
113 150 0
112 149 0
120 154 0
112 149 0
117 152 0
113 149 0
111 148 0
114 150 0
114 150 0
114 150 0
119 153 0
116 152 0
116 151 0
113 150 0
105 145 0
104 144 0
105 145 0
106 145 0
104 144 0
104 144 0
105 145 0
106 145 0
104 144 0
104 144 0
105 144 0
104 144 0
103 143 0
103 144 0
106 145 0
106 145 0
103 143 0
103 143 0
104 144 0
104 144 0
106 145 0
107 146 0
103 144 0
106 146 0
106 145 0
107 146 0
105 145 0
105 145 0
105 145 0
105 145 0
105 145 0
104 144 0
103 144 0
103 143 0
103 144 0
105 145 0
104 144 0
105 145 0
108 147 0
104 144 0
105 145 0
108 147 0
104 144 0
106 145 0
104 144 0
107 146 0
104 144 0
103 144 0
106 145 0
105 145 0
106 145 0
104 144 0
102 143 0
107 146 0
107 146 0
103 143 0
104 144 0
105 145 0
108 147 0
108 146 0
105 145 0
104 144 0
104 144 0
103 144 0
106 145 0
105 145 0
104 144 0
105 145 0
103 143 0
103 144 0
104 144 0
103 144 0
103 144 0
106 145 0
104 144 0
106 145 0
105 145 0
103 144 0
105 145 0
106 145 0
105 145 0
106 145 0
104 144 0
105 145 0
104 144 0
104 144 0
103 144 0
105 145 0
104 144 0
104 144 0
103 143 0
103 144 0
106 145 0
105 145 0
106 145 0
103 144 0
104 144 0
105 144 0
104 144 0
104 144 0
104 144 0
105 145 0
105 144 0
104 144 0
104 144 0
104 144 0
106 145 0
107 146 0
105 145 0
104 144 0
105 145 0
104 144 0
107 146 0
106 145 0
104 144 0
107 146 0
103 144 0
105 145 0
106 145 0
105 145 0
106 145 0
106 145 0
104 144 0
108 146 0
103 143 0
107 146 0
104 144 0
106 145 0
109 147 0
103 144 0
105 144 0
105 145 0
104 144 0
104 144 0
105 145 0
104 144 0
105 145 0
108 147 0
107 146 0
105 145 0
103 144 0
105 145 0
104 144 0
105 145 0
105 145 0
104 144 0
107 146 0
104 144 0
109 147 0
109 147 0
104 144 0
105 145 0
105 145 0
108 146 0
106 146 0
105 145 0
104 144 0
108 146 0
111 148 0
108 147 0
111 148 0
105 145 0
109 147 0
107 146 0
112 149 0
104 144 0
108 146 0
107 146 0
106 145 0
106 146 0
106 145 0
106 146 0
108 147 0
105 144 0
111 148 0
109 147 0
107 146 0
104 144 0
110 147 0
118 153 0
111 148 0
108 147 0
106 145 0
107 146 0
112 149 0
108 146 0
109 147 0
107 146 0
106 145 0
116 151 0
105 145 0
110 148 0
112 149 0
111 148 0
108 147 0
108 147 0
106 145 0
109 147 0
115 151 0
106 145 0
111 148 0
112 149 0
112 149 0
114 150 0
111 149 0
107 146 0
118 152 0
109 147 0
108 147 0
107 146 0
108 146 0
106 145 0
110 148 0
108 147 0
108 146 0
109 147 0
108 147 0
108 146 0
112 149 0
112 149 0
113 149 0
114 150 0
112 149 0
110 148 0
109 147 0
109 147 0
119 153 0
114 150 0
111 149 0
112 149 0
111 148 0
115 151 0
114 150 0
111 148 0
116 151 0
113 149 0
113 149 0
109 147 0
116 151 0
112 149 0
112 149 0
112 149 0
108 146 0
112 149 0
117 152 0
112 149 0
114 150 0
109 147 0
117 152 0
116 151 0
116 151 0
119 153 0
113 150 0
118 152 0
117 152 0
113 149 0
113 150 0
118 152 0
114 150 0
112 149 0
114 150 0
116 151 0
105 145 0
115 151 0
119 153 0
116 151 0
109 147 0
113 149 0
113 150 0
111 148 0
115 151 0
112 149 0
117 152 0
115 151 0
115 151 0
110 148 0
112 149 0
107 146 0
107 146 0
117 152 0
116 151 0
112 149 0
113 149 0
107 146 0
115 151 0
119 153 0
111 148 0
117 152 0
120 154 0
111 149 0
108 147 0
114 150 0
112 149 0
119 153 0
111 148 0
120 154 0
117 152 0
117 152 0
116 151 0
116 151 0
115 151 0
117 152 0
114 150 0
119 153 0
123 155 0
113 149 0
116 151 0
116 151 0
117 152 0
115 151 0
117 152 0
115 151 0
118 153 0
115 151 0
113 150 0
115 151 0
119 153 0
112 149 0
116 151 0
111 148 0
111 148 0
112 149 0
116 151 0
111 148 0
117 152 0
115 151 0
115 151 0
111 148 0
107 146 0
112 149 0
111 149 0
118 152 0
110 148 0
108 146 0
109 147 0
116 151 0
110 147 0
113 150 0
120 154 0
118 152 0
114 150 0
118 152 0
113 150 0
113 150 0
111 148 0
115 151 0
114 150 0
112 149 0
117 152 0
118 152 0
111 149 0
112 149 0
108 146 0
112 149 0
115 150 0
116 151 0
116 152 0
115 150 0
110 148 0
115 151 0
113 149 0
112 149 0
108 146 0
113 149 0
109 147 0
114 150 0
111 148 0
109 147 0
116 151 0
114 150 0
114 150 0
113 149 0
114 150 0
113 149 0
112 149 0
114 150 0
113 150 0
115 151 0
110 148 0
112 149 0
111 148 0
113 149 0
108 147 0
115 151 0
113 150 0
112 149 0
112 149 0
108 146 0
110 148 0
118 152 0
113 150 0
107 146 0
116 151 0
107 146 0
117 152 0
112 149 0
109 147 0
114 150 0
117 152 0
118 153 0
105 145 0
105 145 0
103 143 0
105 145 0
105 145 0
105 145 0
105 145 0
105 144 0
104 144 0
106 145 0
105 145 0
103 144 0
103 143 0
103 143 0
106 146 0
106 145 0
106 145 0
105 145 0
106 145 0
105 145 0
104 144 0
105 145 0
104 144 0
103 143 0
103 144 0
104 144 0
108 146 0
105 145 0
106 145 0
103 143 0
106 145 0
106 145 0
107 146 0
104 144 0
103 144 0
103 144 0
105 145 0
104 144 0
106 145 0
104 144 0
104 144 0
105 145 0
105 145 0
104 144 0
104 144 0
106 145 0
108 146 0
106 145 0
103 144 0
105 145 0
105 145 0
107 146 0
107 146 0
105 144 0
103 144 0
107 146 0
103 143 0
105 145 0
107 146 0
104 144 0
107 146 0
104 144 0
106 145 0
104 144 0
104 144 0
104 144 0
105 145 0
104 144 0
104 144 0
104 144 0
107 146 0
104 144 0
103 144 0
106 145 0
104 144 0
104 144 0
107 146 0
105 145 0
107 146 0
106 145 0
105 145 0
104 144 0
104 144 0
105 145 0
104 144 0
106 145 0
103 144 0
104 144 0
104 144 0
106 145 0
104 144 0
105 145 0
105 145 0
104 144 0
104 144 0
105 145 0
104 144 0
105 145 0
103 144 0
106 145 0
105 145 0
105 145 0
107 146 0
105 145 0
105 145 0
105 144 0
105 144 0
107 146 0
104 144 0
105 145 0
106 146 0
106 146 0
104 144 0
106 145 0
107 146 0
107 146 0
104 144 0
104 144 0
103 144 0
105 145 0
103 143 0
105 145 0
106 145 0
106 145 0
102 143 0
106 145 0
109 147 0
103 144 0
104 144 0
106 145 0
109 147 0
108 147 0
108 146 0
108 146 0
107 146 0
104 144 0
105 145 0
107 146 0
106 145 0
106 145 0
108 147 0
106 145 0
103 144 0
107 146 0
105 145 0
104 144 0
106 145 0
104 144 0
103 144 0
104 144 0
104 144 0
110 147 0
103 143 0
107 146 0
108 146 0
109 147 0
105 145 0
103 144 0
107 146 0
111 148 0
107 146 0
106 145 0
106 145 0
107 146 0
110 148 0
109 147 0
114 150 0
107 146 0
111 148 0
114 150 0
107 146 0
108 147 0
105 145 0
105 145 0
114 150 0
112 149 0
106 145 0
103 144 0
110 148 0
109 147 0
111 148 0
112 149 0
112 149 0
105 144 0
110 148 0
111 148 0
106 145 0
112 149 0
105 145 0
111 148 0
110 148 0
114 150 0
113 149 0
112 149 0
111 148 0
109 147 0
112 149 0
109 147 0
117 152 0
109 147 0
110 148 0
116 151 0
116 152 0
112 149 0
110 148 0
109 147 0
115 151 0
115 151 0
111 148 0
109 147 0
116 151 0
114 150 0
120 154 0
110 148 0
119 153 0
112 149 0
115 151 0
110 148 0
115 151 0
115 150 0
107 146 0
107 146 0
117 152 0
114 150 0
111 148 0
113 150 0
115 151 0
117 152 0
107 146 0
105 145 0
106 146 0
119 153 0
111 149 0
110 148 0
113 149 0
113 149 0
112 149 0
112 149 0
112 149 0
109 147 0
117 152 0
111 148 0
123 155 0
112 149 0
109 147 0
116 151 0
110 148 0
118 152 0
108 147 0
109 147 0
118 152 0
115 151 0
121 154 0
116 151 0
120 154 0
111 149 0
109 147 0
114 150 0
122 155 0
110 148 0
112 149 0
111 148 0
112 149 0
110 148 0
117 152 0
110 148 0
111 148 0
115 151 0
112 149 0
114 150 0
113 150 0
111 148 0
113 149 0
119 153 0
119 153 0
108 146 0
111 148 0
117 152 0
123 156 0
116 151 0
118 152 0
116 151 0
111 148 0
115 151 0
115 150 0
123 155 0
117 152 0
113 150 0
112 149 0
117 152 0
109 147 0
118 152 0
116 151 0
108 146 0
110 148 0
110 148 0
115 151 0
109 147 0
112 149 0
117 152 0
117 152 0
114 150 0
118 152 0
116 151 0
116 152 0
114 150 0
116 151 0
114 150 0
111 148 0
115 151 0
116 152 0
116 151 0
117 152 0
114 150 0
114 150 0
112 149 0
120 153 0
109 147 0
111 148 0
114 150 0
115 151 0
108 147 0
118 153 0
111 148 0
113 149 0
115 151 0
113 149 0
112 149 0
110 148 0
113 149 0
111 148 0
115 151 0
113 150 0
117 152 0
110 147 0
110 148 0
113 150 0
115 151 0
111 148 0
117 152 0
117 152 0
110 148 0
119 153 0
110 148 0
118 153 0
110 148 0
115 151 0
111 149 0
115 151 0
110 148 0
110 147 0
112 149 0
114 150 0
109 147 0
113 149 0
114 150 0
115 150 0
111 149 0
111 148 0
115 151 0
112 149 0
114 150 0
118 153 0
116 151 0
109 147 0
118 153 0
117 152 0
109 147 0
112 149 0
114 150 0
110 148 0
116 151 0
113 149 0
112 149 0
113 149 0
115 151 0
110 148 0
111 148 0
115 151 0
114 150 0
116 151 0
113 150 0
109 147 0
121 154 0
119 153 0
113 150 0
109 147 0
113 150 0
118 153 0
113 150 0
110 148 0
118 153 0
112 149 0
112 149 0
114 150 0
113 149 0
113 150 0
112 149 0
109 147 0
112 149 0
102 143 0
106 145 0
105 145 0
108 147 0
103 144 0
105 145 0
106 145 0
105 145 0
106 145 0
105 145 0
109 147 0
106 145 0
108 146 0
105 145 0
102 143 0
105 145 0
105 145 0
107 146 0
107 146 0
107 146 0
106 145 0
106 145 0
107 146 0
105 144 0
104 144 0
103 144 0
104 144 0
103 144 0
104 144 0
104 144 0
103 143 0
107 146 0
104 144 0
105 145 0
107 146 0
103 144 0
106 146 0
104 144 0
105 145 0
105 144 0
105 145 0
104 144 0
105 145 0
105 144 0
104 144 0
104 144 0
104 144 0
104 144 0
106 145 0
105 145 0
107 146 0
104 144 0
104 144 0
103 144 0
106 145 0
104 144 0
105 145 0
106 145 0
104 144 0
105 145 0
106 145 0
106 146 0
105 145 0
104 144 0
104 144 0
105 144 0
102 143 0
103 144 0
104 144 0
105 145 0
106 145 0
106 145 0
104 144 0
103 144 0
105 145 0
105 145 0
105 145 0
104 144 0
104 144 0
106 145 0
105 145 0
106 145 0
104 144 0
106 146 0
105 145 0
107 146 0
104 144 0
104 144 0
107 146 0
104 144 0
104 144 0
104 144 0
105 145 0
107 146 0
104 144 0
105 145 0
105 145 0
106 145 0
105 145 0
105 145 0
104 144 0
104 144 0
103 143 0
105 145 0
107 146 0
104 144 0
107 146 0
106 145 0
106 145 0
103 144 0
104 144 0
104 144 0
103 144 0
106 145 0
105 145 0
107 146 0
104 144 0
105 145 0
105 145 0
107 146 0
105 145 0
104 144 0
105 145 0
103 144 0
104 144 0
104 144 0
103 144 0
104 144 0
105 145 0
105 145 0
103 143 0
105 144 0
106 145 0
105 145 0
107 146 0
108 146 0
103 143 0
103 144 0
107 146 0
104 144 0
107 146 0
107 146 0
105 145 0
112 149 0
106 145 0
106 146 0
105 145 0
103 143 0
103 143 0
104 144 0
104 144 0
109 147 0
104 144 0
106 145 0
104 144 0
105 145 0
116 152 0
110 148 0
104 144 0
105 145 0
104 144 0
104 144 0
108 146 0
111 148 0
109 147 0
107 146 0
108 146 0
106 146 0
109 147 0
115 150 0
111 149 0
107 146 0
104 144 0
106 145 0
108 147 0
111 148 0
103 143 0
116 151 0
105 145 0
114 150 0
111 149 0
112 149 0
113 150 0
104 144 0
108 147 0
107 146 0
103 143 0
107 146 0
106 146 0
111 149 0
111 148 0
108 147 0
109 147 0
114 150 0
118 153 0
106 145 0
110 148 0
114 150 0
109 147 0
105 145 0
111 148 0
107 146 0
114 150 0
110 148 0
116 151 0
110 148 0
108 147 0
112 149 0
115 151 0
107 146 0
114 150 0
110 148 0
108 147 0
107 146 0
110 147 0
108 146 0
113 150 0
117 152 0
110 148 0
117 152 0
112 149 0
115 151 0
106 145 0
114 150 0
114 150 0
110 148 0
112 149 0
116 152 0
117 152 0
113 150 0
116 152 0
109 147 0
117 152 0
114 150 0
115 151 0
110 148 0
112 149 0
112 149 0
109 147 0
115 151 0
114 150 0
106 145 0
115 151 0
115 151 0
111 149 0
118 153 0
117 152 0
115 151 0
114 150 0
111 148 0
119 153 0
114 150 0
112 149 0
116 151 0
113 150 0
109 147 0
118 152 0
113 150 0
121 154 0
116 152 0
115 151 0
111 148 0
112 149 0
117 152 0
111 148 0
121 155 0
116 151 0
117 152 0
112 149 0
121 154 0
112 149 0
115 151 0
118 152 0
115 151 0
112 149 0
117 152 0
112 149 0
112 149 0
116 151 0
113 149 0
114 150 0
126 157 0
113 150 0
110 148 0
113 149 0
110 148 0
111 148 0
114 150 0
117 152 0
117 152 0
123 156 0
122 155 0
118 153 0
115 151 0
111 148 0
115 151 0
115 151 0
115 151 0
111 148 0
111 148 0
111 149 0
114 150 0
118 153 0
115 151 0
110 147 0
113 149 0
113 149 0
118 153 0
113 149 0
113 150 0
113 150 0
115 151 0
112 149 0
114 150 0
120 153 0
112 149 0
118 153 0
111 149 0
107 146 0
109 147 0
111 148 0
111 148 0
112 149 0
113 149 0
111 148 0
114 150 0
112 149 0
111 148 0
109 147 0
113 150 0
111 148 0
112 149 0
107 146 0
120 154 0
111 148 0
114 150 0
115 151 0
112 149 0
114 150 0
117 152 0
113 150 0
118 153 0
113 149 0
116 152 0
115 151 0
116 152 0
113 149 0
112 149 0
118 153 0
114 150 0
110 148 0
116 151 0
114 150 0
110 148 0
111 148 0
113 150 0
121 154 0
118 153 0
112 149 0
111 148 0
115 151 0
116 152 0
111 148 0
116 151 0
113 150 0
110 148 0
114 150 0
114 150 0
114 150 0
114 150 0
111 148 0
115 151 0
113 150 0
112 149 0
113 150 0
113 149 0
115 151 0
120 154 0
108 147 0
113 149 0
112 149 0
112 149 0
117 152 0
111 148 0
113 149 0
108 147 0
116 151 0
112 149 0
108 147 0
116 151 0
115 151 0
112 149 0
119 153 0
113 150 0
117 152 0
112 149 0
113 149 0
110 147 0
109 147 0
109 147 0
103 144 0
104 144 0
103 144 0
108 147 0
103 144 0
103 144 0
107 146 0
103 144 0
104 144 0
104 144 0
109 147 0
108 147 0
106 145 0
107 146 0
104 144 0
108 146 0
104 144 0
105 145 0
104 144 0
106 145 0
104 144 0
103 144 0
109 147 0
106 145 0
103 143 0
105 145 0
107 146 0
106 145 0
103 143 0
105 145 0
105 145 0
106 145 0
106 145 0
104 144 0
106 145 0
109 147 0
106 145 0
104 144 0
107 146 0
104 144 0
104 144 0
104 144 0
102 143 0
106 145 0
103 144 0
105 145 0
105 145 0
104 144 0
105 144 0
106 145 0
106 145 0
104 144 0
108 146 0
103 144 0
104 144 0
103 144 0
103 143 0
107 146 0
103 144 0
105 145 0
104 144 0
104 144 0
105 145 0
104 144 0
105 145 0
104 144 0
104 144 0
105 145 0
105 145 0
104 144 0
103 143 0
104 144 0
103 144 0
105 145 0
106 145 0
106 146 0
108 146 0
105 145 0
104 144 0
104 144 0
105 145 0
105 145 0
105 144 0
104 144 0
103 144 0
104 144 0
104 144 0
104 144 0
102 143 0
106 145 0
104 144 0
108 146 0
105 145 0
106 145 0
105 145 0
106 145 0
102 143 0
105 145 0
104 144 0
105 145 0
105 145 0
103 144 0
105 145 0
104 144 0
106 145 0
106 145 0
103 144 0
105 144 0
104 144 0
107 146 0
105 145 0
105 145 0
107 146 0
107 146 0
105 145 0
104 144 0
103 144 0
103 144 0
106 145 0
106 146 0
107 146 0
105 145 0
104 144 0
107 146 0
105 145 0
104 144 0
105 145 0
105 145 0
106 145 0
105 145 0
103 144 0
106 145 0
109 147 0
103 144 0
105 145 0
104 144 0
104 144 0
104 144 0
104 144 0
105 145 0
105 145 0
106 145 0
107 146 0
104 144 0
104 144 0
105 145 0
103 144 0
105 145 0
107 146 0
105 145 0
106 145 0
107 146 0
111 149 0
106 146 0
105 145 0
104 144 0
105 145 0
104 144 0
106 145 0
107 146 0
108 146 0
108 146 0
106 145 0
108 146 0
104 144 0
107 146 0
107 146 0
108 146 0
105 144 0
105 145 0
107 146 0
106 145 0
105 145 0
106 145 0
108 147 0
117 152 0
107 146 0
107 146 0
113 150 0
111 148 0
110 148 0
106 146 0
109 147 0
115 151 0
111 148 0
112 149 0
107 146 0
110 147 0
110 148 0
106 145 0
106 146 0
117 152 0
108 146 0
108 146 0
114 150 0
115 151 0
112 149 0
113 150 0
110 148 0
106 145 0
114 150 0
112 149 0
108 146 0
123 155 0
111 148 0
113 150 0
107 146 0
113 150 0
110 148 0
111 148 0
112 149 0
110 148 0
120 154 0
111 148 0
106 145 0
119 153 0
113 150 0
112 149 0
112 149 0
110 148 0
120 154 0
114 150 0
111 148 0
112 149 0
119 153 0
110 148 0
110 148 0
113 149 0
108 147 0
112 149 0
114 150 0
117 152 0
110 147 0
110 148 0
118 152 0
115 151 0
121 154 0
113 149 0
108 147 0
118 153 0
115 151 0
111 148 0
115 151 0
116 151 0
109 147 0
113 150 0
118 152 0
115 151 0
114 150 0
114 150 0
112 149 0
111 149 0
110 148 0
114 150 0
117 152 0
110 148 0
108 147 0
116 151 0
109 147 0
120 153 0
116 151 0
116 151 0
115 151 0
109 147 0
113 149 0
121 154 0
121 154 0
115 151 0
114 150 0
120 154 0
111 149 0
117 152 0
111 148 0
111 149 0
114 150 0
112 149 0
115 151 0
113 149 0
119 153 0
120 154 0
113 149 0
115 151 0
116 152 0
110 148 0
109 147 0
109 147 0
108 147 0
115 151 0
111 148 0
109 147 0
110 148 0
115 151 0
113 150 0
115 151 0
122 155 0
112 149 0
114 150 0
116 151 0
116 151 0
114 150 0
112 149 0
109 147 0
119 153 0
113 149 0
114 150 0
115 150 0
112 149 0
119 153 0
109 147 0
113 150 0
114 150 0
116 151 0
117 152 0
111 148 0
114 150 0
116 151 0
115 151 0
112 149 0
117 152 0
119 153 0
112 149 0
116 151 0
114 150 0
112 149 0
114 150 0
115 151 0
118 153 0
108 146 0
111 148 0
116 151 0
119 153 0
114 150 0
115 151 0
107 146 0
113 149 0
113 150 0
112 149 0
110 148 0
116 151 0
116 151 0
112 149 0
109 147 0
117 152 0
115 151 0
107 146 0
111 148 0
118 152 0
107 146 0
118 153 0
109 147 0
112 149 0
113 149 0
116 152 0
108 147 0
113 149 0
107 146 0
113 150 0
114 150 0
115 151 0
111 148 0
114 150 0
116 152 0
113 150 0
117 152 0
112 149 0
115 151 0
111 149 0
115 151 0
115 151 0
116 151 0
110 148 0
117 152 0
111 149 0
113 150 0
111 148 0
114 150 0
110 148 0
114 150 0
110 148 0
114 150 0
112 149 0
116 151 0
114 150 0
112 149 0
117 152 0
114 150 0
118 152 0
114 150 0
113 149 0
115 151 0
111 148 0
111 148 0
114 150 0
114 150 0
112 149 0
112 149 0
114 150 0
114 150 0
117 152 0
114 150 0
106 145 0
105 144 0
107 146 0
105 145 0
105 145 0
104 144 0
104 144 0
106 145 0
104 144 0
104 144 0
105 145 0
105 145 0
105 145 0
104 144 0
104 144 0
109 147 0
105 145 0
107 146 0
107 146 0
103 144 0
104 144 0
105 145 0
105 145 0
105 145 0
102 143 0
104 144 0
103 144 0
104 144 0
105 145 0
103 144 0
107 146 0
109 147 0
105 145 0
106 145 0
104 144 0
104 144 0
103 144 0
103 144 0
106 145 0
103 144 0
104 144 0
104 144 0
103 144 0
104 144 0
103 144 0
106 145 0
104 144 0
105 145 0
107 146 0
104 144 0
104 144 0
106 146 0
105 145 0
106 145 0
106 145 0
104 144 0
106 145 0
106 145 0
106 145 0
105 145 0
105 145 0
105 145 0
104 144 0
104 144 0
106 145 0
103 144 0
104 144 0
105 144 0
105 145 0
104 144 0
105 145 0
106 146 0
105 144 0
104 144 0
103 143 0
105 145 0
104 144 0
107 146 0
105 145 0
105 145 0
105 145 0
106 145 0
105 144 0
105 145 0
104 144 0
105 145 0
104 144 0
106 145 0
103 144 0
107 146 0
105 145 0
105 144 0
106 145 0
103 143 0
105 145 0
104 144 0
105 144 0
104 144 0
107 146 0
106 146 0
106 145 0
106 145 0
104 144 0
105 144 0
108 146 0
106 145 0
108 146 0
104 144 0
104 144 0
104 144 0
107 146 0
106 145 0
105 145 0
105 145 0
107 146 0
106 145 0
106 145 0
106 145 0
105 145 0
105 145 0
105 145 0
104 144 0
106 145 0
111 148 0
105 145 0
106 145 0
106 145 0
109 147 0
106 146 0
105 145 0
104 144 0
103 144 0
105 145 0
104 144 0
112 149 0
110 148 0
106 145 0
104 144 0
107 146 0
107 146 0
109 147 0
105 145 0
103 143 0
109 147 0
106 145 0
107 146 0
106 145 0
106 145 0
106 145 0
105 145 0
108 147 0
108 147 0
105 145 0
108 146 0
110 148 0
104 144 0
106 145 0
107 146 0
105 145 0
104 144 0
105 145 0
105 145 0
112 149 0
106 145 0
107 146 0
105 144 0
105 145 0
109 147 0
105 145 0
111 148 0
105 145 0
106 145 0
114 150 0
109 147 0
115 151 0
110 147 0
109 147 0
111 148 0
104 144 0
115 151 0
109 147 0
108 146 0
107 146 0
110 148 0
108 147 0
120 154 0
110 148 0
106 145 0
106 145 0
112 149 0
106 145 0
116 151 0
111 148 0
109 147 0
105 145 0
106 145 0
107 146 0
106 145 0
111 149 0
108 147 0
110 148 0
105 145 0
106 145 0
115 150 0
108 146 0
118 152 0
117 152 0
108 146 0
107 146 0
107 146 0
114 150 0
110 148 0
119 153 0
115 151 0
116 151 0
116 151 0
114 150 0
106 145 0
115 151 0
115 151 0
116 152 0
106 145 0
112 149 0
114 150 0
111 148 0
108 146 0
114 150 0
108 147 0
114 150 0
115 151 0
122 155 0
112 149 0
111 148 0
112 149 0
119 153 0
116 152 0
110 148 0
113 149 0
113 150 0
114 150 0
118 153 0
109 147 0
114 150 0
113 150 0
108 146 0
115 150 0
119 153 0
113 150 0
115 151 0
115 151 0
114 150 0
114 150 0
117 152 0
117 152 0
112 149 0
109 147 0
118 152 0
113 149 0
115 151 0
121 154 0
116 151 0
115 151 0
115 151 0
111 148 0
115 151 0
115 151 0
117 152 0
111 148 0
116 151 0
113 150 0
114 150 0
106 145 0
117 152 0
112 149 0
111 148 0
118 153 0
114 150 0
114 150 0
115 151 0
112 149 0
110 148 0
116 151 0
110 148 0
117 152 0
121 154 0
123 156 0
115 150 0
110 148 0
116 151 0
114 150 0
111 148 0
121 155 0
110 148 0
113 149 0
112 149 0
113 150 0
120 153 0
121 155 0
109 147 0
115 151 0
116 152 0
109 147 0
110 147 0
118 152 0
121 154 0
112 149 0
115 150 0
116 152 0
108 147 0
117 152 0
117 152 0
117 152 0
120 154 0
114 150 0
111 149 0
110 148 0
117 152 0
117 152 0
117 152 0
111 149 0
110 148 0
119 153 0
113 149 0
110 148 0
111 149 0
114 150 0
114 150 0
112 149 0
113 149 0
117 152 0
117 152 0
113 149 0
119 153 0
113 150 0
119 153 0
111 148 0
113 149 0
112 149 0
111 148 0
110 147 0
112 149 0
108 146 0
120 154 0
117 152 0
114 150 0
109 147 0
114 150 0
112 149 0
109 147 0
115 151 0
111 148 0
114 150 0
112 149 0
112 149 0
112 149 0
114 150 0
116 151 0
113 150 0
112 149 0
114 150 0
120 154 0
117 152 0
117 152 0
113 149 0
117 152 0
110 147 0
109 147 0
112 149 0
114 150 0
113 150 0
112 149 0
116 151 0
116 151 0
109 147 0
112 149 0
120 154 0
112 149 0
109 147 0
116 151 0
117 152 0
118 152 0
115 151 0
116 152 0
116 152 0
110 148 0
112 149 0
111 148 0
119 153 0
122 155 0
114 150 0
112 149 0
112 149 0
116 151 0
119 153 0
108 147 0
109 147 0
115 151 0
113 150 0
114 150 0
116 151 0
103 144 0
105 145 0
103 144 0
104 144 0
103 144 0
103 143 0
103 143 0
105 144 0
103 144 0
104 144 0
107 146 0
108 146 0
106 145 0
105 144 0
103 144 0
104 144 0
106 145 0
105 145 0
103 144 0
106 145 0
105 144 0
103 144 0
105 144 0
104 144 0
107 146 0
105 145 0
104 144 0
103 144 0
104 144 0
107 146 0
103 144 0
106 145 0
106 145 0
104 144 0
104 144 0
105 144 0
106 146 0
108 146 0
104 144 0
104 144 0
105 144 0
105 145 0
106 145 0
105 145 0
106 145 0
102 143 0
102 143 0
104 144 0
105 144 0
105 145 0
104 144 0
102 143 0
103 144 0
104 144 0
106 145 0
106 145 0
105 145 0
106 145 0
107 146 0
106 145 0
103 144 0
105 145 0
108 146 0
107 146 0
106 145 0
105 144 0
104 144 0
106 145 0
105 145 0
106 146 0
104 144 0
103 144 0
104 144 0
106 146 0
106 145 0
105 145 0
104 144 0
104 144 0
106 145 0
104 144 0
105 145 0
106 145 0
105 145 0
107 146 0
108 146 0
106 145 0
104 144 0
108 146 0
105 145 0
105 145 0
103 144 0
106 146 0
106 146 0
105 144 0
104 144 0
105 144 0
107 146 0
105 145 0
104 144 0
104 144 0
104 144 0
105 144 0
105 145 0
107 146 0
103 144 0
105 145 0
104 144 0
108 147 0
104 144 0
106 145 0
104 144 0
105 145 0
105 144 0
104 144 0
105 145 0
108 146 0
105 144 0
103 143 0
105 144 0
107 146 0
107 146 0
104 144 0
107 146 0
105 145 0
106 145 0
104 144 0
105 145 0
104 144 0
105 145 0
105 145 0
111 148 0
108 147 0
105 145 0
104 144 0
104 144 0
109 147 0
104 144 0
105 145 0
108 147 0
105 145 0
107 146 0
104 144 0
105 145 0
107 146 0
107 146 0
106 146 0
105 145 0
107 146 0
107 146 0
107 146 0
104 144 0
106 145 0
111 148 0
108 146 0
113 150 0
105 145 0
108 147 0
111 148 0
108 146 0
108 147 0
112 149 0
105 145 0
109 147 0
106 145 0
112 149 0
113 150 0
110 148 0
106 146 0
108 146 0
110 148 0
109 147 0
115 151 0
108 146 0
107 146 0
116 151 0
108 146 0
113 150 0
109 147 0
111 149 0
112 149 0
108 146 0
109 147 0
107 146 0
106 145 0
115 151 0
109 147 0
113 149 0
116 151 0
107 146 0
111 148 0
113 149 0
111 148 0
110 148 0
114 150 0
119 153 0
112 149 0
109 147 0
116 151 0
106 145 0
117 152 0
116 152 0
114 150 0
109 147 0
110 148 0
121 155 0
113 150 0
108 147 0
116 151 0
112 149 0
115 151 0
111 148 0
111 148 0
113 150 0
107 146 0
120 154 0
111 148 0
107 146 0
115 151 0
110 148 0
109 147 0
112 149 0
114 150 0
116 151 0
118 153 0
116 151 0
111 148 0
119 153 0
114 150 0
113 150 0
116 151 0
113 150 0
117 152 0
115 151 0
106 145 0
109 147 0
113 150 0
110 147 0
117 152 0
117 152 0
122 155 0
112 149 0
110 148 0
109 147 0
115 151 0
120 154 0
111 148 0
114 150 0
110 148 0
114 150 0
113 149 0
120 154 0
118 153 0
124 156 0
111 149 0
119 153 0
118 152 0
122 155 0
118 153 0
118 152 0
109 147 0
118 152 0
115 151 0
114 150 0
114 150 0
111 148 0
114 150 0
113 149 0
114 150 0
115 151 0
112 149 0
110 148 0
118 152 0
111 148 0
125 157 0
112 149 0
115 151 0
117 152 0
118 153 0
113 150 0
122 155 0
109 147 0
121 154 0
113 149 0
111 148 0
109 147 0
118 153 0
115 151 0
114 150 0
122 155 0
109 147 0
117 152 0
114 150 0
112 149 0
116 151 0
110 148 0
107 146 0
111 149 0
112 149 0
111 149 0
121 155 0
112 149 0
115 151 0
115 151 0
113 150 0
118 153 0
109 147 0
120 154 0
113 150 0
110 148 0
109 147 0
123 156 0
118 153 0
108 147 0
115 151 0
116 151 0
113 150 0
124 156 0
119 153 0
115 151 0
118 152 0
110 148 0
118 152 0
115 151 0
110 148 0
113 150 0
116 151 0
116 152 0
112 149 0
116 152 0
114 150 0
118 153 0
115 151 0
118 153 0
115 151 0
111 149 0
118 152 0
115 151 0
118 152 0
119 153 0
114 150 0
109 147 0
114 150 0
115 151 0
112 149 0
109 147 0
113 150 0
113 150 0
122 155 0
119 153 0
116 151 0
115 151 0
116 151 0
116 151 0
111 148 0
110 147 0
112 149 0
113 149 0
117 152 0
112 149 0
116 151 0
111 149 0
112 149 0
118 152 0
109 147 0
111 148 0
116 151 0
118 153 0
113 150 0
113 149 0
114 150 0
115 151 0
110 148 0
117 152 0
115 151 0
111 148 0
119 153 0
116 152 0
119 153 0
112 149 0
117 152 0
112 149 0
113 149 0
122 155 0
113 150 0
112 149 0
113 149 0
113 149 0
108 147 0
114 150 0
112 149 0
115 151 0
119 153 0
115 150 0
113 150 0
111 149 0
109 147 0
116 151 0
116 151 0
117 152 0
108 146 0
108 147 0
106 145 0
106 145 0
105 145 0
103 144 0
104 144 0
105 145 0
104 144 0
106 145 0
105 145 0
106 145 0
105 145 0
104 144 0
110 148 0
106 145 0
104 144 0
104 144 0
105 144 0
105 144 0
106 145 0
105 144 0
104 144 0
107 146 0
107 146 0
104 144 0
105 145 0
106 145 0
103 144 0
104 144 0
105 145 0
103 144 0
106 145 0
106 145 0
109 147 0
110 148 0
104 144 0
104 144 0
103 144 0
105 145 0
103 143 0
104 144 0
105 145 0
104 144 0
103 144 0
107 146 0
104 144 0
104 144 0
107 146 0
104 144 0
103 144 0
104 144 0
105 145 0
103 143 0
104 144 0
104 144 0
105 145 0
107 146 0
105 145 0
104 144 0
104 144 0
105 145 0
104 144 0
104 144 0
106 146 0
105 144 0
104 144 0
105 145 0
107 146 0
103 144 0
104 144 0
109 147 0
109 147 0
105 145 0
105 145 0
107 146 0
104 144 0
105 145 0
105 145 0
104 144 0
104 144 0
103 144 0
106 145 0
104 144 0
104 144 0
104 144 0
104 144 0
105 145 0
102 143 0
106 145 0
107 146 0
105 145 0
107 146 0
104 144 0
104 144 0
103 143 0
105 145 0
104 144 0
105 145 0
105 145 0
106 146 0
106 145 0
106 146 0
107 146 0
107 146 0
108 147 0
102 143 0
106 145 0
102 143 0
107 146 0
103 143 0
105 145 0
106 145 0
103 144 0
104 144 0
105 145 0
104 144 0
107 146 0
107 146 0
104 144 0
105 145 0
104 144 0
105 145 0
108 146 0
104 144 0
106 145 0
106 145 0
104 144 0
103 144 0
104 144 0
107 146 0
106 145 0
104 144 0
106 146 0
106 145 0
105 145 0
106 145 0
108 147 0
105 145 0
107 146 0
103 144 0
106 145 0
107 146 0
107 146 0
106 145 0
105 145 0
107 146 0
111 148 0
109 147 0
107 146 0
108 147 0
106 145 0
109 147 0
106 145 0
106 145 0
104 144 0
107 146 0
110 148 0
112 149 0
111 148 0
107 146 0
108 146 0
111 149 0
106 146 0
103 144 0
104 144 0
109 147 0
105 145 0
110 148 0
110 148 0
110 148 0
103 144 0
110 147 0
108 146 0
106 145 0
108 147 0
113 150 0
110 148 0
114 150 0
119 153 0
110 148 0
108 147 0
104 144 0
107 146 0
109 147 0
113 150 0
116 152 0
110 148 0
108 146 0
108 146 0
108 147 0
108 146 0
109 147 0
108 147 0
109 147 0
109 147 0
106 145 0
112 149 0
105 145 0
112 149 0
108 146 0
110 148 0
109 147 0
109 147 0
116 151 0
110 148 0
111 148 0
108 147 0
115 151 0
117 152 0
107 146 0
120 154 0
120 154 0
109 147 0
114 150 0
108 147 0
114 150 0
117 152 0
111 148 0
114 150 0
115 151 0
114 150 0
111 148 0
116 151 0
108 147 0
115 150 0
108 147 0
112 149 0
108 147 0
113 149 0
118 152 0
119 153 0
118 152 0
113 150 0
108 147 0
108 146 0
110 148 0
110 148 0
122 155 0
110 148 0
110 148 0
110 148 0
113 150 0
117 152 0
114 150 0
117 152 0
116 151 0
114 150 0
117 152 0
109 147 0
111 149 0
114 150 0
117 152 0
119 153 0
120 154 0
111 148 0
116 151 0
115 151 0
114 150 0
113 150 0
127 158 0
113 149 0
110 148 0
110 148 0
125 157 0
113 149 0
113 150 0
116 151 0
115 151 0
113 150 0
115 151 0
111 148 0
114 150 0
117 152 0
117 152 0
111 148 0
118 153 0
114 150 0
112 149 0
116 151 0
111 148 0
117 152 0
117 152 0
109 147 0
118 152 0
117 152 0
117 152 0
117 152 0
108 147 0
113 149 0
112 149 0
110 148 0
109 147 0
117 152 0
113 150 0
114 150 0
118 153 0
111 148 0
118 152 0
119 153 0
115 150 0
112 149 0
121 154 0
122 155 0
113 149 0
112 149 0
113 149 0
113 150 0
125 157 0
112 149 0
107 146 0
118 152 0
121 154 0
116 151 0
112 149 0
110 148 0
115 151 0
110 148 0
118 152 0
115 150 0
111 148 0
120 154 0
118 153 0
120 154 0
113 150 0
114 150 0
111 148 0
117 152 0
115 151 0
120 154 0
114 150 0
112 149 0
112 149 0
117 152 0
119 153 0
119 153 0
111 148 0
118 153 0
112 149 0
114 150 0
119 153 0
113 150 0
114 150 0
114 150 0
109 147 0
110 148 0
114 150 0
117 152 0
108 146 0
120 154 0
120 154 0
112 149 0
114 150 0
114 150 0
116 151 0
118 153 0
114 150 0
118 152 0
109 147 0
117 152 0
111 148 0
116 151 0
112 149 0
115 151 0
112 149 0
113 150 0
112 149 0
116 151 0
112 149 0
113 149 0
109 147 0
112 149 0
116 151 0
118 152 0
113 149 0
114 150 0
115 151 0
111 148 0
109 147 0
116 151 0
115 151 0
116 152 0
124 156 0
114 150 0
116 151 0
113 149 0
111 148 0
115 151 0
114 150 0
116 152 0
113 150 0
110 148 0
119 153 0
109 147 0
114 150 0
110 148 0
109 147 0
116 152 0
117 152 0
118 153 0
111 148 0
103 144 0
106 146 0
111 149 0
108 147 0
107 146 0
105 145 0
103 144 0
103 144 0
105 145 0
105 145 0
105 144 0
106 145 0
103 144 0
104 144 0
104 144 0
104 144 0
104 144 0
106 145 0
105 145 0
106 145 0
102 143 0
104 144 0
104 144 0
106 145 0
105 145 0
105 145 0
104 144 0
108 146 0
103 144 0
103 144 0
104 144 0
104 144 0
104 144 0
106 145 0
105 144 0
107 146 0
104 144 0
107 146 0
104 144 0
104 144 0
104 144 0
107 146 0
104 144 0
107 146 0
104 144 0
105 145 0
105 145 0
104 144 0
105 144 0
107 146 0
104 144 0
104 144 0
104 144 0
105 145 0
104 144 0
104 144 0
105 145 0
105 145 0
103 143 0
104 144 0
104 144 0
103 144 0
104 144 0
105 145 0
105 145 0
105 145 0
104 144 0
105 145 0
107 146 0
105 145 0
106 145 0
103 144 0
104 144 0
103 143 0
104 144 0
107 146 0
103 144 0
106 145 0
107 146 0
105 145 0
105 144 0
105 145 0
104 144 0
103 144 0
107 146 0
104 144 0
106 145 0
104 144 0
105 145 0
105 145 0
104 144 0
104 144 0
104 144 0
105 144 0
104 144 0
104 144 0
104 144 0
105 144 0
106 146 0
105 145 0
107 146 0
104 144 0
104 144 0
104 144 0
108 147 0
106 146 0
106 145 0
106 145 0
103 144 0
106 145 0
107 146 0
104 144 0
106 145 0
106 145 0
106 145 0
104 144 0
109 147 0
106 145 0
105 145 0
106 145 0
104 144 0
105 145 0
108 146 0
105 145 0
107 146 0
111 148 0
106 145 0
106 145 0
109 147 0
108 147 0
103 144 0
104 144 0
104 144 0
105 145 0
105 145 0
104 144 0
105 145 0
105 145 0
105 145 0
107 146 0
108 147 0
106 145 0
105 145 0
103 144 0
106 145 0
110 148 0
107 146 0
104 144 0
106 145 0
109 147 0
106 145 0
105 145 0
106 145 0
109 147 0
108 147 0
109 147 0
103 144 0
104 144 0
105 145 0
114 150 0
107 146 0
107 146 0
106 146 0
115 151 0
105 145 0
109 147 0
109 147 0
108 146 0
109 147 0
108 147 0
103 143 0
109 147 0
106 145 0
108 146 0
110 148 0
111 148 0
108 147 0
105 145 0
109 147 0
109 147 0
111 148 0
105 145 0
113 150 0
112 149 0
112 149 0
110 148 0
109 147 0
107 146 0
109 147 0
115 150 0
107 146 0
111 148 0
105 145 0
115 151 0
110 147 0
116 151 0
106 145 0
113 150 0
108 147 0
108 146 0
112 149 0
111 148 0
113 149 0
114 150 0
107 146 0
112 149 0
106 145 0
117 152 0
107 146 0
116 152 0
117 152 0
121 154 0
112 149 0
110 148 0
114 150 0
113 150 0
117 152 0
112 149 0
114 150 0
111 148 0
111 148 0
110 148 0
110 148 0
113 150 0
110 148 0
112 149 0
116 151 0
109 147 0
110 148 0
113 149 0
114 150 0
113 150 0
106 145 0
110 148 0
115 151 0
111 148 0
115 151 0
110 147 0
114 150 0
110 148 0
114 150 0
110 147 0
118 152 0
116 152 0
124 156 0
113 150 0
112 149 0
109 147 0
112 149 0
117 152 0
114 150 0
113 150 0
112 149 0
112 149 0
114 150 0
115 151 0
108 146 0
111 148 0
117 152 0
112 149 0
113 150 0
114 150 0
113 149 0
112 149 0
113 149 0
117 152 0
115 151 0
112 149 0
113 149 0
113 150 0
113 149 0
114 150 0
109 147 0
112 149 0
117 152 0
111 148 0
117 152 0
115 151 0
124 156 0
116 151 0
113 150 0
117 152 0
118 153 0
114 150 0
120 154 0
112 149 0
119 153 0
114 150 0
112 149 0
117 152 0
111 148 0
118 153 0
116 151 0
116 152 0
119 153 0
113 150 0
113 149 0
116 151 0
115 151 0
113 149 0
110 148 0
116 151 0
116 151 0
114 150 0
112 149 0
115 151 0
120 154 0
118 152 0
114 150 0
117 152 0
114 150 0
117 152 0
113 150 0
115 151 0
117 152 0
115 151 0
112 149 0
115 151 0
119 153 0
113 149 0
114 150 0
115 151 0
109 147 0
117 152 0
112 149 0
112 149 0
113 149 0
117 152 0
117 152 0
114 150 0
111 149 0
112 149 0
113 150 0
118 153 0
116 151 0
111 148 0
114 150 0
114 150 0
120 154 0
108 147 0
110 148 0
117 152 0
111 148 0
120 154 0
117 152 0
120 154 0
115 151 0
114 150 0
114 150 0
116 151 0
119 153 0
112 149 0
118 152 0
116 151 0
114 150 0
112 149 0
107 146 0
114 150 0
109 147 0
117 152 0
117 152 0
110 148 0
115 151 0
111 148 0
115 151 0
116 151 0
114 150 0
111 148 0
110 148 0
112 149 0
118 153 0
112 149 0
113 149 0
116 151 0
116 151 0
112 149 0
115 150 0
116 151 0
113 150 0
106 146 0
116 152 0
118 153 0
118 152 0
119 153 0
112 149 0
110 148 0
116 151 0
114 150 0
117 152 0
116 151 0
117 152 0
116 152 0
108 147 0
112 149 0
109 147 0
118 153 0
111 149 0
116 151 0
113 149 0
118 152 0
104 144 0
103 143 0
104 144 0
104 144 0
108 147 0
103 144 0
104 144 0
107 146 0
107 146 0
104 144 0
107 146 0
104 144 0
106 145 0
107 146 0
104 144 0
104 144 0
103 144 0
105 144 0
107 146 0
104 144 0
105 145 0
104 144 0
104 144 0
104 144 0
103 144 0
106 145 0
105 145 0
104 144 0
105 145 0
104 144 0
106 145 0
105 145 0
109 147 0
104 144 0
106 145 0
106 145 0
103 144 0
104 144 0
105 145 0
105 145 0
106 145 0
105 145 0
106 145 0
103 144 0
104 144 0
107 146 0
105 145 0
106 145 0
104 144 0
103 144 0
102 143 0
105 145 0
106 146 0
104 144 0
107 146 0
103 143 0
106 145 0
105 145 0
110 148 0
108 147 0
104 144 0
103 144 0
103 143 0
105 145 0
104 144 0
104 144 0
106 145 0
105 145 0
106 145 0
106 145 0
106 145 0
104 144 0
106 145 0
103 143 0
104 144 0
107 146 0
107 146 0
107 146 0
104 144 0
104 144 0
104 144 0
104 144 0
103 144 0
106 145 0
104 144 0
105 145 0
105 145 0
105 145 0
104 144 0
107 146 0
102 143 0
105 145 0
104 144 0
103 144 0
104 144 0
105 145 0
104 144 0
105 145 0
107 146 0
106 146 0
106 145 0
104 144 0
104 144 0
105 145 0
107 146 0
108 147 0
105 145 0
104 144 0
105 145 0
106 145 0
105 144 0
104 144 0
105 145 0
110 148 0
107 146 0
107 146 0
107 146 0
107 146 0
103 143 0
104 144 0
105 144 0
104 144 0
104 144 0
107 146 0
103 144 0
108 146 0
105 145 0
106 145 0
104 144 0
107 146 0
104 144 0
105 145 0
107 146 0
104 144 0
107 146 0
104 144 0
105 145 0
108 147 0
105 145 0
106 145 0
107 146 0
112 149 0
106 145 0
104 144 0
108 147 0
109 147 0
105 145 0
107 146 0
107 146 0
109 147 0
107 146 0
105 145 0
107 146 0
111 149 0
108 147 0
104 144 0
109 147 0
107 146 0
108 146 0
107 146 0
107 146 0
110 148 0
112 149 0
105 145 0
112 149 0
108 146 0
105 145 0
111 148 0
107 146 0
107 146 0
112 149 0
107 146 0
106 145 0
114 150 0
105 145 0
117 152 0
106 145 0
108 146 0
108 147 0
105 145 0
107 146 0
110 147 0
109 147 0
112 149 0
106 145 0
121 154 0
105 145 0
113 150 0
115 150 0
116 151 0
110 148 0
109 147 0
111 148 0
111 148 0
110 148 0
106 146 0
108 146 0
113 150 0
110 147 0
115 151 0
116 151 0
108 147 0
111 148 0
115 151 0
110 148 0
114 150 0
111 149 0
113 149 0
113 150 0
119 153 0
108 147 0
118 153 0
118 152 0
108 147 0
119 153 0
117 152 0
120 154 0
114 150 0
117 152 0
112 149 0
110 148 0
113 150 0
110 148 0
116 151 0
112 149 0
116 151 0
109 147 0
112 149 0
108 146 0
116 151 0
113 149 0
113 150 0
108 146 0
112 149 0
112 149 0
122 155 0
108 146 0
118 153 0
110 148 0
113 149 0
119 153 0
117 152 0
114 150 0
118 153 0
120 154 0
116 151 0
112 149 0
109 147 0
119 153 0
118 153 0
120 154 0
113 149 0
114 150 0
121 154 0
114 150 0
116 151 0
112 149 0
112 149 0
118 152 0
123 155 0
117 152 0
115 151 0
114 150 0
114 150 0
121 154 0
109 147 0
113 149 0
118 153 0
112 149 0
111 148 0
116 151 0
116 151 0
121 154 0
112 149 0
114 150 0
116 151 0
114 150 0
108 146 0
117 152 0
117 152 0
115 151 0
120 154 0
108 147 0
119 153 0
116 151 0
115 151 0
115 151 0
115 151 0
117 152 0
117 152 0
112 149 0
116 152 0
114 150 0
120 154 0
115 151 0
121 154 0
122 155 0
118 152 0
122 155 0
116 151 0
124 156 0
116 151 0
112 149 0
115 151 0
117 152 0
110 148 0
109 147 0
113 149 0
116 151 0
113 150 0
118 152 0
113 150 0
119 153 0
114 150 0
114 150 0
116 151 0
120 154 0
109 147 0
112 149 0
118 153 0
120 154 0
119 153 0
114 150 0
114 150 0
113 150 0
113 149 0
121 154 0
127 158 0
118 153 0
114 150 0
116 151 0
118 152 0
116 152 0
116 151 0
114 150 0
119 153 0
115 151 0
117 152 0
112 149 0
108 146 0
113 150 0
114 150 0
111 148 0
115 151 0
113 149 0
114 150 0
114 150 0
110 148 0
114 150 0
111 148 0
111 148 0
117 152 0
119 153 0
110 148 0
114 150 0
114 150 0
108 147 0
111 148 0
111 148 0
115 151 0
113 150 0
116 151 0
119 153 0
112 149 0
111 149 0
112 149 0
113 149 0
111 148 0
111 148 0
118 153 0
118 153 0
115 151 0
114 150 0
112 149 0
113 150 0
124 156 0
115 151 0
116 151 0
117 152 0
114 150 0
114 150 0
118 153 0
108 147 0
114 150 0
113 150 0
112 149 0
118 152 0
115 151 0
115 150 0
114 150 0
117 152 0
115 151 0
116 151 0
115 151 0
119 153 0
118 153 0
118 152 0
110 148 0
111 149 0
113 149 0
104 144 0
107 146 0
105 144 0
106 145 0
104 144 0
105 145 0
106 145 0
104 144 0
106 145 0
109 147 0
104 144 0
106 145 0
105 145 0
105 145 0
106 145 0
103 144 0
103 144 0
105 145 0
107 146 0
106 146 0
104 144 0
107 146 0
105 145 0
106 146 0
103 144 0
107 146 0
103 144 0
104 144 0
105 145 0
106 145 0
103 144 0
104 144 0
106 145 0
105 145 0
105 145 0
103 144 0
108 147 0
104 144 0
103 143 0
108 147 0
106 145 0
105 145 0
107 146 0
106 146 0
106 145 0
103 143 0
107 146 0
105 145 0
105 145 0
103 144 0
105 145 0
104 144 0
107 146 0
105 145 0
105 145 0
103 144 0
103 144 0
102 143 0
105 144 0
104 144 0
105 145 0
104 144 0
107 146 0
106 146 0
102 143 0
104 144 0
106 145 0
105 144 0
103 144 0
107 146 0
105 145 0
105 144 0
105 145 0
105 145 0
105 145 0
106 145 0
106 145 0
105 144 0
106 145 0
104 144 0
104 144 0
106 145 0
103 144 0
103 143 0
104 144 0
106 146 0
104 144 0
103 144 0
104 144 0
107 146 0
107 146 0
104 144 0
106 146 0
103 144 0
105 145 0
103 144 0
108 146 0
104 144 0
102 143 0
104 144 0
105 145 0
104 144 0
105 145 0
104 144 0
105 145 0
103 144 0
104 144 0
104 144 0
107 146 0
105 145 0
108 147 0
108 146 0
104 144 0
105 145 0
103 143 0
106 145 0
104 144 0
107 146 0
106 145 0
103 143 0
108 146 0
105 145 0
105 145 0
104 144 0
105 144 0
104 144 0
104 144 0
114 150 0
105 145 0
107 146 0
108 146 0
104 144 0
106 145 0
107 146 0
103 144 0
108 147 0
106 145 0
106 145 0
104 144 0
106 146 0
109 147 0
108 146 0
107 146 0
107 146 0
108 147 0
108 146 0
103 143 0
105 144 0
109 147 0
105 145 0
104 144 0
110 148 0
110 147 0
107 146 0
112 149 0
104 144 0
105 145 0
104 144 0
106 145 0
107 146 0
111 148 0
107 146 0
111 148 0
108 146 0
111 148 0
109 147 0
110 147 0
109 147 0
114 150 0
107 146 0
114 150 0
109 147 0
106 146 0
112 149 0
105 145 0
109 147 0
114 150 0
115 151 0
115 150 0
116 151 0
109 147 0
104 144 0
113 150 0
108 147 0
109 147 0
108 146 0
111 149 0
112 149 0
117 152 0
111 148 0
109 147 0
108 147 0
112 149 0
109 147 0
108 146 0
113 150 0
110 148 0
109 147 0
115 150 0
116 152 0
107 146 0
110 148 0
112 149 0
111 148 0
121 154 0
107 146 0
113 150 0
110 148 0
113 149 0
117 152 0
112 149 0
112 149 0
114 150 0
115 151 0
110 148 0
118 152 0
116 152 0
124 156 0
112 149 0
118 152 0
111 149 0
116 151 0
104 144 0
124 156 0
109 147 0
109 147 0
114 150 0
116 151 0
113 150 0
112 149 0
119 153 0
111 149 0
115 151 0
104 144 0
119 153 0
118 153 0
122 155 0
112 149 0
118 152 0
109 147 0
118 152 0
120 154 0
118 152 0
114 150 0
111 149 0
113 149 0
117 152 0
113 149 0
112 149 0
117 152 0
110 148 0
115 151 0
113 149 0
110 148 0
115 151 0
110 148 0
111 148 0
112 149 0
124 156 0
116 151 0
112 149 0
120 154 0
114 150 0
114 150 0
114 150 0
114 150 0
113 150 0
114 150 0
119 153 0
121 154 0
115 151 0
118 153 0
120 153 0
116 151 0
119 153 0
121 155 0
120 154 0
121 154 0
114 150 0
114 150 0
114 150 0
110 147 0
117 152 0
117 152 0
116 151 0
115 151 0
116 151 0
117 152 0
116 151 0
114 150 0
117 152 0
114 150 0
125 157 0
114 150 0
112 149 0
116 151 0
110 148 0
118 153 0
124 156 0
114 150 0
112 149 0
115 151 0
112 149 0
112 149 0
111 148 0
117 152 0
116 151 0
117 152 0
116 151 0
114 150 0
117 152 0
116 151 0
110 148 0
114 150 0
116 151 0
117 152 0
109 147 0
115 151 0
119 153 0
113 150 0
111 148 0
112 149 0
121 154 0
110 148 0
113 150 0
111 148 0
114 150 0
116 151 0
122 155 0
117 152 0
119 153 0
115 151 0
115 151 0
115 151 0
112 149 0
110 148 0
111 148 0
117 152 0
118 153 0
119 153 0
111 148 0
109 147 0
117 152 0
117 152 0
120 154 0
122 155 0
113 150 0
110 148 0
112 149 0
111 148 0
120 154 0
118 152 0
114 150 0
114 150 0
119 153 0
114 150 0
117 152 0
115 151 0
111 149 0
115 150 0
115 151 0
120 154 0
123 155 0
108 146 0
113 149 0
116 152 0
114 150 0
113 150 0
111 148 0
112 149 0
109 147 0
111 148 0
111 148 0
113 149 0
110 148 0
119 153 0
112 149 0
113 149 0
119 153 0
110 148 0
114 150 0
113 149 0
118 152 0
110 148 0
113 150 0
116 152 0
116 151 0
122 155 0
112 149 0
111 148 0
118 152 0
113 150 0
117 152 0
112 149 0
111 148 0
117 152 0
114 150 0
111 149 0
112 149 0
118 153 0
104 144 0
107 146 0
104 144 0
106 145 0
106 145 0
106 145 0
104 144 0
103 143 0
108 146 0
103 144 0
105 145 0
106 145 0
107 146 0
104 144 0
105 145 0
106 145 0
104 144 0
104 144 0
103 144 0
105 145 0
108 146 0
105 145 0
105 145 0
107 146 0
104 144 0
106 145 0
104 144 0
105 145 0
106 145 0
106 145 0
105 145 0
105 145 0
105 144 0
106 145 0
107 146 0
103 144 0
107 146 0
105 145 0
105 145 0
105 145 0
106 145 0
105 145 0
106 145 0
104 144 0
105 145 0
103 143 0
105 145 0
103 143 0
105 145 0
104 144 0
104 144 0
108 146 0
104 144 0
104 144 0
106 145 0
106 145 0
106 145 0
106 146 0
105 144 0
105 145 0
104 144 0
104 144 0
106 145 0
103 144 0
106 145 0
106 145 0
104 144 0
107 146 0
106 146 0
107 146 0
106 145 0
105 145 0
103 144 0
104 144 0
105 145 0
105 145 0
104 144 0
106 145 0
104 144 0
109 147 0
106 146 0
104 144 0
110 148 0
106 145 0
105 145 0
106 146 0
105 145 0
105 145 0
105 145 0
105 145 0
105 145 0
107 146 0
107 146 0
105 145 0
104 144 0
105 144 0
104 144 0
105 145 0
105 145 0
108 147 0
104 144 0
104 144 0
105 145 0
105 145 0
104 144 0
107 146 0
104 144 0
104 144 0
103 144 0
105 144 0
108 146 0
103 144 0
104 144 0
104 144 0
105 145 0
107 146 0
104 144 0
105 145 0
106 145 0
105 144 0
103 144 0
103 143 0
105 145 0
107 146 0
104 144 0
105 145 0
107 146 0
106 145 0
106 145 0
108 146 0
108 147 0
105 145 0
104 144 0
110 148 0
106 145 0
109 147 0
105 145 0
105 145 0
105 145 0
106 145 0
105 145 0
109 147 0
106 145 0
110 148 0
111 148 0
113 150 0
106 145 0
111 148 0
108 146 0
104 144 0
105 145 0
106 146 0
110 147 0
109 147 0
109 147 0
107 146 0
107 146 0
112 149 0
107 146 0
108 147 0
108 147 0
105 144 0
107 146 0
106 145 0
110 148 0
107 146 0
106 145 0
109 147 0
105 145 0
112 149 0
110 148 0
105 145 0
109 147 0
107 146 0
114 150 0
113 149 0
106 146 0
111 148 0
107 146 0
112 149 0
110 148 0
118 153 0
107 146 0
107 146 0
111 148 0
123 156 0
113 150 0
106 145 0
104 144 0
109 147 0
109 147 0
113 150 0
112 149 0
105 145 0
119 153 0
114 150 0
111 149 0
106 146 0
119 153 0
113 149 0
111 148 0
107 146 0
108 147 0
115 151 0
112 149 0
109 147 0
112 149 0
110 148 0
108 147 0
112 149 0
114 150 0
112 149 0
109 147 0
108 146 0
108 147 0
105 145 0
115 151 0
113 149 0
117 152 0
113 149 0
124 156 0
118 153 0
109 147 0
113 150 0
117 152 0
110 148 0
112 149 0
109 147 0
114 150 0
110 148 0
111 148 0
119 153 0
120 154 0
112 149 0
111 149 0
118 153 0
114 150 0
119 153 0
111 148 0
124 156 0
120 154 0
116 152 0
116 151 0
114 150 0
112 149 0
115 151 0
116 151 0
118 153 0
116 151 0
113 149 0
110 148 0
119 153 0
112 149 0
115 151 0
115 151 0
110 148 0
113 149 0
120 154 0
119 153 0
117 152 0
121 154 0
120 154 0
118 152 0
111 148 0
115 150 0
118 153 0
115 151 0
127 158 0
121 154 0
116 151 0
113 150 0
111 148 0
113 149 0
119 153 0
121 154 0
111 148 0
110 148 0
116 151 0
115 151 0
117 152 0
121 154 0
114 150 0
111 149 0
117 152 0
117 152 0
115 150 0
122 155 0
118 152 0
121 154 0
119 153 0
123 156 0
118 152 0
118 153 0
118 152 0
113 150 0
115 151 0
111 149 0
117 152 0
115 151 0
111 148 0
116 151 0
115 151 0
109 147 0
125 156 0
119 153 0
118 152 0
111 149 0
116 151 0
112 149 0
115 151 0
114 150 0
114 150 0
114 150 0
108 147 0
115 150 0
113 149 0
114 150 0
115 151 0
117 152 0
116 151 0
114 150 0
111 148 0
115 151 0
121 155 0
118 152 0
121 154 0
112 149 0
111 149 0
125 156 0
117 152 0
118 152 0
117 152 0
114 150 0
118 153 0
123 155 0
116 151 0
118 153 0
115 151 0
112 149 0
117 152 0
116 151 0
113 150 0
116 151 0
114 150 0
117 152 0
115 151 0
111 148 0
111 148 0
117 152 0
116 151 0
117 152 0
112 149 0
117 152 0
115 151 0
110 148 0
113 150 0
110 148 0
118 153 0
112 149 0
115 151 0
113 149 0
114 150 0
117 152 0
115 151 0
117 152 0
109 147 0
114 150 0
114 150 0
111 148 0
116 151 0
112 149 0
121 154 0
112 149 0
113 150 0
115 151 0
112 149 0
115 151 0
118 152 0
109 147 0
116 151 0
109 147 0
113 149 0
114 150 0
113 149 0
109 147 0
111 148 0
108 146 0
112 149 0
115 151 0
122 155 0
116 151 0
112 149 0
114 150 0
115 150 0
112 149 0
123 155 0
113 149 0
112 149 0
111 149 0
117 152 0
104 144 0
105 145 0
108 147 0
105 145 0
103 143 0
106 145 0
107 146 0
108 146 0
104 144 0
105 145 0
107 146 0
106 145 0
106 145 0
104 144 0
104 144 0
106 145 0
105 145 0
106 145 0
106 145 0
105 145 0
106 146 0
106 145 0
105 145 0
104 144 0
107 146 0
108 146 0
103 144 0
105 145 0
104 144 0
106 145 0
105 144 0
106 145 0
106 145 0
105 145 0
107 146 0
105 145 0
103 144 0
104 144 0
103 144 0
103 144 0
103 144 0
104 144 0
103 143 0
105 145 0
104 144 0
104 144 0
106 145 0
104 144 0
104 144 0
108 146 0
103 143 0
103 144 0
104 144 0
104 144 0
104 144 0
104 144 0
103 143 0
106 145 0
105 145 0
106 145 0
105 145 0
106 145 0
105 144 0
103 144 0
105 145 0
105 145 0
106 145 0
103 144 0
103 144 0
103 143 0
104 144 0
104 144 0
102 143 0
103 144 0
104 144 0
104 144 0
106 145 0
108 146 0
107 146 0
108 147 0
105 145 0
105 145 0
105 145 0
106 145 0
103 144 0
104 144 0
106 145 0
104 144 0
104 144 0
103 143 0
106 145 0
106 145 0
105 145 0
104 144 0
104 144 0
105 145 0
104 144 0
107 146 0
104 144 0
106 145 0
104 144 0
105 145 0
105 145 0
110 148 0
106 145 0
108 146 0
108 146 0
106 146 0
106 145 0
108 146 0
109 147 0
109 147 0
106 145 0
106 146 0
103 144 0
106 145 0
106 145 0
106 146 0
110 148 0
104 144 0
106 145 0
107 146 0
105 145 0
107 146 0
104 144 0
106 145 0
104 144 0
106 145 0
105 145 0
115 151 0
105 145 0
104 144 0
107 146 0
111 148 0
111 148 0
103 144 0
109 147 0
107 146 0
105 145 0
105 145 0
108 147 0
108 147 0
106 145 0
113 150 0
108 146 0
110 148 0
107 146 0
108 146 0
105 145 0
103 144 0
108 146 0
105 145 0
106 145 0
108 146 0
107 146 0
106 145 0
108 147 0
110 148 0
110 148 0
107 146 0
107 146 0
110 148 0
109 147 0
113 150 0
106 145 0
104 144 0
122 155 0
110 148 0
102 143 0
108 146 0
115 151 0
106 145 0
108 146 0
112 149 0
105 145 0
106 145 0
109 147 0
110 148 0
104 144 0
114 150 0
113 150 0
108 147 0
111 148 0
114 150 0
112 149 0
106 146 0
116 151 0
106 145 0
111 148 0
116 151 0
104 144 0
114 150 0
112 149 0
114 150 0
121 154 0
115 151 0
109 147 0
109 147 0
117 152 0
115 151 0
110 148 0
122 155 0
112 149 0
112 149 0
119 153 0
110 148 0
122 155 0
111 148 0
113 149 0
108 146 0
113 149 0
113 150 0
111 149 0
118 152 0
118 153 0
118 153 0
120 154 0
115 151 0
107 146 0
109 147 0
119 153 0
113 150 0
121 154 0
121 154 0
110 148 0
114 150 0
114 150 0
129 159 0
113 150 0
124 156 0
114 150 0
120 154 0
115 151 0
113 149 0
109 147 0
115 151 0
116 152 0
116 152 0
117 152 0
118 153 0
112 149 0
113 150 0
118 152 0
113 150 0
116 151 0
113 149 0
114 150 0
117 152 0
118 153 0
126 157 0
120 154 0
114 150 0
117 152 0
116 151 0
119 153 0
111 148 0
111 149 0
112 149 0
121 154 0
115 151 0
112 149 0
121 154 0
119 153 0
115 151 0
124 156 0
118 153 0
118 152 0
113 149 0
115 151 0
113 150 0
119 153 0
119 153 0
118 152 0
120 153 0
119 153 0
109 147 0
114 150 0
117 152 0
116 152 0
110 148 0
112 149 0
117 152 0
115 151 0
119 153 0
116 151 0
126 157 0
117 152 0
114 150 0
113 150 0
110 148 0
118 153 0
109 147 0
115 151 0
112 149 0
123 155 0
118 153 0
118 153 0
119 153 0
118 153 0
116 151 0
118 152 0
117 152 0
121 154 0
118 153 0
117 152 0
113 149 0
119 153 0
116 152 0
119 153 0
113 149 0
111 148 0
111 149 0
120 154 0
116 151 0
119 153 0
119 153 0
114 150 0
112 149 0
116 151 0
114 150 0
123 155 0
112 149 0
111 149 0
114 150 0
118 152 0
114 150 0
112 149 0
118 152 0
114 150 0
115 150 0
119 153 0
114 150 0
112 149 0
111 149 0
118 152 0
115 150 0
117 152 0
114 150 0
113 150 0
111 148 0
118 152 0
119 153 0
114 150 0
116 151 0
112 149 0
108 146 0
122 155 0
113 150 0
115 151 0
118 153 0
115 150 0
121 155 0
110 148 0
114 150 0
115 151 0
122 155 0
118 152 0
111 148 0
115 150 0
115 151 0
111 149 0
109 147 0
116 151 0
116 151 0
117 152 0
110 148 0
119 153 0
122 155 0
111 148 0
109 147 0
111 148 0
116 152 0
114 150 0
112 149 0
117 152 0
117 152 0
112 149 0
114 150 0
118 153 0
113 149 0
120 154 0
110 148 0
117 152 0
114 150 0
117 152 0
110 148 0
116 151 0
110 148 0
120 154 0
118 153 0
111 148 0
117 152 0
114 150 0
115 150 0
108 146 0
114 150 0
110 148 0
116 151 0
113 149 0
115 150 0
105 145 0
107 146 0
104 144 0
106 145 0
106 145 0
107 146 0
106 145 0
103 143 0
107 146 0
108 147 0
104 144 0
106 145 0
109 147 0
104 144 0
105 145 0
106 145 0
103 144 0
107 146 0
104 144 0
105 145 0
103 144 0
106 145 0
106 145 0
107 146 0
103 144 0
104 144 0
109 147 0
107 146 0
103 144 0
103 144 0
103 144 0
109 147 0
102 143 0
105 145 0
105 145 0
104 144 0
104 144 0
106 145 0
103 144 0
107 146 0
103 143 0
107 146 0
110 148 0
104 144 0
104 144 0
103 144 0
107 146 0
104 144 0
103 144 0
106 145 0
108 146 0
103 143 0
106 145 0
103 143 0
105 144 0
105 145 0
106 145 0
108 146 0
104 144 0
103 143 0
105 145 0
103 144 0
109 147 0
103 144 0
106 145 0
106 145 0
104 144 0
105 145 0
104 144 0
103 144 0
103 143 0
103 144 0
107 146 0
107 146 0
104 144 0
106 145 0
105 145 0
108 147 0
106 146 0
104 144 0
104 144 0
105 145 0
105 145 0
103 143 0
106 145 0
104 144 0
104 144 0
105 145 0
105 145 0
107 146 0
105 145 0
106 145 0
105 145 0
104 144 0
104 144 0
106 145 0
104 144 0
104 144 0
104 144 0
104 144 0
106 146 0
104 144 0
104 144 0
104 144 0
107 146 0
106 145 0
105 145 0
104 144 0
103 143 0
107 146 0
106 145 0
105 145 0
108 146 0
104 144 0
104 144 0
108 146 0
107 146 0
105 145 0
104 144 0
106 146 0
104 144 0
103 144 0
106 145 0
105 145 0
109 147 0
108 146 0
105 145 0
110 148 0
106 145 0
105 145 0
106 145 0
105 145 0
106 145 0
106 145 0
104 144 0
107 146 0
105 144 0
105 145 0
106 145 0
108 146 0
108 146 0
106 146 0
108 146 0
108 146 0
108 146 0
106 145 0
104 144 0
111 148 0
109 147 0
109 147 0
106 146 0
105 145 0
109 147 0
105 145 0
105 145 0
105 145 0
109 147 0
116 152 0
103 144 0
113 149 0
115 151 0
115 151 0
110 148 0
118 153 0
110 148 0
107 146 0
107 146 0
113 149 0
115 151 0
112 149 0
119 153 0
109 147 0
110 148 0
106 145 0
120 153 0
108 146 0
107 146 0
107 146 0
110 148 0
118 153 0
109 147 0
107 146 0
111 148 0
107 146 0
115 151 0
113 149 0
107 146 0
116 152 0
115 151 0
109 147 0
115 151 0
119 153 0
110 148 0
121 154 0
121 155 0
110 148 0
111 148 0
120 153 0
121 155 0
113 150 0
110 148 0
115 151 0
109 147 0
118 153 0
112 149 0
115 151 0
123 156 0
107 146 0
113 150 0
112 149 0
111 148 0
104 144 0
123 155 0
118 152 0
123 155 0
109 147 0
115 151 0
110 148 0
115 151 0
119 153 0
111 148 0
118 152 0
123 155 0
119 153 0
121 154 0
119 153 0
120 154 0
115 151 0
114 150 0
114 150 0
119 153 0
111 149 0
114 150 0
110 148 0
118 152 0
110 148 0
121 155 0
115 151 0
111 148 0
125 157 0
118 153 0
118 152 0
120 154 0
113 150 0
112 149 0
111 148 0
120 154 0
117 152 0
115 151 0
121 154 0
116 151 0
121 154 0
114 150 0
118 152 0
116 151 0
115 151 0
121 154 0
113 150 0
106 145 0
115 151 0
112 149 0
115 151 0
114 150 0
112 149 0
116 151 0
114 150 0
117 152 0
118 153 0
114 150 0
120 154 0
112 149 0
110 148 0
117 152 0
120 154 0
119 153 0
107 146 0
113 149 0
114 150 0
111 148 0
116 151 0
122 155 0
118 153 0
118 152 0
114 150 0
116 152 0
117 152 0
112 149 0
113 149 0
116 151 0
116 151 0
116 151 0
121 154 0
116 151 0
113 150 0
123 155 0
111 148 0
114 150 0
117 152 0
112 149 0
116 151 0
112 149 0
122 155 0
117 152 0
115 151 0
118 152 0
119 153 0
120 154 0
117 152 0
114 150 0
118 152 0
115 151 0
117 152 0
118 152 0
119 153 0
113 150 0
118 152 0
117 152 0
116 151 0
110 148 0
113 149 0
115 151 0
116 152 0
115 151 0
109 147 0
117 152 0
116 151 0
114 150 0
114 150 0
116 152 0
112 149 0
114 150 0
113 149 0
118 152 0
114 150 0
113 149 0
118 152 0
119 153 0
120 154 0
120 154 0
113 150 0
121 154 0
115 151 0
117 152 0
112 149 0
113 149 0
121 154 0
114 150 0
114 150 0
109 147 0
121 154 0
112 149 0
119 153 0
120 154 0
115 151 0
114 150 0
114 150 0
114 150 0
119 153 0
116 152 0
112 149 0
122 155 0
115 150 0
111 148 0
113 150 0
113 150 0
116 151 0
118 153 0
114 150 0
120 154 0
110 148 0
112 149 0
112 149 0
111 149 0
114 150 0
114 150 0
116 151 0
111 148 0
121 154 0
120 154 0
113 149 0
116 152 0
119 153 0
112 149 0
113 150 0
114 150 0
120 154 0
121 154 0
114 150 0
113 149 0
116 151 0
117 152 0
116 151 0
113 150 0
113 150 0
113 150 0
117 152 0
117 152 0
114 150 0
112 149 0
109 147 0
107 146 0
105 144 0
106 145 0
103 144 0
103 144 0
105 144 0
104 144 0
107 146 0
106 145 0
105 145 0
106 145 0
102 143 0
104 144 0
103 143 0
104 144 0
105 145 0
106 145 0
104 144 0
103 143 0
105 145 0
106 146 0
103 144 0
104 144 0
105 145 0
108 146 0
104 144 0
105 145 0
106 145 0
104 144 0
104 144 0
104 144 0
104 144 0
109 147 0
105 145 0
106 145 0
104 144 0
103 144 0
104 144 0
104 144 0
103 144 0
105 144 0
105 144 0
104 144 0
103 144 0
106 145 0
107 146 0
106 145 0
103 144 0
105 145 0
104 144 0
104 144 0
105 145 0
105 145 0
103 143 0
105 145 0
105 145 0
106 146 0
103 143 0
104 144 0
104 144 0
102 143 0
105 145 0
104 144 0
103 144 0
107 146 0
105 145 0
103 144 0
103 144 0
104 144 0
103 144 0
106 146 0
108 147 0
106 145 0
103 144 0
104 144 0
108 146 0
106 145 0
104 144 0
105 145 0
103 144 0
107 146 0
106 145 0
103 144 0
105 145 0
104 144 0
107 146 0
105 145 0
104 144 0
105 144 0
105 145 0
104 144 0
105 145 0
107 146 0
104 144 0
106 145 0
104 144 0
103 144 0
105 145 0
103 143 0
105 145 0
103 143 0
102 143 0
104 144 0
104 144 0
106 145 0
109 147 0
108 146 0
107 146 0
104 144 0
104 144 0
108 146 0
103 143 0
107 146 0
106 145 0
108 146 0
107 146 0
103 144 0
105 144 0
105 145 0
107 146 0
106 145 0
105 145 0
110 148 0
105 145 0
105 145 0
108 147 0
105 145 0
106 145 0
106 145 0
106 145 0
106 145 0
107 146 0
108 147 0
105 145 0
107 146 0
106 145 0
107 146 0
104 144 0
104 144 0
106 145 0
109 147 0
107 146 0
108 147 0
108 147 0
106 145 0
109 147 0
109 147 0
110 148 0
112 149 0
110 148 0
109 147 0
107 146 0
106 146 0
104 144 0
107 146 0
115 151 0
108 146 0
105 145 0
108 147 0
105 145 0
109 147 0
111 148 0
104 144 0
109 147 0
108 147 0
105 145 0
105 145 0
103 144 0
111 148 0
104 144 0
113 149 0
108 146 0
114 150 0
114 150 0
107 146 0
112 149 0
107 146 0
113 150 0
107 146 0
120 154 0
113 150 0
108 147 0
115 150 0
113 150 0
110 147 0
117 152 0
121 154 0
108 147 0
112 149 0
116 151 0
108 146 0
110 148 0
113 149 0
111 148 0
110 148 0
115 151 0
115 151 0
112 149 0
113 150 0
113 149 0
111 148 0
110 148 0
110 147 0
114 150 0
116 151 0
119 153 0
110 148 0
109 147 0
111 148 0
121 154 0
113 149 0
111 149 0
117 152 0
111 148 0
114 150 0
120 154 0
108 147 0
113 150 0
119 153 0
123 156 0
115 150 0
113 150 0
105 145 0
109 147 0
122 155 0
113 149 0
113 150 0
109 147 0
119 153 0
114 150 0
117 152 0
119 153 0
121 154 0
115 151 0
127 158 0
117 152 0
109 147 0
112 149 0
112 149 0
119 153 0
118 153 0
119 153 0
127 158 0
122 155 0
121 155 0
115 151 0
125 156 0
118 152 0
114 150 0
118 152 0
119 153 0
117 152 0
111 148 0
112 149 0
121 154 0
119 153 0
120 154 0
115 151 0
114 150 0
117 152 0
116 152 0
120 154 0
116 151 0
114 150 0
115 151 0
121 154 0
115 151 0
117 152 0
119 153 0
118 153 0
116 152 0
118 152 0
116 152 0
119 153 0
117 152 0
116 151 0
118 152 0
115 151 0
115 151 0
117 152 0
125 157 0
124 156 0
118 153 0
110 148 0
118 152 0
118 153 0
117 152 0
111 148 0
116 152 0
117 152 0
117 152 0
117 152 0
125 157 0
111 148 0
114 150 0
123 156 0
118 153 0
115 151 0
123 155 0
115 151 0
121 154 0
118 152 0
116 151 0
118 152 0
113 150 0
121 154 0
115 151 0
111 149 0
111 149 0
112 149 0
122 155 0
111 148 0
113 149 0
113 149 0
116 151 0
118 153 0
112 149 0
118 153 0
116 151 0
116 151 0
113 149 0
113 149 0
111 148 0
120 154 0
113 149 0
112 149 0
118 152 0
116 151 0
111 148 0
119 153 0
119 153 0
113 150 0
119 153 0
117 152 0
113 150 0
114 150 0
117 152 0
117 152 0
118 152 0
110 148 0
120 153 0
114 150 0
112 149 0
112 149 0
113 150 0
115 151 0
115 151 0
112 149 0
114 150 0
114 150 0
119 153 0
113 150 0
110 148 0
110 148 0
113 150 0
110 148 0
113 149 0
117 152 0
112 149 0
117 152 0
119 153 0
112 149 0
116 152 0
107 146 0
114 150 0
120 153 0
114 150 0
116 151 0
115 151 0
110 148 0
112 149 0
115 151 0
110 148 0
119 153 0
114 150 0
115 150 0
117 152 0
113 149 0
114 150 0
113 149 0
120 154 0
109 147 0
112 149 0
109 147 0
115 151 0
112 149 0
110 148 0
115 151 0
110 148 0
112 149 0
114 150 0
118 153 0
111 148 0
118 152 0
119 153 0
120 154 0
115 151 0
112 149 0
115 150 0
112 149 0
106 145 0
107 146 0
104 144 0
104 144 0
104 144 0
103 144 0
106 145 0
102 143 0
104 144 0
107 146 0
107 146 0
103 144 0
104 144 0
105 145 0
104 144 0
107 146 0
106 146 0
109 147 0
105 145 0
104 144 0
104 144 0
105 145 0
107 146 0
103 144 0
105 145 0
104 144 0
106 145 0
103 143 0
103 144 0
106 145 0
103 144 0
105 145 0
108 147 0
105 144 0
104 144 0
105 145 0
103 144 0
105 145 0
104 144 0
104 144 0
105 145 0
104 144 0
105 145 0
103 143 0
104 144 0
106 145 0
104 144 0
104 144 0
105 145 0
106 145 0
104 144 0
106 145 0
104 144 0
105 145 0
105 145 0
107 146 0
105 145 0
105 145 0
107 146 0
105 145 0
102 143 0
106 145 0
105 145 0
104 144 0
105 145 0
104 144 0
104 144 0
105 145 0
105 145 0
104 144 0
107 146 0
104 144 0
105 145 0
104 144 0
104 144 0
105 144 0
105 144 0
109 147 0
106 145 0
103 144 0
105 145 0
105 145 0
109 147 0
107 146 0
107 146 0
104 144 0
105 145 0
104 144 0
104 144 0
104 144 0
106 145 0
103 144 0
105 144 0
104 144 0
104 144 0
104 144 0
108 146 0
104 144 0
103 143 0
104 144 0
104 144 0
105 145 0
106 146 0
104 144 0
104 144 0
101 137 0
108 146 0
105 145 0
109 147 0
107 146 0
105 145 0
105 145 0
103 144 0
103 144 0
104 144 0
107 146 0
105 145 0
106 145 0
110 148 0
106 145 0
105 145 0
105 145 0
110 148 0
103 144 0
103 144 0
107 146 0
110 148 0
107 146 0
104 144 0
105 145 0
104 144 0
107 146 0
108 147 0
111 148 0
105 145 0
111 148 0
108 146 0
105 145 0
114 150 0
107 146 0
108 147 0
103 143 0
105 145 0
106 145 0
113 149 0
110 148 0
108 146 0
110 148 0
103 144 0
111 149 0
108 147 0
115 151 0
111 148 0
106 146 0
113 149 0
109 147 0
108 147 0
108 146 0
110 148 0
103 144 0
110 147 0
104 144 0
110 148 0
108 147 0
115 151 0
106 145 0
111 148 0
115 151 0
108 147 0
108 147 0
109 147 0
115 151 0
118 153 0
109 147 0
118 153 0
110 148 0
112 149 0
112 149 0
109 147 0
119 153 0
116 151 0
111 148 0
110 148 0
116 151 0
107 146 0
110 148 0
104 144 0
107 146 0
106 145 0
106 145 0
114 150 0
109 147 0
118 152 0
110 148 0
115 151 0
115 151 0
113 150 0
118 152 0
116 151 0
114 150 0
117 152 0
115 151 0
114 150 0
112 149 0
110 148 0
114 150 0
111 148 0
113 149 0
118 153 0
110 148 0
120 154 0
114 150 0
121 154 0
111 148 0
115 151 0
122 155 0
109 147 0
116 151 0
121 154 0
110 148 0
119 153 0
117 152 0
112 149 0
118 153 0
120 153 0
111 148 0
116 151 0
115 150 0
114 150 0
119 153 0
119 153 0
115 151 0
115 151 0
118 153 0
115 151 0
116 151 0
116 151 0
114 150 0
114 150 0
125 157 0
118 153 0
118 152 0
112 149 0
114 150 0
113 150 0
121 155 0
112 149 0
111 148 0
117 152 0
121 155 0
122 155 0
113 149 0
119 153 0
112 149 0
111 148 0
115 151 0
116 151 0
119 153 0
120 154 0
115 151 0
116 151 0
119 153 0
121 154 0
115 151 0
116 152 0
119 153 0
111 148 0
124 156 0
112 149 0
112 149 0
112 149 0
114 150 0
117 152 0
113 149 0
126 157 0
115 150 0
111 148 0
113 149 0
116 151 0
117 152 0
115 151 0
117 152 0
122 155 0
117 152 0
114 150 0
113 150 0
120 154 0
112 149 0
113 149 0
117 152 0
115 151 0
118 153 0
111 148 0
117 152 0
122 155 0
115 151 0
116 151 0
119 153 0
113 149 0
121 154 0
113 149 0
115 151 0
116 151 0
115 151 0
113 149 0
120 154 0
117 152 0
115 151 0
116 152 0
113 149 0
113 149 0
111 148 0
115 150 0
124 156 0
116 151 0
122 155 0
116 151 0
122 155 0
109 147 0
117 152 0
115 151 0
112 149 0
116 151 0
110 148 0
117 152 0
116 151 0
119 153 0
117 152 0
111 148 0
123 155 0
117 152 0
115 150 0
112 149 0
116 151 0
115 151 0
116 151 0
110 148 0
109 147 0
116 151 0
115 151 0
114 150 0
111 148 0
116 151 0
116 152 0
117 152 0
118 152 0
116 151 0
109 147 0
110 148 0
109 147 0
113 149 0
117 152 0
114 150 0
112 149 0
115 151 0
114 150 0
121 154 0
116 151 0
119 153 0
119 153 0
116 152 0
113 150 0
115 151 0
120 154 0
119 153 0
119 153 0
115 151 0
115 151 0
113 150 0
113 149 0
111 148 0
109 147 0
114 150 0
114 150 0
116 151 0
119 153 0
114 150 0
110 148 0
115 151 0
115 151 0
123 155 0
112 149 0
115 150 0
111 148 0
117 152 0
114 150 0
108 146 0
116 151 0
112 149 0
110 148 0
114 150 0
115 151 0
112 149 0
114 150 0
113 150 0
116 151 0
114 150 0
112 149 0
109 147 0
115 151 0
103 144 0
108 146 0
107 146 0
105 144 0
103 144 0
105 145 0
104 144 0
103 144 0
102 143 0
106 145 0
106 145 0
104 144 0
104 144 0
106 145 0
105 145 0
103 144 0
105 145 0
105 145 0
103 144 0
105 145 0
107 146 0
106 146 0
104 144 0
109 147 0
104 144 0
106 145 0
103 144 0
103 144 0
106 145 0
104 144 0
104 144 0
106 145 0
105 145 0
104 144 0
105 145 0
104 144 0
104 144 0
106 146 0
106 145 0
105 145 0
103 144 0
105 145 0
106 145 0
104 144 0
106 145 0
105 145 0
105 145 0
106 145 0
103 144 0
106 145 0
104 144 0
104 144 0
104 144 0
104 144 0
105 145 0
108 146 0
103 143 0
104 144 0
104 144 0
104 144 0
104 144 0
105 145 0
104 144 0
103 144 0
106 145 0
106 145 0
104 144 0
105 144 0
107 146 0
106 145 0
105 144 0
106 145 0
107 146 0
104 144 0
107 146 0
105 144 0
106 145 0
105 145 0
104 144 0
106 145 0
105 144 0
104 144 0
104 144 0
106 145 0
105 144 0
107 146 0
105 145 0
104 144 0
106 145 0
104 144 0
106 145 0
104 144 0
104 144 0
105 145 0
104 144 0
104 144 0
104 144 0
105 145 0
105 145 0
106 146 0
104 144 0
104 144 0
107 146 0
104 144 0
106 146 0
106 145 0
104 144 0
105 144 0
107 146 0
103 144 0
105 145 0
105 145 0
107 146 0
106 145 0
108 146 0
105 145 0
106 145 0
104 144 0
106 146 0
107 146 0
106 145 0
107 146 0
105 145 0
105 145 0
104 144 0
110 148 0
107 146 0
105 145 0
112 149 0
107 146 0
105 145 0
105 144 0
107 146 0
107 146 0
108 147 0
105 145 0
112 149 0
111 149 0
108 146 0
105 145 0
111 148 0
100 136 0
103 143 0
106 145 0
105 144 0
114 150 0
106 145 0
107 146 0
103 144 0
103 143 0
112 149 0
103 144 0
113 150 0
115 151 0
108 147 0
108 147 0
107 146 0
108 146 0
116 151 0
109 147 0
105 145 0
112 149 0
110 148 0
110 148 0
106 145 0
107 146 0
113 149 0
114 150 0
111 148 0
117 152 0
111 148 0
113 149 0
107 146 0
111 148 0
112 149 0
109 147 0
109 147 0
109 147 0
107 146 0
111 148 0
110 148 0
105 144 0
119 153 0
110 148 0
115 150 0
113 149 0
107 146 0
116 151 0
111 148 0
119 153 0
122 155 0
108 147 0
108 147 0
105 145 0
115 151 0
117 152 0
113 150 0
112 149 0
105 145 0
113 150 0
118 153 0
107 146 0
113 149 0
116 151 0
112 149 0
111 148 0
121 154 0
116 151 0
122 155 0
112 149 0
119 153 0
117 152 0
112 149 0
109 147 0
120 153 0
112 149 0
110 148 0
115 151 0
119 153 0
122 155 0
112 149 0
114 150 0
110 148 0
123 155 0
117 152 0
108 147 0
115 151 0
118 153 0
112 149 0
114 150 0
116 152 0
118 153 0
111 148 0
122 155 0
110 148 0
112 149 0
128 158 0
121 154 0
111 148 0
119 153 0
117 152 0
112 149 0
114 150 0
111 148 0
114 150 0
114 150 0
122 155 0
120 154 0
125 157 0
114 150 0
123 156 0
114 150 0
112 149 0
119 153 0
117 152 0
118 152 0
116 151 0
119 153 0
120 153 0
121 154 0
111 148 0
122 155 0
117 152 0
115 151 0
124 156 0
120 153 0
124 156 0
121 154 0
110 148 0
117 152 0
115 151 0
116 151 0
117 152 0
121 154 0
122 155 0
119 153 0
113 150 0
121 154 0
118 152 0
115 150 0
114 150 0
113 149 0
114 150 0
113 149 0
119 153 0
112 149 0
121 154 0
114 150 0
117 152 0
116 151 0
117 152 0
121 154 0
117 152 0
115 150 0
116 151 0
113 150 0
122 155 0
125 157 0
114 150 0
117 152 0
114 150 0
113 150 0
113 149 0
120 154 0
115 151 0
114 150 0
117 152 0
118 153 0
120 154 0
115 151 0
120 154 0
119 153 0
119 153 0
118 152 0
119 153 0
116 151 0
116 151 0
117 152 0
114 150 0
122 155 0
119 153 0
114 150 0
121 155 0
125 157 0
123 155 0
115 151 0
116 151 0
111 148 0
113 150 0
121 154 0
112 149 0
122 155 0
116 152 0
115 151 0
117 152 0
118 153 0
120 154 0
114 150 0
118 153 0
119 153 0
112 149 0
115 151 0
117 152 0
114 150 0
118 153 0
119 153 0
116 151 0
116 152 0
114 150 0
115 151 0
114 150 0
119 153 0
116 151 0
116 151 0
115 151 0
110 147 0
112 149 0
118 152 0
121 154 0
117 152 0
111 148 0
114 150 0
111 148 0
119 153 0
109 147 0
120 154 0
115 151 0
113 150 0
112 149 0
121 154 0
112 149 0
113 150 0
114 150 0
116 152 0
116 152 0
113 150 0
118 153 0
117 152 0
115 151 0
118 153 0
116 151 0
111 148 0
113 150 0
113 149 0
110 148 0
109 147 0
123 156 0
120 154 0
117 152 0
117 152 0
111 148 0
113 150 0
113 149 0
115 150 0
119 153 0
121 154 0
112 149 0
114 150 0
115 151 0
116 151 0
103 143 0
106 145 0
109 147 0
104 144 0
104 144 0
105 145 0
103 143 0
104 144 0
105 145 0
104 144 0
103 144 0
104 144 0
103 144 0
105 145 0
104 144 0
106 145 0
105 145 0
104 144 0
106 145 0
105 145 0
106 145 0
104 144 0
104 144 0
105 145 0
108 147 0
104 144 0
108 147 0
104 144 0
107 146 0
107 146 0
104 144 0
104 144 0
106 145 0
107 146 0
103 144 0
108 146 0
107 146 0
104 144 0
104 144 0
106 145 0
106 146 0
106 145 0
106 145 0
104 144 0
106 145 0
108 146 0
105 145 0
105 145 0
106 146 0
107 146 0
106 145 0
103 144 0
105 145 0
104 144 0
104 144 0
104 144 0
105 145 0
105 145 0
104 144 0
104 144 0
104 144 0
104 144 0
105 145 0
106 145 0
106 145 0
104 144 0
105 145 0
103 144 0
106 145 0
106 146 0
105 145 0
105 145 0
106 145 0
104 144 0
107 146 0
107 146 0
105 145 0
105 145 0
110 147 0
106 145 0
105 145 0
104 144 0
105 145 0
105 145 0
108 146 0
104 144 0
104 144 0
106 145 0
105 145 0
104 144 0
107 146 0
108 147 0
108 146 0
107 146 0
106 145 0
106 145 0
105 145 0
108 146 0
104 144 0
106 145 0
106 146 0
107 146 0
105 145 0
104 144 0
106 145 0
105 145 0
104 144 0
108 146 0
107 146 0
105 145 0
106 145 0
108 147 0
103 144 0
104 144 0
111 148 0
109 147 0
106 146 0
103 144 0
104 144 0
108 146 0
105 145 0
107 146 0
105 145 0
106 146 0
107 146 0
106 145 0
104 144 0
106 146 0
106 145 0
106 145 0
106 145 0
108 146 0
108 147 0
111 148 0
106 146 0
106 145 0
105 145 0
106 145 0
110 148 0
105 145 0
110 148 0
107 146 0
106 145 0
107 146 0
104 144 0
106 145 0
110 148 0
106 145 0
113 149 0
107 146 0
107 146 0
106 145 0
104 144 0
108 146 0
106 146 0
109 147 0
111 148 0
112 149 0
108 147 0
108 146 0
104 144 0
110 148 0
105 145 0
111 149 0
106 145 0
109 147 0
111 149 0
112 149 0
111 148 0
113 150 0
103 143 0
104 144 0
120 154 0
117 152 0
114 150 0
109 147 0
114 150 0
109 147 0
106 145 0
111 148 0
108 147 0
112 149 0
109 147 0
110 148 0
113 150 0
115 150 0
109 147 0
118 153 0
110 148 0
114 150 0
113 150 0
119 153 0
112 149 0
115 151 0
115 151 0
112 149 0
123 155 0
107 146 0
114 150 0
114 150 0
112 149 0
115 151 0
113 150 0
118 152 0
118 152 0
120 153 0
108 147 0
109 147 0
117 152 0
108 146 0
118 152 0
120 154 0
111 148 0
119 153 0
113 149 0
114 150 0
118 152 0
114 150 0
119 153 0
113 149 0
130 160 0
109 147 0
110 148 0
116 151 0
111 148 0
113 150 0
109 147 0
121 154 0
118 153 0
112 149 0
113 150 0
116 151 0
112 149 0
116 151 0
119 153 0
118 153 0
113 149 0
120 154 0
121 154 0
111 148 0
118 153 0
112 149 0
126 157 0
114 150 0
122 155 0
117 152 0
123 155 0
115 151 0
115 151 0
116 152 0
114 150 0
125 157 0
118 152 0
117 152 0
111 149 0
120 154 0
124 156 0
114 150 0
115 150 0
112 149 0
124 156 0
112 149 0
121 154 0
118 152 0
118 152 0
114 150 0
125 157 0
114 150 0
121 155 0
121 154 0
121 154 0
126 158 0
117 152 0
126 157 0
113 149 0
116 151 0
118 152 0
117 152 0
115 151 0
119 153 0
123 156 0
119 153 0
123 156 0
121 154 0
114 150 0
117 152 0
116 151 0
111 148 0
111 148 0
115 151 0
113 149 0
116 151 0
113 150 0
117 152 0
120 154 0
118 152 0
118 153 0
122 155 0
120 154 0
111 148 0
118 152 0
117 152 0
110 147 0
121 154 0
115 151 0
112 149 0
115 151 0
112 149 0
119 153 0
114 150 0
113 149 0
119 153 0
118 152 0
117 152 0
120 154 0
113 150 0
114 150 0
113 150 0
123 156 0
112 149 0
115 151 0
121 154 0
112 149 0
112 149 0
115 151 0
112 149 0
111 148 0
118 152 0
121 154 0
115 151 0
113 149 0
116 151 0
118 153 0
117 152 0
118 153 0
114 150 0
116 151 0
112 149 0
119 153 0
115 151 0
118 153 0
119 153 0
118 152 0
114 150 0
119 153 0
116 151 0
113 149 0
113 150 0
126 158 0
112 149 0
117 152 0
113 149 0
112 149 0
119 153 0
112 149 0
117 152 0
113 149 0
123 155 0
115 151 0
111 148 0
115 150 0
112 149 0
118 152 0
114 150 0
116 151 0
120 153 0
114 150 0
113 150 0
115 151 0
113 149 0
119 153 0
114 150 0
111 148 0
117 152 0
112 149 0
116 152 0
118 152 0
118 153 0
119 153 0
112 149 0
122 155 0
111 149 0
117 152 0
113 150 0
119 153 0
114 150 0
115 151 0
110 148 0
118 152 0
112 149 0
113 150 0
115 151 0
114 150 0
120 154 0
114 150 0
113 150 0
115 151 0
119 153 0
113 149 0
111 149 0
103 144 0
107 146 0
106 145 0
105 145 0
106 145 0
104 144 0
105 145 0
109 147 0
104 144 0
106 145 0
104 144 0
104 144 0
103 144 0
104 144 0
103 144 0
103 144 0
105 145 0
103 144 0
105 145 0
104 144 0
104 144 0
106 145 0
104 144 0
103 144 0
104 144 0
107 146 0
107 146 0
103 144 0
104 144 0
104 144 0
105 144 0
105 145 0
106 145 0
106 145 0
103 143 0
103 143 0
107 146 0
104 144 0
103 144 0
103 143 0
105 145 0
106 145 0
104 144 0
107 146 0
104 144 0
104 144 0
106 145 0
105 145 0
106 145 0
103 143 0
105 145 0
105 144 0
103 144 0
104 144 0
107 146 0
105 145 0
106 145 0
105 145 0
103 144 0
106 145 0
105 145 0
103 144 0
107 146 0
104 144 0
106 145 0
104 144 0
105 145 0
105 145 0
105 145 0
106 146 0
105 145 0
105 145 0
107 146 0
108 146 0
104 144 0
103 144 0
104 144 0
105 145 0
110 148 0
105 145 0
107 146 0
104 144 0
106 146 0
104 144 0
105 145 0
104 144 0
103 144 0
107 146 0
107 146 0
103 144 0
109 147 0
104 144 0
108 146 0
106 145 0
106 146 0
103 143 0
105 145 0
107 146 0
105 145 0
110 147 0
103 144 0
106 145 0
108 146 0
107 146 0
105 145 0
107 146 0
107 146 0
105 144 0
103 144 0
96 134 0
104 144 0
103 143 0
105 145 0
105 145 0
104 144 0
111 148 0
104 144 0
110 148 0
107 146 0
105 145 0
105 145 0
104 144 0
108 146 0
112 149 0
108 146 0
107 146 0
103 143 0
104 144 0
105 145 0
108 147 0
108 147 0
106 145 0
104 144 0
105 145 0
115 151 0
108 147 0
110 148 0
106 145 0
104 139 0
111 149 0
111 148 0
109 147 0
107 146 0
104 144 0
110 148 0
113 149 0
109 147 0
108 147 0
111 148 0
113 150 0
108 146 0
108 147 0
110 148 0
110 148 0
106 145 0
112 149 0
107 146 0
110 148 0
108 146 0
108 147 0
109 147 0
114 150 0
109 147 0
116 151 0
111 148 0
111 148 0
111 149 0
115 150 0
107 146 0
104 144 0
115 151 0
111 148 0
113 149 0
109 147 0
112 149 0
111 149 0
105 144 0
108 147 0
111 148 0
115 151 0
106 145 0
111 148 0
112 149 0
115 151 0
109 147 0
110 148 0
116 151 0
119 153 0
106 145 0
120 154 0
108 147 0
110 148 0
112 149 0
111 148 0
112 149 0
113 149 0
109 147 0
111 148 0
113 150 0
116 151 0
110 148 0
112 149 0
111 149 0
112 149 0
113 149 0
107 146 0
108 147 0
115 151 0
114 150 0
116 151 0
116 151 0
114 150 0
114 150 0
114 150 0
113 149 0
111 148 0
114 150 0
120 154 0
115 151 0
107 146 0
116 151 0
114 150 0
118 152 0
115 151 0
119 153 0
113 150 0
118 152 0
117 152 0
118 152 0
118 152 0
111 148 0
107 146 0
115 151 0
121 154 0
116 151 0
107 146 0
127 158 0
121 154 0
113 150 0
112 149 0
109 147 0
110 148 0
112 149 0
114 150 0
122 155 0
114 150 0
119 153 0
123 156 0
115 151 0
124 156 0
114 150 0
118 153 0
112 149 0
115 151 0
121 154 0
111 148 0
120 154 0
118 152 0
119 153 0
120 154 0
119 153 0
125 156 0
121 154 0
119 153 0
115 150 0
113 150 0
122 155 0
116 151 0
116 151 0
116 152 0
118 153 0
112 149 0
117 152 0
116 152 0
125 157 0
115 151 0
118 153 0
117 152 0
115 151 0
123 155 0
120 154 0
114 150 0
125 157 0
124 156 0
125 157 0
114 150 0
121 154 0
115 150 0
117 152 0
118 153 0
123 155 0
114 150 0
113 150 0
115 150 0
113 149 0
119 153 0
120 154 0
118 153 0
111 149 0
119 153 0
115 151 0
123 155 0
118 152 0
115 151 0
112 149 0
118 152 0
115 150 0
124 156 0
114 150 0
108 147 0
114 150 0
113 149 0
121 154 0
121 154 0
123 156 0
117 152 0
122 155 0
119 153 0
114 150 0
123 156 0
119 153 0
124 156 0
122 155 0
118 153 0
114 150 0
118 152 0
112 149 0
119 153 0
121 154 0
116 151 0
115 151 0
115 151 0
117 152 0
119 153 0
113 149 0
120 154 0
113 149 0
118 153 0
119 153 0
117 152 0
115 151 0
120 154 0
119 153 0
113 149 0
117 152 0
113 149 0
119 153 0
113 150 0
116 151 0
116 151 0
115 151 0
116 151 0
113 150 0
124 156 0
116 151 0
115 151 0
116 152 0
117 152 0
117 152 0
113 150 0
118 153 0
110 148 0
112 149 0
116 152 0
121 154 0
113 150 0
114 150 0
112 149 0
121 154 0
114 150 0
115 151 0
111 148 0
110 148 0
116 151 0
120 153 0
112 149 0
117 152 0
113 150 0
113 150 0
114 150 0
117 152 0
113 150 0
112 149 0
110 148 0
112 149 0
116 152 0
112 149 0
113 150 0
111 148 0
115 151 0
114 150 0
115 151 0
111 148 0
115 151 0
120 154 0
112 149 0
113 149 0
113 149 0
113 149 0
116 151 0
107 146 0
106 145 0
104 144 0
104 144 0
103 144 0
104 144 0
104 144 0
104 144 0
103 144 0
106 145 0
109 147 0
105 145 0
105 145 0
107 146 0
107 146 0
105 145 0
107 146 0
105 145 0
104 144 0
104 144 0
103 144 0
105 145 0
105 145 0
105 145 0
107 146 0
107 146 0
104 144 0
106 145 0
105 144 0
103 144 0
102 143 0
106 145 0
105 145 0
104 144 0
104 144 0
104 144 0
107 146 0
103 144 0
104 144 0
103 144 0
104 144 0
103 143 0
108 147 0
106 146 0
109 147 0
104 144 0
108 146 0
106 145 0
106 145 0
104 144 0
104 144 0
104 144 0
104 144 0
106 145 0
107 146 0
103 144 0
105 145 0
106 145 0
106 145 0
104 144 0
106 145 0
103 143 0
107 146 0
107 146 0
104 144 0
105 145 0
103 143 0
104 144 0
106 146 0
103 144 0
105 145 0
105 145 0
105 145 0
104 144 0
105 145 0
103 144 0
104 144 0
104 144 0
106 146 0
105 144 0
104 144 0
108 147 0
104 144 0
107 146 0
106 145 0
104 144 0
106 145 0
110 148 0
107 146 0
104 144 0
104 144 0
106 145 0
106 145 0
105 145 0
105 145 0
108 147 0
105 145 0
105 144 0
104 144 0
106 145 0
105 145 0
107 146 0
103 143 0
106 145 0
108 146 0
106 145 0
104 144 0
103 144 0
103 143 0
106 145 0
106 145 0
105 145 0
108 146 0
103 144 0
110 148 0
108 146 0
105 145 0
106 145 0
106 145 0
104 144 0
105 145 0
105 145 0
105 145 0
108 146 0
106 145 0
105 145 0
104 144 0
110 147 0
109 147 0
106 145 0
106 145 0
105 145 0
106 145 0
99 136 0
105 145 0
107 146 0
107 146 0
110 148 0
109 147 0
110 148 0
106 145 0
116 151 0
109 147 0
110 148 0
105 145 0
105 145 0
111 149 0
109 147 0
108 146 0
114 150 0
112 149 0
110 148 0
111 148 0
106 145 0
110 148 0
106 146 0
106 145 0
105 145 0
118 152 0
110 148 0
109 147 0
110 147 0
110 148 0
109 147 0
108 147 0
114 150 0
111 148 0
107 146 0
109 147 0
107 146 0
115 151 0
113 150 0
113 149 0
110 148 0
109 147 0
111 148 0
117 152 0
121 154 0
113 149 0
109 147 0
118 153 0
107 146 0
115 151 0
116 151 0
108 146 0
115 151 0
109 147 0
109 147 0
110 148 0
108 146 0
112 149 0
113 149 0
106 145 0
112 149 0
112 149 0
124 156 0
109 147 0
114 150 0
114 150 0
110 148 0
111 148 0
121 154 0
109 147 0
113 149 0
118 152 0
111 148 0
115 151 0
118 152 0
114 150 0
122 155 0
114 150 0
113 149 0
120 153 0
122 155 0
119 153 0
116 151 0
112 149 0
118 153 0
119 153 0
111 149 0
118 153 0
112 149 0
113 150 0
124 156 0
119 153 0
115 151 0
118 152 0
118 152 0
113 149 0
112 149 0
115 151 0
125 157 0
112 149 0
111 148 0
116 151 0
112 149 0
118 153 0
114 150 0
111 149 0
115 150 0
120 154 0
124 156 0
113 149 0
124 156 0
114 150 0
116 151 0
114 150 0
119 153 0
108 147 0
114 150 0
112 149 0
115 151 0
117 152 0
114 150 0
118 152 0
122 155 0
117 152 0
117 152 0
119 153 0
111 148 0
122 155 0
109 147 0
118 153 0
119 153 0
119 153 0
120 154 0
118 152 0
110 148 0
108 147 0
121 154 0
125 157 0
117 152 0
111 149 0
118 153 0
118 152 0
113 149 0
111 148 0
114 150 0
116 151 0
116 151 0
118 152 0
121 154 0
113 149 0
119 153 0
116 151 0
112 149 0
114 150 0
114 150 0
121 155 0
112 149 0
118 152 0
123 156 0
121 155 0
115 151 0
122 155 0
112 149 0
116 151 0
112 149 0
116 152 0
121 154 0
117 152 0
113 150 0
120 154 0
121 154 0
113 150 0
122 155 0
113 150 0
118 152 0
121 154 0
115 151 0
119 153 0
116 152 0
114 150 0
123 156 0
121 154 0
112 149 0
115 151 0
117 152 0
114 150 0
115 150 0
115 151 0
120 153 0
111 148 0
122 155 0
119 153 0
117 152 0
110 148 0
116 151 0
114 150 0
124 156 0
112 149 0
121 154 0
115 151 0
113 150 0
114 150 0
124 156 0
122 155 0
113 150 0
115 151 0
112 149 0
118 153 0
112 149 0
115 151 0
123 156 0
116 151 0
113 150 0
114 150 0
121 155 0
118 153 0
120 154 0
114 150 0
111 148 0
113 150 0
116 152 0
113 149 0
117 152 0
118 153 0
116 152 0
117 152 0
115 151 0
112 149 0
110 148 0
119 153 0
111 148 0
119 153 0
119 153 0
112 149 0
118 153 0
114 150 0
113 150 0
113 150 0
108 147 0
116 151 0
116 152 0
116 151 0
115 151 0
112 149 0
117 152 0
116 151 0
117 152 0
115 151 0
116 152 0
114 150 0
112 149 0
116 151 0
124 156 0
123 156 0
115 151 0
112 149 0
112 149 0
122 155 0
116 151 0
113 150 0
116 151 0
113 150 0
108 147 0
117 152 0
112 149 0
109 147 0
113 150 0
106 145 0
104 144 0
106 145 0
103 144 0
104 144 0
104 144 0
104 144 0
104 144 0
106 145 0
106 145 0
105 145 0
104 144 0
108 146 0
103 144 0
104 144 0
109 147 0
105 145 0
106 145 0
104 144 0
105 144 0
105 145 0
104 144 0
107 146 0
107 146 0
102 143 0
103 144 0
105 145 0
107 146 0
105 145 0
104 144 0
103 143 0
104 144 0
105 145 0
103 143 0
108 147 0
103 144 0
104 144 0
103 144 0
103 144 0
103 144 0
105 145 0
105 145 0
105 145 0
106 145 0
103 144 0
104 144 0
106 145 0
108 147 0
106 145 0
104 144 0
103 144 0
104 144 0
104 144 0
105 145 0
103 144 0
106 145 0
105 145 0
105 145 0
106 145 0
105 145 0
104 144 0
103 143 0
105 145 0
103 144 0
104 144 0
104 144 0
105 145 0
105 144 0
104 144 0
107 146 0
105 144 0
104 144 0
104 144 0
105 145 0
103 144 0
105 145 0
106 145 0
105 145 0
107 146 0
105 144 0
104 144 0
104 144 0
105 145 0
104 144 0
106 145 0
104 144 0
103 144 0
103 143 0
109 147 0
104 144 0
103 144 0
107 146 0
103 144 0
105 145 0
105 145 0
107 146 0
107 146 0
104 144 0
105 145 0
104 144 0
104 144 0
109 147 0
104 144 0
107 146 0
106 145 0
107 146 0
104 144 0
107 146 0
107 146 0
104 144 0
105 145 0
107 146 0
107 146 0
108 146 0
103 143 0
102 143 0
107 146 0
105 145 0
105 145 0
103 143 0
108 147 0
108 146 0
107 146 0
103 143 0
105 145 0
106 145 0
105 145 0
109 147 0
107 146 0
106 145 0
108 146 0
110 148 0
108 147 0
108 146 0
110 147 0
111 148 0
112 149 0
107 146 0
107 146 0
114 150 0
109 147 0
104 144 0
108 147 0
107 146 0
103 144 0
107 146 0
113 150 0
112 149 0
111 148 0
109 147 0
107 146 0
111 148 0
110 148 0
105 145 0
113 149 0
111 148 0
108 141 0
108 147 0
110 148 0
109 147 0
110 148 0
111 148 0
107 146 0
109 147 0
110 148 0
115 151 0
110 148 0
111 148 0
116 152 0
116 151 0
117 152 0
109 147 0
121 154 0
114 150 0
111 148 0
118 152 0
109 147 0
104 144 0
114 150 0
113 149 0
113 149 0
112 149 0
110 148 0
108 146 0
109 147 0
107 146 0
113 150 0
109 147 0
115 151 0
120 154 0
118 153 0
112 149 0
106 146 0
115 151 0
126 157 0
109 147 0
110 148 0
117 152 0
117 152 0
111 148 0
116 151 0
109 147 0
125 157 0
127 158 0
116 151 0
105 145 0
109 147 0
106 146 0
115 151 0
109 147 0
116 151 0
109 147 0
114 150 0
121 154 0
120 154 0
111 149 0
121 154 0
121 154 0
112 149 0
116 151 0
112 149 0
121 154 0
121 154 0
112 149 0
117 152 0
111 149 0
113 149 0
112 149 0
119 153 0
109 147 0
118 153 0
120 154 0
116 151 0
113 149 0
118 152 0
118 152 0
116 151 0
113 149 0
123 155 0
114 150 0
112 149 0
113 149 0
126 157 0
115 151 0
122 155 0
112 149 0
113 150 0
123 156 0
120 154 0
114 150 0
113 149 0
109 147 0
124 156 0
112 149 0
113 149 0
115 151 0
115 151 0
119 153 0
119 153 0
114 150 0
115 151 0
111 148 0
116 152 0
120 154 0
119 153 0
107 146 0
117 152 0
118 153 0
115 151 0
119 153 0
110 147 0
117 152 0
122 155 0
115 150 0
114 150 0
118 152 0
115 151 0
116 151 0
125 157 0
121 154 0
116 151 0
115 151 0
113 150 0
116 151 0
123 156 0
112 149 0
124 156 0
127 158 0
114 150 0
118 153 0
115 150 0
113 150 0
119 153 0
119 153 0
115 150 0
117 152 0
119 153 0
116 152 0
121 155 0
125 157 0
114 150 0
122 155 0
118 152 0
113 150 0
114 150 0
120 154 0
109 147 0
114 150 0
116 151 0
118 152 0
124 156 0
125 157 0
115 151 0
115 151 0
115 151 0
118 153 0
122 155 0
123 155 0
113 150 0
121 155 0
121 155 0
117 152 0
114 150 0
114 150 0
119 153 0
114 150 0
126 158 0
113 149 0
111 149 0
115 150 0
116 151 0
113 149 0
119 153 0
114 150 0
122 155 0
114 150 0
116 151 0
120 154 0
113 149 0
125 157 0
115 151 0
112 149 0
114 150 0
114 150 0
116 152 0
124 156 0
112 149 0
123 156 0
115 151 0
116 151 0
116 151 0
120 154 0
121 154 0
117 152 0
108 147 0
115 151 0
111 148 0
119 153 0
112 149 0
117 152 0
119 153 0
114 150 0
112 149 0
118 152 0
112 149 0
117 152 0
122 155 0
116 151 0
116 151 0
113 150 0
123 156 0
119 153 0
113 149 0
111 148 0
118 153 0
112 149 0
117 152 0
117 152 0
118 153 0
120 153 0
117 152 0
117 152 0
114 150 0
117 152 0
113 149 0
113 149 0
118 152 0
114 150 0
118 153 0
112 149 0
113 150 0
113 150 0
118 153 0
121 154 0
113 149 0
118 152 0
122 155 0
115 151 0
109 147 0
121 154 0
106 145 0
105 145 0
104 144 0
109 147 0
106 145 0
105 145 0
108 146 0
104 144 0
104 144 0
104 144 0
107 146 0
106 146 0
108 146 0
104 144 0
106 145 0
105 144 0
102 143 0
106 145 0
104 144 0
105 145 0
110 147 0
104 144 0
104 144 0
105 145 0
104 144 0
110 148 0
104 144 0
107 146 0
107 146 0
104 144 0
105 145 0
104 144 0
106 145 0
103 144 0
103 144 0
103 144 0
106 145 0
104 144 0
106 145 0
106 145 0
104 144 0
104 144 0
109 147 0
104 144 0
104 144 0
104 144 0
105 145 0
108 147 0
106 145 0
106 145 0
105 145 0
106 145 0
106 145 0
103 143 0
104 144 0
106 146 0
105 145 0
105 145 0
106 145 0
105 145 0
105 145 0
105 145 0
104 144 0
103 144 0
105 144 0
106 146 0
104 144 0
105 145 0
104 144 0
106 145 0
108 146 0
104 144 0
104 144 0
104 144 0
104 144 0
103 143 0
105 145 0
104 144 0
105 145 0
104 144 0
105 145 0
106 145 0
104 144 0
104 144 0
106 145 0
105 145 0
104 144 0
105 145 0
106 145 0
106 145 0
103 144 0
109 147 0
107 146 0
106 145 0
106 145 0
108 146 0
109 147 0
103 144 0
104 144 0
104 144 0
105 145 0
104 144 0
105 145 0
108 147 0
105 145 0
109 147 0
106 145 0
106 145 0
107 146 0
107 146 0
107 146 0
106 146 0
107 146 0
105 145 0
108 146 0
108 147 0
108 147 0
104 144 0
108 147 0
106 146 0
106 145 0
107 146 0
106 145 0
106 146 0
107 146 0
105 145 0
107 146 0
109 147 0
114 150 0
104 144 0
108 147 0
104 144 0
111 148 0
107 146 0
106 145 0
105 145 0
104 144 0
109 147 0
108 147 0
112 149 0
106 145 0
108 146 0
108 146 0
111 148 0
109 147 0
108 146 0
109 147 0
106 145 0
110 148 0
109 147 0
114 150 0
106 145 0
107 146 0
104 139 0
112 149 0
118 153 0
106 146 0
108 146 0
110 148 0
109 147 0
112 149 0
108 146 0
106 145 0
106 145 0
108 146 0
108 147 0
114 150 0
111 148 0
114 150 0
110 148 0
119 153 0
105 139 0
109 147 0
117 152 0
109 147 0
109 147 0
110 148 0
113 150 0
111 148 0
113 150 0
116 151 0
112 149 0
116 151 0
109 147 0
109 147 0
113 149 0
119 153 0
109 147 0
115 151 0
114 150 0
112 149 0
112 149 0
107 146 0
117 152 0
120 154 0
111 148 0
115 151 0
120 154 0
110 148 0
110 148 0
119 153 0
106 145 0
106 145 0
108 146 0
118 152 0
115 150 0
118 153 0
113 150 0
118 152 0
108 147 0
115 151 0
115 151 0
115 151 0
124 156 0
108 147 0
114 150 0
118 153 0
116 152 0
114 150 0
118 153 0
109 147 0
119 153 0
121 154 0
126 157 0
112 149 0
113 150 0
121 154 0
123 155 0
114 150 0
114 150 0
122 155 0
114 150 0
117 152 0
119 153 0
116 151 0
121 154 0
122 155 0
117 152 0
122 155 0
116 151 0
114 150 0
124 156 0
116 151 0
117 152 0
127 158 0
127 158 0
119 153 0
113 149 0
126 157 0
117 152 0
118 153 0
120 154 0
112 149 0
117 152 0
112 149 0
119 153 0
120 154 0
120 154 0
118 152 0
119 153 0
122 155 0
116 151 0
121 154 0
122 155 0
119 153 0
123 155 0
119 153 0
116 151 0
119 153 0
122 155 0
121 154 0
115 151 0
116 151 0
122 155 0
118 152 0
116 151 0
118 152 0
117 152 0
117 152 0
122 155 0
122 155 0
117 152 0
120 154 0
117 152 0
111 148 0
117 152 0
115 151 0
122 155 0
114 150 0
117 152 0
115 151 0
118 153 0
126 157 0
119 153 0
120 153 0
119 153 0
117 152 0
115 151 0
116 151 0
115 150 0
114 150 0
113 150 0
121 154 0
122 155 0
116 152 0
116 152 0
118 152 0
118 153 0
115 151 0
120 154 0
112 149 0
113 149 0
113 150 0
118 153 0
114 150 0
116 151 0
112 149 0
122 155 0
119 153 0
115 151 0
115 150 0
113 149 0
117 152 0
116 151 0
113 149 0
116 151 0
117 152 0
113 150 0
115 151 0
114 150 0
112 149 0
114 150 0
119 153 0
121 155 0
122 155 0
117 152 0
121 154 0
111 148 0
113 150 0
118 153 0
115 151 0
121 154 0
118 152 0
116 152 0
117 152 0
112 149 0
120 154 0
118 153 0
117 152 0
117 152 0
111 148 0
116 151 0
124 156 0
116 152 0
125 157 0
114 150 0
115 151 0
115 151 0
114 150 0
123 155 0
113 149 0
112 149 0
117 152 0
115 151 0
115 151 0
119 153 0
116 152 0
116 151 0
112 149 0
116 151 0
120 154 0
120 154 0
113 150 0
113 149 0
112 149 0
120 154 0
114 150 0
122 155 0
120 154 0
116 151 0
114 150 0
113 150 0
117 152 0
113 149 0
113 149 0
118 152 0
117 152 0
118 153 0
112 149 0
114 150 0
112 149 0
118 152 0
114 150 0
112 149 0
119 153 0
115 151 0
121 154 0
116 151 0
115 151 0
117 152 0
106 145 0
106 145 0
103 144 0
107 146 0
105 144 0
106 145 0
105 145 0
102 143 0
107 146 0
107 146 0
107 146 0
105 145 0
104 144 0
105 145 0
104 144 0
104 144 0
105 145 0
108 146 0
104 144 0
104 144 0
107 146 0
105 145 0
104 144 0
103 144 0
105 144 0
107 146 0
105 145 0
106 145 0
107 146 0
104 144 0
109 147 0
106 145 0
106 145 0
106 145 0
109 147 0
107 146 0
105 145 0
105 145 0
104 144 0
106 145 0
105 145 0
104 144 0
104 144 0
103 143 0
106 145 0
103 144 0
103 144 0
106 146 0
103 144 0
106 145 0
108 146 0
106 145 0
107 146 0
107 146 0
107 146 0
107 146 0
105 145 0
106 145 0
105 145 0
104 144 0
104 144 0
103 144 0
108 147 0
103 144 0
106 145 0
106 145 0
105 145 0
105 145 0
106 145 0
105 145 0
103 143 0
105 145 0
105 144 0
103 144 0
104 144 0
105 145 0
106 145 0
110 148 0
105 145 0
104 144 0
104 144 0
104 144 0
106 145 0
105 145 0
103 143 0
104 144 0
105 145 0
104 144 0
106 145 0
105 145 0
107 146 0
103 144 0
105 145 0
105 145 0
104 144 0
113 150 0
105 145 0
107 146 0
107 146 0
103 143 0
107 146 0
107 146 0
104 144 0
99 136 0
107 146 0
108 147 0
104 144 0
105 145 0
112 149 0
105 145 0
108 146 0
107 146 0
98 135 0
115 150 0
106 145 0
105 144 0
106 145 0
105 145 0
105 144 0
106 146 0
110 148 0
108 146 0
110 148 0
110 148 0
107 146 0
108 147 0
104 144 0
111 148 0
107 146 0
104 144 0
112 149 0
108 146 0
110 148 0
108 146 0
104 144 0
108 147 0
104 144 0
104 144 0
106 146 0
109 147 0
108 147 0
105 145 0
111 148 0
117 152 0
106 145 0
104 144 0
110 147 0
104 144 0
113 150 0
108 146 0
111 148 0
110 148 0
105 145 0
116 152 0
107 146 0
111 148 0
111 148 0
108 147 0
108 147 0
114 150 0
109 147 0
111 149 0
118 152 0
121 154 0
107 146 0
109 147 0
113 149 0
99 135 0
115 150 0
113 150 0
111 148 0
109 147 0
114 150 0
108 147 0
111 148 0
111 148 0
111 149 0
122 155 0
115 151 0
119 153 0
114 150 0
104 144 0
117 152 0
113 150 0
118 152 0
118 153 0
116 151 0
110 148 0
111 149 0
114 150 0
109 147 0
112 149 0
117 152 0
116 151 0
108 147 0
129 159 0
113 149 0
111 148 0
117 152 0
121 154 0
119 153 0
107 146 0
115 151 0
116 151 0
119 153 0
111 148 0
123 155 0
120 154 0
122 155 0
110 148 0
118 152 0
115 150 0
114 150 0
111 148 0
111 148 0
123 155 0
117 152 0
116 151 0
114 150 0
112 149 0
111 148 0
123 155 0
114 150 0
113 150 0
112 149 0
116 151 0
123 155 0
123 156 0
115 151 0
124 156 0
112 149 0
121 154 0
127 158 0
126 158 0
121 154 0
116 151 0
125 157 0
116 152 0
121 154 0
112 149 0
123 155 0
115 151 0
122 155 0
113 150 0
110 148 0
112 149 0
123 156 0
116 151 0
113 149 0
118 152 0
126 157 0
129 159 0
127 158 0
119 153 0
126 157 0
121 154 0
123 155 0
115 151 0
114 150 0
125 157 0
121 154 0
122 155 0
112 149 0
123 155 0
118 153 0
112 149 0
122 155 0
113 149 0
120 153 0
125 157 0
120 154 0
118 152 0
114 150 0
121 154 0
117 152 0
114 150 0
127 158 0
113 149 0
119 153 0
119 153 0
127 158 0
117 152 0
126 157 0
121 154 0
119 153 0
119 153 0
122 155 0
121 154 0
117 152 0
118 153 0
113 150 0
120 154 0
114 150 0
120 154 0
112 149 0
116 152 0
114 150 0
113 149 0
118 153 0
117 152 0
117 152 0
117 152 0
122 155 0
113 150 0
114 150 0
118 153 0
119 153 0
117 152 0
114 150 0
121 154 0
118 153 0
122 155 0
116 152 0
114 150 0
120 154 0
123 155 0
116 152 0
120 154 0
114 150 0
118 153 0
122 155 0
123 156 0
117 152 0
117 152 0
116 151 0
122 155 0
114 150 0
122 155 0
119 153 0
113 150 0
112 149 0
117 152 0
115 151 0
115 151 0
123 156 0
118 153 0
110 148 0
116 151 0
117 152 0
119 153 0
112 149 0
120 153 0
115 151 0
112 149 0
108 147 0
113 150 0
116 151 0
115 151 0
112 149 0
120 154 0
114 150 0
118 152 0
118 152 0
114 150 0
124 156 0
122 155 0
113 149 0
118 152 0
109 147 0
116 151 0
122 155 0
111 148 0
111 148 0
116 151 0
120 154 0
116 151 0
114 150 0
123 155 0
117 152 0
115 151 0
113 149 0
109 147 0
115 151 0
112 149 0
112 149 0
120 154 0
114 150 0
116 151 0
116 151 0
115 151 0
117 152 0
112 149 0
113 149 0
117 152 0
114 150 0
112 149 0
114 150 0
117 152 0
114 150 0
112 149 0
117 152 0
116 151 0
110 148 0
112 149 0
112 149 0
115 151 0
112 149 0
117 152 0
117 152 0
119 153 0
106 145 0
105 145 0
105 145 0
107 146 0
106 145 0
103 144 0
108 146 0
105 145 0
106 145 0
103 144 0
106 145 0
110 148 0
106 145 0
105 145 0
106 145 0
104 144 0
109 147 0
104 144 0
104 144 0
106 145 0
104 144 0
104 144 0
103 144 0
105 145 0
106 145 0
104 144 0
107 146 0
104 144 0
103 144 0
105 145 0
104 144 0
104 144 0
104 144 0
104 144 0
103 143 0
104 144 0
110 147 0
103 144 0
105 144 0
103 144 0
104 144 0
107 146 0
104 144 0
104 144 0
105 145 0
104 144 0
106 146 0
105 145 0
106 146 0
105 145 0
106 145 0
108 146 0
106 145 0
105 144 0
104 144 0
104 144 0
106 145 0
106 145 0
107 146 0
107 146 0
105 145 0
103 144 0
105 145 0
105 145 0
104 144 0
107 146 0
107 146 0
109 147 0
106 145 0
104 144 0
103 143 0
107 146 0
105 145 0
105 145 0
105 145 0
105 145 0
104 144 0
105 144 0
104 144 0
104 144 0
103 144 0
106 145 0
108 146 0
108 147 0
110 148 0
107 146 0
106 145 0
104 144 0
108 147 0
103 143 0
108 146 0
105 145 0
104 144 0
107 146 0
106 145 0
105 145 0
104 144 0
106 145 0
107 146 0
106 146 0
105 145 0
105 145 0
106 145 0
106 145 0
105 145 0
105 145 0
106 145 0
106 145 0
99 136 0
105 145 0
109 147 0
107 146 0
109 147 0
108 146 0
103 143 0
107 146 0
104 144 0
104 144 0
107 146 0
110 148 0
106 146 0
105 145 0
105 145 0
108 147 0
103 144 0
104 144 0
113 149 0
105 144 0
105 145 0
109 147 0
107 146 0
104 144 0
111 149 0
112 149 0
111 148 0
104 144 0
109 147 0
107 146 0
104 144 0
109 147 0
105 145 0
107 140 0
109 147 0
112 149 0
109 147 0
105 145 0
110 148 0
106 145 0
113 150 0
114 150 0
111 148 0
111 149 0
109 147 0
116 152 0
109 147 0
108 146 0
112 149 0
118 152 0
111 149 0
105 144 0
107 146 0
111 148 0
116 151 0
116 151 0
113 150 0
114 150 0
117 152 0
111 148 0
106 145 0
109 147 0
109 147 0
112 149 0
115 151 0
107 146 0
113 150 0
111 148 0
108 147 0
111 149 0
116 151 0
110 148 0
118 152 0
116 151 0
108 146 0
109 147 0
108 146 0
107 146 0
107 146 0
113 150 0
116 151 0
120 154 0
115 151 0
116 151 0
120 154 0
121 154 0
117 152 0
116 152 0
113 150 0
110 148 0
108 146 0
122 155 0
116 152 0
113 149 0
121 154 0
117 152 0
126 158 0
119 153 0
119 153 0
126 157 0
120 153 0
117 152 0
115 151 0
117 152 0
120 154 0
114 150 0
119 153 0
117 152 0
116 152 0
120 154 0
114 150 0
126 157 0
121 154 0
115 151 0
121 154 0
121 154 0
111 148 0
116 151 0
110 148 0
119 153 0
109 147 0
115 150 0
121 154 0
129 159 0
119 153 0
127 158 0
130 160 0
118 153 0
115 151 0
120 154 0
122 155 0
124 156 0
109 147 0
121 154 0
115 151 0
125 157 0
113 150 0
124 156 0
123 156 0
125 157 0
119 153 0
111 148 0
116 151 0
113 150 0
113 149 0
121 155 0
117 152 0
118 153 0
112 149 0
121 154 0
119 153 0
120 154 0
124 156 0
117 152 0
130 160 0
122 155 0
119 153 0
116 151 0
122 155 0
121 154 0
125 157 0
121 154 0
117 152 0
118 153 0
120 154 0
119 153 0
120 153 0
112 149 0
121 154 0
116 152 0
119 153 0
119 153 0
112 149 0
116 151 0
118 153 0
120 154 0
122 155 0
121 154 0
120 154 0
117 152 0
119 153 0
124 156 0
117 152 0
120 154 0
117 152 0
111 148 0
115 151 0
118 152 0
117 152 0
123 156 0
118 152 0
116 152 0
126 157 0
120 154 0
119 153 0
116 151 0
116 151 0
116 151 0
125 157 0
115 151 0
119 153 0
118 152 0
119 153 0
109 147 0
118 152 0
111 148 0
124 156 0
117 152 0
118 153 0
119 153 0
117 152 0
111 149 0
118 152 0
118 153 0
119 153 0
111 149 0
119 153 0
117 152 0
114 150 0
113 149 0
117 152 0
118 152 0
115 151 0
120 154 0
120 154 0
115 151 0
122 155 0
120 153 0
113 150 0
120 154 0
115 151 0
122 155 0
115 151 0
115 151 0
115 151 0
117 152 0
116 151 0
118 152 0
112 149 0
120 154 0
111 149 0
117 152 0
117 152 0
117 152 0
115 151 0
116 151 0
114 150 0
121 154 0
123 155 0
115 151 0
117 152 0
116 152 0
117 152 0
123 156 0
117 152 0
118 153 0
116 151 0
113 150 0
114 150 0
116 151 0
117 152 0
116 151 0
122 155 0
113 150 0
126 157 0
117 152 0
115 151 0
112 149 0
123 156 0
111 148 0
117 152 0
121 154 0
117 152 0
114 150 0
122 155 0
120 154 0
114 150 0
117 152 0
120 153 0
118 152 0
112 149 0
112 149 0
118 153 0
116 151 0
114 150 0
119 153 0
111 149 0
120 154 0
120 153 0
119 153 0
115 151 0
120 154 0
103 144 0
105 145 0
104 144 0
109 147 0
102 143 0
106 145 0
109 147 0
103 144 0
103 143 0
104 144 0
106 145 0
106 145 0
104 144 0
105 145 0
105 145 0
105 145 0
104 144 0
105 145 0
103 143 0
108 147 0
105 145 0
103 144 0
106 145 0
103 143 0
103 143 0
104 144 0
104 144 0
107 146 0
105 144 0
106 145 0
105 145 0
105 145 0
108 147 0
104 144 0
105 145 0
106 145 0
106 145 0
104 144 0
107 146 0
105 145 0
104 144 0
107 146 0
105 145 0
103 143 0
104 144 0
107 146 0
107 146 0
108 146 0
106 145 0
103 144 0
105 144 0
106 145 0
104 144 0
106 145 0
108 146 0
105 145 0
104 144 0
103 143 0
103 143 0
110 147 0
104 144 0
103 143 0
105 145 0
106 145 0
105 144 0
108 146 0
104 144 0
107 146 0
107 146 0
104 144 0
105 145 0
105 145 0
104 144 0
105 145 0
107 146 0
104 144 0
104 144 0
106 145 0
105 145 0
107 146 0
105 145 0
107 146 0
105 145 0
105 145 0
108 147 0
105 145 0
106 145 0
105 145 0
105 145 0
103 144 0
109 147 0
104 144 0
103 144 0
105 145 0
105 145 0
106 146 0
103 144 0
105 145 0
103 144 0
99 135 0
108 147 0
107 146 0
103 144 0
107 146 0
103 144 0
103 144 0
105 144 0
103 144 0
105 145 0
110 148 0
104 144 0
104 144 0
107 146 0
105 145 0
106 146 0
104 144 0
106 145 0
97 135 0
112 149 0
107 146 0
108 146 0
113 150 0
107 146 0
113 149 0
106 145 0
114 150 0
104 144 0
105 145 0
109 147 0
114 150 0
104 144 0
108 147 0
108 147 0
108 147 0
106 146 0
113 149 0
106 145 0
104 144 0
112 149 0
110 147 0
106 145 0
108 147 0
108 147 0
100 136 0
108 147 0
106 145 0
112 149 0
105 145 0
106 145 0
112 149 0
112 149 0
108 147 0
112 149 0
100 136 0
108 147 0
110 148 0
111 148 0
108 147 0
111 148 0
97 134 0
105 145 0
110 148 0
109 147 0
116 151 0
102 137 0
114 150 0
113 150 0
115 151 0
115 151 0
115 151 0
112 149 0
116 152 0
115 151 0
111 148 0
110 148 0
113 149 0
117 152 0
113 150 0
110 147 0
113 150 0
105 145 0
117 152 0
113 150 0
112 149 0
113 150 0
109 147 0
115 150 0
108 146 0
104 144 0
129 159 0
107 146 0
116 152 0
111 148 0
114 150 0
112 149 0
118 152 0
118 153 0
117 152 0
118 152 0
114 150 0
110 148 0
112 149 0
116 151 0
122 155 0
115 151 0
116 151 0
121 155 0
117 152 0
116 151 0
116 152 0
115 151 0
114 150 0
124 156 0
110 148 0
114 150 0
114 150 0
108 147 0
114 150 0
120 154 0
119 153 0
119 153 0
122 155 0
125 157 0
115 151 0
126 157 0
109 147 0
111 148 0
113 150 0
122 155 0
120 154 0
128 159 0
128 158 0
123 156 0
126 157 0
112 149 0
118 153 0
125 157 0
114 150 0
116 151 0
121 154 0
118 153 0
124 156 0
117 152 0
128 159 0
111 148 0
111 148 0
117 152 0
125 157 0
121 154 0
124 156 0
127 158 0
120 154 0
118 153 0
123 155 0
126 157 0
116 152 0
122 155 0
125 157 0
119 153 0
120 154 0
121 155 0
124 156 0
125 157 0
111 148 0
123 156 0
119 153 0
111 149 0
117 152 0
123 156 0
124 156 0
119 153 0
121 154 0
117 152 0
116 151 0
119 153 0
123 156 0
119 153 0
122 155 0
118 152 0
120 154 0
118 153 0
116 151 0
122 155 0
111 149 0
119 153 0
120 154 0
117 152 0
115 151 0
115 151 0
112 149 0
126 157 0
124 156 0
114 150 0
121 154 0
124 156 0
119 153 0
114 150 0
116 151 0
111 149 0
114 150 0
124 156 0
121 154 0
116 151 0
120 154 0
113 149 0
119 153 0
116 151 0
116 151 0
119 153 0
115 151 0
117 152 0
114 150 0
117 152 0
119 153 0
111 148 0
121 154 0
120 153 0
122 155 0
112 149 0
117 152 0
115 151 0
116 151 0
117 152 0
118 153 0
116 151 0
112 149 0
113 150 0
123 155 0
113 150 0
122 155 0
121 154 0
119 153 0
115 151 0
125 157 0
115 151 0
121 154 0
120 154 0
117 152 0
119 153 0
111 149 0
121 154 0
123 156 0
120 154 0
121 154 0
111 149 0
117 152 0
115 150 0
115 151 0
120 154 0
118 152 0
116 151 0
119 153 0
121 154 0
118 153 0
117 152 0
123 156 0
118 152 0
115 151 0
117 152 0
109 147 0
117 152 0
110 148 0
121 154 0
122 155 0
117 152 0
117 152 0
113 150 0
112 149 0
112 149 0
113 149 0
113 149 0
119 153 0
118 153 0
117 152 0
111 148 0
118 152 0
121 154 0
122 155 0
116 151 0
114 150 0
116 151 0
120 154 0
120 154 0
120 154 0
112 149 0
119 153 0
115 151 0
117 152 0
112 149 0
118 152 0
118 153 0
112 149 0
114 150 0
118 152 0
116 151 0
115 151 0
112 149 0
116 152 0
113 149 0
120 154 0
107 146 0
105 145 0
106 145 0
105 145 0
107 146 0
106 145 0
104 144 0
104 144 0
105 145 0
108 146 0
105 145 0
103 143 0
106 145 0
104 144 0
109 147 0
106 145 0
106 145 0
105 145 0
106 145 0
108 146 0
104 144 0
104 144 0
105 145 0
107 146 0
104 144 0
106 145 0
105 145 0
105 145 0
103 144 0
104 144 0
104 144 0
107 146 0
105 145 0
103 144 0
103 144 0
104 144 0
105 145 0
106 145 0
104 144 0
111 148 0
102 143 0
104 144 0
103 143 0
106 145 0
103 144 0
106 146 0
108 146 0
108 147 0
105 145 0
108 147 0
109 147 0
105 144 0
105 145 0
107 146 0
106 145 0
106 145 0
104 144 0
106 145 0
105 145 0
108 146 0
105 145 0
103 144 0
106 145 0
106 145 0
108 146 0
106 146 0
107 146 0
107 146 0
104 144 0
104 144 0
104 144 0
105 144 0
104 144 0
104 144 0
105 145 0
108 146 0
109 147 0
104 144 0
108 146 0
106 145 0
106 145 0
106 145 0
105 144 0
105 144 0
103 143 0
105 145 0
104 144 0
105 145 0
104 144 0
105 145 0
105 145 0
104 144 0
107 146 0
109 147 0
106 146 0
108 146 0
104 144 0
107 146 0
107 146 0
107 146 0
105 145 0
107 146 0
103 144 0
105 145 0
108 146 0
109 147 0
106 146 0
104 144 0
107 146 0
109 147 0
101 137 0
107 146 0
106 146 0
107 146 0
107 146 0
106 145 0
104 144 0
106 145 0
104 144 0
103 144 0
107 146 0
106 145 0
107 146 0
106 145 0
109 147 0
107 146 0
108 147 0
113 149 0
108 147 0
108 146 0
114 150 0
109 147 0
107 146 0
108 147 0
113 150 0
109 147 0
110 148 0
97 134 0
108 146 0
117 152 0
101 137 0
115 150 0
103 144 0
110 148 0
106 146 0
105 145 0
105 145 0
107 146 0
110 148 0
108 147 0
106 145 0
106 145 0
108 147 0
103 144 0
105 145 0
113 150 0
113 150 0
114 150 0
97 134 0
108 147 0
109 147 0
107 146 0
107 146 0
114 150 0
110 148 0
112 149 0
107 146 0
119 153 0
113 150 0
116 151 0
112 149 0
111 148 0
115 151 0
109 147 0
113 149 0
111 148 0
108 147 0
114 150 0
114 150 0
109 147 0
117 152 0
111 149 0
113 150 0
124 156 0
116 151 0
108 146 0
117 152 0
116 151 0
111 148 0
112 149 0
112 149 0
116 151 0
118 152 0
118 152 0
109 147 0
118 153 0
108 147 0
116 151 0
112 149 0
115 151 0
109 147 0
127 158 0
120 153 0
120 154 0
115 151 0
120 154 0
128 159 0
116 152 0
122 155 0
110 148 0
120 154 0
119 153 0
116 152 0
115 150 0
118 153 0
119 153 0
116 151 0
109 147 0
116 151 0
118 152 0
113 149 0
119 153 0
122 155 0
116 151 0
119 153 0
110 147 0
117 152 0
121 155 0
121 154 0
123 155 0
129 159 0
113 150 0
118 153 0
117 152 0
119 153 0
120 154 0
119 153 0
120 154 0
118 152 0
110 148 0
126 157 0
118 152 0
116 151 0
117 152 0
113 149 0
123 156 0
125 157 0
120 154 0
124 156 0
110 148 0
118 152 0
122 155 0
125 157 0
114 150 0
116 151 0
120 154 0
118 153 0
119 153 0
123 156 0
119 153 0
119 153 0
121 154 0
115 151 0
118 152 0
127 158 0
120 154 0
111 148 0
117 152 0
118 152 0
118 152 0
117 152 0
119 153 0
119 153 0
119 153 0
112 149 0
121 154 0
126 157 0
117 152 0
109 147 0
118 152 0
122 155 0
128 158 0
125 157 0
117 152 0
126 157 0
112 149 0
121 154 0
121 154 0
117 152 0
122 155 0
111 148 0
115 151 0
115 150 0
112 149 0
118 153 0
117 152 0
114 150 0
117 152 0
122 155 0
123 155 0
113 150 0
127 158 0
117 152 0
116 151 0
125 157 0
113 149 0
116 151 0
126 157 0
118 152 0
118 152 0
117 152 0
117 152 0
116 151 0
115 151 0
112 149 0
116 151 0
118 153 0
118 152 0
120 154 0
123 155 0
120 154 0
120 153 0
117 152 0
117 152 0
119 153 0
114 150 0
119 153 0
126 157 0
122 155 0
114 150 0
122 155 0
117 152 0
129 159 0
120 154 0
111 148 0
121 154 0
113 149 0
116 151 0
119 153 0
121 155 0
110 147 0
123 155 0
117 152 0
115 151 0
122 155 0
115 151 0
110 147 0
117 152 0
112 149 0
114 150 0
114 150 0
122 155 0
118 152 0
122 155 0
116 151 0
111 148 0
117 152 0
114 150 0
114 150 0
119 153 0
121 155 0
116 151 0
122 155 0
115 151 0
115 151 0
121 154 0
116 152 0
112 149 0
117 152 0
119 153 0
114 150 0
117 152 0
115 151 0
118 152 0
116 152 0
117 152 0
115 151 0
116 151 0
115 151 0
121 154 0
123 156 0
114 150 0
116 151 0
121 154 0
117 152 0
112 149 0
119 153 0
111 148 0
116 151 0
116 151 0
118 153 0
116 151 0
120 154 0
116 151 0
115 150 0
112 149 0
113 150 0
114 150 0
118 152 0
113 150 0
107 146 0
108 147 0
104 144 0
108 147 0
104 144 0
104 144 0
106 145 0
106 145 0
106 145 0
103 144 0
105 145 0
104 144 0
109 147 0
104 144 0
103 144 0
105 145 0
104 144 0
107 146 0
104 144 0
104 144 0
104 144 0
105 145 0
102 143 0
105 145 0
105 145 0
103 143 0
106 145 0
104 144 0
108 146 0
104 144 0
106 146 0
105 145 0
105 145 0
106 145 0
105 145 0
106 145 0
105 145 0
107 146 0
105 145 0
103 143 0
104 144 0
107 146 0
105 145 0
107 146 0
104 144 0
106 145 0
107 146 0
106 145 0
107 146 0
104 144 0
103 143 0
104 144 0
106 145 0
104 144 0
105 145 0
107 146 0
105 144 0
108 147 0
103 144 0
109 147 0
104 144 0
106 145 0
106 145 0
105 144 0
103 144 0
108 146 0
105 145 0
104 144 0
103 144 0
104 144 0
106 145 0
105 145 0
105 144 0
105 145 0
106 145 0
103 143 0
105 145 0
109 147 0
109 147 0
103 144 0
104 144 0
105 145 0
107 146 0
106 145 0
107 146 0
109 147 0
105 145 0
99 136 0
109 147 0
104 144 0
105 145 0
108 146 0
103 143 0
99 136 0
105 145 0
109 147 0
113 150 0
103 143 0
105 144 0
107 146 0
106 145 0
108 147 0
104 144 0
105 144 0
107 146 0
111 148 0
105 145 0
105 145 0
104 144 0
107 146 0
109 147 0
105 145 0
111 148 0
106 145 0
105 145 0
94 127 0
109 147 0
109 147 0
108 147 0
109 147 0
108 146 0
108 146 0
108 146 0
103 144 0
104 144 0
104 144 0
106 145 0
106 145 0
110 148 0
110 148 0
108 147 0
104 144 0
104 144 0
110 148 0
104 144 0
112 149 0
111 148 0
106 145 0
112 149 0
110 148 0
98 135 0
92 126 0
103 144 0
108 147 0
112 149 0
109 147 0
110 148 0
110 148 0
109 147 0
107 146 0
107 146 0
117 152 0
99 136 0
114 150 0
116 151 0
110 148 0
106 146 0
111 148 0
111 148 0
107 146 0
117 152 0
110 148 0
112 149 0
107 146 0
106 145 0
116 151 0
111 148 0
122 155 0
116 151 0
108 147 0
112 149 0
110 148 0
111 148 0
125 157 0
108 147 0
116 152 0
120 154 0
112 149 0
112 149 0
110 148 0
118 152 0
111 148 0
110 148 0
109 147 0
122 155 0
119 153 0
110 147 0
108 147 0
105 145 0
128 158 0
106 145 0
107 146 0
115 151 0
118 153 0
108 146 0
124 156 0
117 152 0
114 150 0
115 151 0
120 153 0
115 151 0
117 152 0
112 149 0
118 153 0
109 147 0
126 158 0
114 150 0
110 148 0
113 150 0
112 149 0
119 153 0
124 156 0
116 152 0
114 150 0
111 148 0
117 152 0
127 158 0
110 148 0
113 150 0
121 154 0
119 153 0
116 151 0
125 157 0
122 155 0
111 148 0
116 151 0
118 152 0
112 149 0
128 158 0
114 150 0
118 153 0
120 154 0
132 161 0
118 152 0
118 153 0
122 155 0
115 151 0
122 155 0
123 156 0
115 150 0
118 153 0
117 152 0
124 156 0
115 151 0
117 152 0
122 155 0
125 157 0
121 154 0
120 154 0
126 157 0
126 157 0
124 156 0
118 153 0
121 155 0
118 152 0
130 159 0
118 152 0
111 148 0
122 155 0
112 149 0
117 152 0
120 154 0
113 150 0
122 155 0
115 151 0
127 158 0
116 151 0
114 150 0
124 156 0
112 149 0
113 150 0
127 158 0
129 159 0
126 157 0
121 155 0
126 157 0
121 154 0
122 155 0
116 152 0
118 152 0
117 152 0
122 155 0
119 153 0
119 153 0
117 152 0
115 151 0
125 157 0
126 157 0
125 157 0
124 156 0
122 155 0
122 155 0
117 152 0
118 153 0
124 156 0
119 153 0
120 154 0
123 155 0
123 155 0
115 150 0
111 148 0
116 151 0
123 155 0
121 154 0
116 151 0
120 154 0
115 151 0
120 154 0
124 156 0
119 153 0
120 154 0
123 155 0
121 154 0
113 150 0
118 153 0
118 153 0
115 151 0
115 151 0
119 153 0
116 151 0
124 156 0
114 150 0
116 151 0
124 156 0
117 152 0
120 154 0
117 152 0
117 152 0
121 154 0
114 150 0
117 152 0
119 153 0
114 150 0
120 154 0
114 150 0
114 150 0
117 152 0
114 150 0
113 149 0
115 151 0
121 154 0
115 151 0
113 150 0
114 150 0
122 155 0
121 154 0
112 149 0
114 150 0
111 149 0
112 149 0
115 151 0
116 151 0
115 151 0
117 152 0
112 149 0
119 153 0
121 154 0
111 148 0
117 152 0
118 152 0
116 151 0
116 151 0
116 152 0
124 156 0
115 151 0
120 153 0
116 151 0
113 150 0
113 149 0
120 154 0
111 148 0
117 152 0
129 159 0
112 149 0
115 150 0
121 154 0
122 155 0
117 152 0
115 151 0
113 150 0
111 148 0
111 149 0
116 151 0
117 152 0
110 148 0
116 151 0
119 153 0
111 148 0
116 151 0
118 153 0
113 150 0
118 153 0
117 152 0
112 149 0
112 149 0
116 151 0
111 149 0
117 152 0
113 149 0
117 152 0
106 145 0
104 144 0
105 145 0
103 144 0
107 146 0
103 144 0
107 146 0
104 144 0
106 145 0
107 146 0
106 145 0
104 144 0
106 145 0
105 145 0
104 144 0
107 146 0
104 144 0
106 145 0
104 144 0
104 144 0
105 145 0
104 144 0
106 145 0
104 144 0
104 144 0
109 147 0
105 145 0
107 146 0
105 145 0
104 144 0
105 145 0
105 145 0
106 145 0
105 145 0
104 144 0
106 145 0
104 144 0
104 144 0
104 144 0
104 144 0
107 146 0
107 146 0
105 145 0
105 144 0
106 145 0
106 146 0
106 145 0
104 144 0
108 147 0
105 144 0
107 146 0
105 145 0
106 145 0
106 145 0
105 145 0
107 146 0
107 146 0
106 145 0
104 144 0
107 146 0
104 144 0
106 145 0
104 144 0
103 144 0
103 143 0
107 146 0
105 145 0
105 145 0
105 145 0
105 145 0
107 146 0
98 135 0
106 145 0
104 144 0
107 146 0
108 146 0
104 144 0
106 145 0
108 147 0
107 146 0
108 147 0
106 145 0
109 147 0
104 144 0
104 144 0
104 144 0
105 145 0
103 144 0
105 144 0
104 144 0
105 145 0
105 144 0
107 146 0
104 144 0
105 144 0
109 147 0
107 146 0
112 149 0
106 145 0
109 147 0
106 145 0
109 147 0
113 149 0
96 134 0
108 147 0
105 145 0
106 145 0
100 136 0
104 144 0
107 146 0
106 146 0
113 149 0
107 146 0
102 137 0
104 144 0
107 146 0
108 146 0
109 147 0
108 146 0
105 145 0
109 147 0
107 146 0
109 147 0
107 146 0
106 145 0
104 144 0
106 146 0
108 146 0
105 145 0
109 147 0
107 146 0
109 147 0
107 146 0
107 146 0
109 147 0
106 145 0
110 147 0
108 147 0
104 144 0
110 148 0
115 151 0
113 149 0
105 145 0
105 145 0
107 146 0
112 149 0
108 147 0
108 146 0
113 149 0
114 150 0
97 135 0
112 149 0
106 146 0
108 146 0
111 148 0
103 144 0
103 144 0
121 154 0
110 148 0
110 147 0
111 149 0
114 150 0
109 147 0
112 149 0
111 148 0
111 148 0
109 147 0
111 148 0
112 149 0
109 147 0
103 144 0
110 148 0
108 146 0
112 149 0
114 150 0
125 156 0
107 146 0
113 150 0
116 151 0
119 153 0
108 146 0
113 149 0
112 149 0
110 148 0
110 147 0
112 149 0
124 156 0
113 150 0
115 151 0
111 149 0
118 153 0
114 150 0
113 150 0
117 152 0
121 154 0
125 157 0
112 149 0
129 159 0
113 150 0
117 152 0
115 151 0
112 149 0
122 155 0
120 154 0
119 153 0
122 155 0
128 159 0
113 150 0
113 150 0
120 154 0
120 154 0
123 156 0
116 151 0
122 155 0
118 152 0
121 155 0
123 156 0
109 147 0
120 154 0
117 152 0
111 149 0
119 153 0
123 156 0
128 159 0
120 154 0
120 154 0
119 153 0
116 151 0
124 156 0
119 153 0
123 156 0
117 152 0
124 156 0
113 150 0
118 152 0
119 153 0
117 152 0
113 150 0
121 154 0
124 156 0
113 150 0
120 154 0
122 155 0
131 160 0
118 152 0
125 157 0
120 154 0
131 160 0
115 151 0
118 152 0
121 154 0
122 155 0
118 153 0
113 150 0
117 152 0
124 156 0
113 150 0
119 153 0
115 150 0
115 151 0
114 150 0
121 154 0
115 151 0
115 151 0
119 153 0
124 156 0
122 155 0
123 155 0
120 154 0
121 155 0
110 147 0
126 157 0
114 150 0
114 150 0
118 153 0
114 150 0
119 153 0
115 151 0
121 154 0
127 158 0
122 155 0
117 152 0
115 151 0
120 154 0
125 157 0
118 153 0
118 152 0
126 157 0
129 159 0
117 152 0
121 155 0
121 154 0
118 152 0
119 153 0
120 154 0
117 152 0
113 149 0
124 156 0
117 152 0
120 154 0
126 157 0
118 152 0
117 152 0
122 155 0
120 154 0
125 157 0
114 150 0
115 151 0
115 150 0
118 153 0
117 152 0
122 155 0
121 154 0
117 152 0
121 154 0
119 153 0
109 147 0
117 152 0
122 155 0
113 150 0
112 149 0
118 152 0
127 158 0
116 152 0
115 151 0
117 152 0
116 151 0
120 154 0
119 153 0
111 148 0
118 153 0
114 150 0
115 151 0
124 156 0
117 152 0
118 153 0
116 151 0
121 154 0
117 152 0
120 154 0
119 153 0
118 153 0
114 150 0
124 156 0
117 152 0
119 153 0
117 152 0
110 148 0
116 151 0
119 153 0
118 153 0
114 150 0
117 152 0
114 150 0
111 148 0
112 149 0
118 152 0
113 150 0
117 152 0
117 152 0
116 151 0
116 151 0
120 154 0
117 152 0
115 151 0
116 151 0
115 151 0
113 149 0
118 153 0
117 152 0
112 149 0
118 152 0
117 152 0
121 154 0
123 155 0
115 151 0
115 151 0
114 150 0
112 149 0
119 153 0
114 150 0
115 151 0
117 152 0
118 153 0
116 151 0
116 151 0
114 150 0
116 151 0
109 147 0
114 150 0
121 154 0
119 153 0
118 152 0
110 148 0
114 150 0
118 152 0
115 151 0
114 150 0
117 152 0
118 152 0
103 144 0
103 144 0
106 145 0
106 145 0
105 145 0
106 146 0
109 147 0
107 146 0
104 144 0
105 145 0
105 145 0
107 146 0
103 144 0
104 144 0
107 146 0
104 144 0
104 144 0
106 145 0
103 144 0
103 144 0
107 146 0
103 144 0
107 146 0
104 144 0
105 145 0
104 144 0
103 144 0
108 146 0
103 144 0
109 147 0
104 144 0
110 148 0
106 145 0
104 144 0
108 146 0
105 145 0
104 144 0
104 144 0
107 146 0
104 144 0
109 147 0
104 144 0
107 146 0
104 144 0
103 143 0
103 144 0
103 144 0
104 144 0
105 145 0
109 147 0
106 145 0
105 145 0
105 145 0
106 146 0
107 146 0
108 146 0
106 146 0
106 145 0
107 146 0
108 147 0
108 147 0
108 147 0
105 145 0
105 145 0
106 145 0
106 145 0
107 146 0
106 145 0
104 144 0
107 146 0
106 146 0
106 146 0
103 143 0
104 144 0
110 148 0
104 144 0
105 145 0
108 146 0
105 145 0
107 146 0
105 145 0
105 145 0
104 144 0
104 144 0
108 147 0
105 145 0
108 146 0
108 146 0
107 146 0
103 143 0
109 147 0
105 145 0
105 145 0
104 144 0
107 146 0
105 145 0
107 146 0
107 146 0
110 148 0
104 144 0
105 145 0
107 146 0
106 145 0
110 147 0
104 144 0
104 144 0
106 145 0
108 147 0
105 145 0
105 145 0
109 147 0
109 147 0
105 145 0
103 144 0
111 148 0
106 145 0
109 147 0
103 144 0
107 146 0
106 145 0
105 144 0
104 144 0
105 145 0
104 138 0
114 150 0
115 151 0
104 144 0
104 144 0
104 144 0
99 136 0
107 146 0
106 145 0
101 137 0
112 149 0
109 147 0
112 149 0
105 145 0
104 144 0
105 145 0
110 148 0
111 148 0
108 147 0
117 152 0
110 148 0
112 149 0
111 148 0
115 151 0
107 146 0
105 144 0
108 147 0
108 147 0
116 151 0
115 151 0
116 151 0
109 147 0
111 148 0
107 146 0
117 152 0
111 148 0
106 145 0
123 156 0
111 148 0
118 152 0
118 153 0
108 147 0
106 145 0
107 146 0
111 148 0
116 151 0
111 148 0
112 149 0
119 153 0
109 147 0
116 151 0
109 147 0
109 147 0
120 154 0
111 148 0
124 156 0
116 152 0
119 153 0
122 155 0
110 148 0
110 148 0
122 155 0
116 151 0
112 149 0
109 147 0
124 156 0
117 152 0
118 153 0
117 152 0
122 155 0
118 152 0
119 153 0
117 152 0
111 148 0
124 156 0
115 151 0
119 153 0
119 153 0
126 157 0
112 149 0
125 157 0
117 152 0
129 159 0
115 151 0
114 150 0
118 153 0
122 155 0
127 158 0
124 156 0
111 148 0
121 155 0
117 152 0
113 150 0
110 148 0
121 154 0
117 152 0
121 154 0
119 153 0
114 150 0
115 150 0
111 148 0
114 150 0
118 153 0
119 153 0
114 150 0
118 152 0
118 153 0
116 151 0
120 154 0
125 157 0
122 155 0
114 150 0
114 150 0
124 156 0
115 151 0
121 154 0
115 151 0
131 160 0
120 154 0
122 155 0
116 151 0
114 150 0
113 150 0
119 153 0
117 152 0
119 153 0
122 155 0
124 156 0
111 148 0
127 158 0
116 151 0
129 159 0
120 154 0
115 150 0
123 155 0
116 151 0
121 154 0
121 154 0
112 149 0
122 155 0
126 158 0
128 158 0
119 153 0
114 150 0
118 152 0
124 156 0
116 151 0
131 160 0
120 154 0
114 150 0
120 154 0
126 157 0
128 159 0
121 154 0
118 153 0
122 155 0
126 157 0
133 161 0
113 150 0
121 154 0
119 153 0
125 157 0
115 151 0
125 157 0
120 154 0
115 151 0
123 155 0
123 156 0
112 149 0
120 154 0
116 151 0
122 155 0
118 152 0
122 155 0
123 156 0
122 155 0
128 158 0
114 150 0
124 156 0
112 149 0
125 157 0
122 155 0
117 152 0
120 153 0
123 156 0
122 155 0
113 150 0
118 152 0
125 157 0
116 151 0
117 152 0
115 150 0
110 148 0
121 154 0
117 152 0
118 152 0
111 148 0
125 157 0
118 153 0
112 149 0
125 157 0
121 154 0
121 155 0
117 152 0
116 151 0
111 148 0
116 152 0
117 152 0
114 150 0
116 152 0
113 150 0
113 150 0
123 155 0
110 147 0
115 151 0
120 154 0
119 153 0
118 152 0
120 154 0
116 151 0
112 149 0
117 152 0
115 151 0
119 153 0
114 150 0
120 154 0
120 154 0
113 149 0
117 152 0
120 154 0
119 153 0
113 149 0
115 150 0
116 151 0
122 155 0
129 159 0
114 150 0
114 150 0
118 152 0
113 149 0
114 150 0
115 150 0
112 149 0
121 154 0
117 152 0
122 155 0
113 150 0
115 151 0
114 150 0
118 152 0
114 150 0
118 153 0
114 150 0
115 151 0
112 149 0
116 151 0
114 150 0
113 149 0
118 153 0
110 147 0
116 151 0
117 152 0
118 152 0
117 152 0
112 149 0
110 147 0
116 152 0
110 148 0
120 154 0
118 153 0
119 153 0
113 150 0
118 152 0
116 152 0
116 151 0
116 151 0
117 152 0
103 144 0
108 146 0
110 148 0
109 147 0
105 144 0
106 145 0
104 144 0
105 145 0
106 145 0
105 145 0
105 145 0
105 145 0
106 145 0
106 145 0
108 146 0
105 144 0
105 145 0
109 147 0
103 144 0
108 146 0
105 145 0
106 145 0
107 146 0
104 144 0
107 146 0
105 145 0
107 146 0
104 144 0
104 144 0
105 145 0
105 145 0
106 145 0
107 146 0
105 145 0
104 144 0
106 145 0
106 145 0
105 145 0
104 144 0
106 146 0
106 145 0
106 145 0
104 144 0
108 146 0
105 145 0
108 147 0
105 145 0
107 146 0
106 145 0
107 146 0
105 145 0
104 144 0
103 144 0
104 144 0
105 145 0
108 147 0
105 145 0
106 146 0
106 145 0
111 148 0
107 146 0
107 146 0
110 147 0
106 146 0
105 145 0
108 146 0
106 145 0
106 145 0
105 145 0
103 143 0
107 146 0
106 145 0
106 145 0
104 144 0
111 148 0
106 145 0
107 146 0
105 145 0
105 145 0
106 145 0
103 143 0
107 146 0
107 146 0
106 146 0
105 145 0
103 144 0
105 145 0
105 145 0
103 144 0
105 145 0
106 146 0
105 144 0
110 148 0
108 146 0
107 146 0
103 143 0
105 144 0
103 144 0
105 145 0
106 146 0
105 145 0
103 144 0
108 147 0
107 146 0
107 146 0
107 146 0
112 149 0
106 145 0
109 147 0
105 145 0
110 148 0
109 147 0
107 146 0
105 145 0
110 148 0
112 149 0
106 145 0
105 145 0
105 145 0
110 147 0
106 145 0
108 147 0
105 145 0
106 145 0
105 144 0
104 144 0
105 145 0
109 147 0
107 146 0
111 148 0
110 148 0
111 148 0
110 147 0
113 150 0
111 149 0
112 149 0
104 144 0
107 146 0
109 147 0
106 145 0
108 146 0
109 147 0
121 154 0
109 147 0
105 145 0
108 147 0
106 145 0
114 150 0
119 153 0
115 151 0
114 150 0
111 148 0
113 150 0
105 145 0
121 154 0
119 153 0
116 151 0
114 150 0
114 150 0
112 149 0
112 149 0
122 155 0
109 147 0
109 147 0
114 150 0
110 148 0
107 146 0
120 153 0
116 152 0
110 148 0
99 136 0
109 147 0
117 152 0
106 145 0
128 158 0
127 158 0
125 157 0
119 153 0
119 153 0
113 149 0
109 147 0
121 154 0
115 150 0
112 149 0
110 147 0
123 155 0
114 150 0
111 149 0
111 148 0
110 147 0
120 154 0
127 158 0
121 154 0
117 152 0
115 151 0
121 154 0
124 156 0
123 156 0
110 148 0
121 154 0
121 155 0
114 150 0
126 157 0
109 147 0
110 147 0
115 151 0
125 157 0
121 154 0
114 150 0
119 153 0
127 158 0
115 151 0
121 154 0
124 156 0
116 151 0
113 150 0
113 150 0
121 154 0
119 153 0
116 151 0
123 156 0
114 150 0
119 153 0
123 156 0
116 151 0
120 154 0
117 152 0
125 157 0
130 160 0
120 154 0
125 157 0
116 151 0
116 151 0
116 151 0
124 156 0
119 153 0
115 151 0
120 154 0
116 151 0
115 151 0
126 157 0
122 155 0
116 151 0
121 154 0
127 158 0
127 158 0
123 155 0
127 158 0
125 156 0
112 149 0
127 158 0
124 156 0
127 158 0
125 157 0
123 156 0
131 160 0
123 155 0
121 155 0
124 156 0
120 154 0
123 155 0
124 156 0
133 162 0
121 154 0
119 153 0
123 156 0
125 157 0
116 151 0
121 154 0
127 158 0
123 156 0
122 155 0
116 151 0
117 152 0
114 150 0
126 157 0
122 155 0
123 155 0
113 150 0
117 152 0
124 156 0
124 156 0
118 152 0
119 153 0
124 156 0
122 155 0
124 156 0
120 154 0
115 151 0
116 151 0
118 153 0
114 150 0
124 156 0
126 157 0
117 152 0
121 155 0
120 154 0
122 155 0
120 154 0
120 154 0
116 151 0
127 158 0
109 147 0
118 152 0
112 149 0
124 156 0
125 157 0
114 150 0
123 156 0
129 159 0
119 153 0
122 155 0
123 155 0
120 154 0
113 150 0
122 155 0
122 155 0
122 155 0
119 153 0
121 154 0
117 152 0
120 154 0
117 152 0
113 149 0
117 152 0
114 150 0
120 154 0
118 152 0
119 153 0
112 149 0
115 151 0
124 156 0
115 150 0
120 154 0
117 152 0
113 150 0
113 150 0
114 150 0
124 156 0
123 156 0
113 149 0
112 149 0
124 156 0
121 154 0
114 150 0
122 155 0
117 152 0
116 152 0
122 155 0
119 153 0
118 152 0
113 149 0
115 151 0
121 155 0
115 151 0
113 150 0
114 150 0
113 150 0
114 150 0
112 149 0
116 151 0
111 148 0
117 152 0
116 152 0
122 155 0
121 154 0
114 150 0
121 154 0
113 150 0
119 153 0
116 151 0
112 149 0
118 152 0
112 149 0
114 150 0
112 149 0
118 153 0
115 151 0
110 147 0
115 151 0
112 149 0
113 150 0
115 151 0
122 155 0
115 151 0
115 151 0
113 149 0
109 147 0
113 149 0
116 151 0
115 151 0
114 150 0
115 150 0
116 151 0
115 151 0
123 156 0
122 155 0
120 154 0
123 155 0
120 154 0
106 145 0
105 145 0
104 144 0
106 145 0
103 144 0
104 144 0
103 144 0
109 147 0
105 145 0
104 144 0
105 145 0
105 145 0
104 144 0
105 145 0
107 146 0
106 145 0
104 144 0
106 145 0
107 146 0
106 145 0
104 144 0
106 145 0
103 144 0
105 145 0
108 146 0
105 144 0
103 144 0
107 146 0
109 147 0
105 144 0
106 146 0
106 145 0
103 144 0
103 143 0
107 146 0
103 143 0
105 145 0
110 148 0
104 144 0
106 145 0
104 144 0
104 144 0
105 145 0
106 145 0
104 144 0
108 146 0
109 147 0
109 147 0
106 146 0
109 147 0
106 145 0
105 145 0
108 147 0
106 145 0
110 148 0
107 146 0
106 146 0
104 144 0
105 145 0
106 145 0
106 145 0
104 144 0
104 144 0
104 144 0
107 146 0
106 146 0
104 144 0
107 146 0
109 147 0
104 144 0
106 145 0
106 145 0
103 143 0
108 147 0
107 146 0
104 144 0
106 145 0
105 145 0
107 146 0
104 144 0
104 144 0
111 148 0
106 145 0
106 146 0
106 145 0
104 144 0
105 145 0
107 146 0
107 146 0
106 145 0
109 147 0
108 146 0
103 144 0
104 144 0
105 145 0
107 146 0
109 147 0
104 144 0
105 145 0
102 137 0
109 147 0
98 135 0
107 146 0
106 140 0
107 146 0
105 144 0
109 147 0
112 149 0
111 149 0
109 147 0
113 149 0
107 146 0
105 145 0
109 147 0
105 145 0
109 147 0
105 145 0
107 146 0
110 148 0
103 144 0
105 145 0
105 145 0
109 147 0
103 144 0
114 150 0
103 144 0
108 146 0
111 148 0
104 144 0
105 145 0
105 145 0
110 148 0
110 148 0
108 147 0
110 148 0
112 149 0
110 147 0
108 147 0
109 147 0
109 147 0
110 148 0
105 145 0
109 147 0
105 145 0
110 148 0
108 146 0
112 149 0
115 151 0
107 140 0
111 148 0
108 146 0
117 152 0
97 135 0
108 147 0
113 149 0
115 151 0
107 146 0
117 152 0
112 149 0
101 137 0
113 150 0
106 145 0
114 150 0
111 148 0
117 152 0
114 150 0
113 150 0
116 151 0
105 144 0
118 153 0
112 149 0
111 149 0
119 153 0
115 151 0
113 150 0
110 148 0
111 149 0
116 151 0
123 156 0
107 146 0
108 147 0
118 152 0
113 150 0
114 150 0
107 146 0
113 150 0
128 159 0
121 155 0
118 153 0
116 151 0
111 148 0
119 153 0
114 150 0
110 148 0
116 151 0
113 149 0
117 152 0
113 149 0
125 157 0
120 154 0
113 150 0
118 153 0
126 157 0
116 151 0
117 152 0
118 152 0
125 157 0
118 153 0
118 152 0
120 154 0
117 152 0
115 151 0
116 151 0
110 148 0
124 156 0
121 154 0
120 154 0
109 147 0
112 149 0
125 156 0
115 150 0
123 155 0
117 152 0
106 145 0
117 152 0
114 150 0
118 152 0
122 155 0
117 152 0
121 154 0
125 157 0
115 151 0
126 157 0
118 152 0
126 157 0
118 152 0
124 156 0
123 155 0
124 156 0
122 155 0
122 155 0
127 158 0
124 156 0
117 152 0
121 154 0
124 156 0
118 153 0
129 159 0
120 154 0
127 158 0
126 158 0
127 158 0
121 154 0
120 154 0
120 154 0
115 151 0
115 150 0
125 157 0
122 155 0
121 154 0
115 151 0
115 151 0
122 155 0
128 159 0
130 160 0
119 153 0
121 154 0
121 154 0
123 156 0
120 154 0
121 154 0
129 159 0
120 154 0
124 156 0
117 152 0
117 152 0
118 152 0
118 153 0
111 149 0
126 157 0
118 152 0
119 153 0
124 156 0
122 155 0
126 157 0
121 154 0
119 153 0
119 153 0
121 154 0
120 154 0
125 157 0
121 154 0
116 151 0
122 155 0
127 158 0
121 154 0
123 155 0
119 153 0
122 155 0
118 153 0
115 151 0
121 154 0
118 153 0
127 158 0
122 155 0
119 153 0
118 153 0
118 153 0
122 155 0
123 155 0
122 155 0
123 155 0
120 154 0
113 150 0
121 154 0
114 150 0
112 149 0
117 152 0
115 151 0
120 154 0
121 154 0
118 152 0
115 151 0
119 153 0
119 153 0
114 150 0
117 152 0
116 152 0
116 151 0
123 156 0
123 155 0
122 155 0
128 158 0
115 151 0
118 152 0
122 155 0
123 156 0
116 151 0
114 150 0
123 155 0
117 152 0
115 151 0
120 154 0
120 154 0
122 155 0
118 152 0
120 154 0
114 150 0
119 153 0
119 153 0
118 152 0
124 156 0
123 155 0
119 153 0
123 156 0
118 153 0
117 152 0
127 158 0
123 155 0
116 151 0
111 148 0
117 152 0
120 154 0
118 152 0
115 151 0
118 153 0
112 149 0
119 153 0
116 151 0
114 150 0
120 154 0
116 151 0
109 147 0
120 154 0
114 150 0
114 150 0
114 150 0
115 151 0
122 155 0
122 155 0
119 153 0
116 151 0
114 150 0
111 148 0
110 148 0
114 150 0
121 154 0
126 157 0
116 151 0
120 154 0
124 156 0
108 147 0
115 151 0
116 151 0
114 150 0
122 155 0
120 154 0
121 154 0
115 150 0
117 152 0
103 144 0
108 146 0
106 145 0
106 146 0
105 145 0
106 145 0
104 144 0
109 147 0
104 144 0
108 147 0
105 145 0
104 144 0
103 144 0
104 144 0
105 145 0
104 144 0
105 145 0
106 145 0
108 146 0
104 144 0
108 146 0
105 145 0
105 145 0
103 143 0
105 144 0
108 146 0
105 145 0
103 143 0
107 146 0
104 144 0
104 144 0
108 146 0
107 146 0
105 145 0
103 144 0
104 144 0
106 145 0
106 145 0
104 144 0
105 145 0
107 146 0
109 147 0
104 144 0
105 145 0
104 144 0
104 144 0
104 144 0
107 146 0
106 145 0
104 144 0
103 144 0
108 146 0
105 145 0
110 147 0
105 145 0
105 144 0
105 145 0
107 146 0
106 146 0
106 145 0
103 144 0
104 144 0
105 145 0
103 144 0
105 144 0
106 145 0
106 145 0
104 144 0
109 147 0
106 145 0
105 145 0
104 144 0
107 146 0
104 144 0
105 145 0
106 145 0
105 145 0
106 146 0
106 145 0
104 144 0
104 144 0
106 145 0
104 144 0
104 144 0
103 144 0
106 145 0
104 144 0
103 144 0
109 147 0
107 146 0
105 145 0
107 146 0
114 150 0
108 147 0
104 144 0
105 145 0
99 136 0
108 146 0
104 144 0
103 143 0
105 145 0
106 145 0
106 145 0
105 145 0
107 146 0
110 148 0
107 146 0
107 146 0
106 145 0
108 147 0
104 139 0
108 147 0
107 146 0
109 147 0
107 146 0
105 139 0
106 145 0
108 146 0
108 146 0
111 148 0
107 146 0
106 145 0
109 147 0
111 149 0
112 149 0
99 135 0
115 150 0
108 146 0
107 146 0
109 147 0
107 146 0
106 145 0
97 135 0
106 146 0
110 148 0
109 147 0
110 148 0
107 146 0
109 147 0
104 144 0
106 146 0
108 146 0
100 136 0
107 146 0
105 144 0
105 139 0
104 139 0
111 148 0
113 150 0
110 148 0
116 151 0
120 154 0
105 145 0
111 149 0
115 150 0
109 147 0
115 151 0
110 148 0
106 145 0
117 152 0
114 150 0
117 152 0
112 149 0
108 147 0
107 146 0
111 148 0
107 146 0
106 145 0
117 152 0
108 146 0
109 147 0
114 150 0
112 149 0
103 144 0
112 149 0
112 149 0
113 150 0
113 149 0
111 149 0
108 146 0
118 153 0
111 149 0
117 152 0
122 155 0
115 151 0
114 150 0
119 153 0
106 146 0
129 159 0
109 147 0
112 149 0
121 154 0
120 153 0
123 156 0
112 149 0
122 155 0
109 147 0
122 155 0
109 147 0
118 153 0
117 152 0
105 145 0
112 149 0
121 154 0
113 150 0
121 154 0
118 153 0
117 152 0
118 152 0
111 148 0
116 151 0
122 155 0
123 156 0
116 151 0
121 154 0
118 153 0
105 145 0
114 150 0
118 153 0
113 149 0
120 154 0
114 150 0
122 155 0
127 158 0
126 158 0
125 157 0
128 159 0
120 153 0
110 148 0
112 149 0
121 154 0
113 150 0
124 156 0
127 158 0
117 152 0
119 153 0
120 154 0
116 151 0
115 151 0
117 152 0
118 153 0
126 157 0
112 149 0
125 157 0
129 159 0
122 155 0
126 157 0
119 153 0
124 156 0
123 156 0
126 157 0
123 155 0
124 156 0
126 157 0
129 159 0
126 157 0
130 160 0
119 153 0
117 152 0
125 157 0
116 151 0
126 157 0
123 155 0
124 156 0
124 156 0
122 155 0
120 154 0
112 149 0
117 152 0
132 161 0
128 158 0
122 155 0
125 157 0
117 152 0
124 156 0
129 159 0
116 151 0
114 150 0
126 157 0
122 155 0
120 154 0
119 153 0
124 156 0
131 160 0
120 153 0
114 150 0
117 152 0
126 157 0
119 153 0
125 156 0
118 153 0
112 149 0
111 149 0
128 158 0
117 152 0
117 152 0
125 157 0
116 151 0
113 150 0
118 152 0
114 150 0
122 155 0
118 153 0
121 155 0
124 156 0
123 155 0
117 152 0
122 155 0
123 155 0
119 153 0
122 155 0
115 151 0
114 150 0
129 159 0
122 155 0
122 155 0
118 153 0
121 154 0
125 156 0
115 151 0
117 152 0
115 151 0
125 157 0
116 151 0
121 155 0
118 152 0
124 156 0
119 153 0
119 153 0
117 152 0
118 153 0
118 152 0
123 155 0
114 150 0
117 152 0
116 151 0
115 151 0
121 154 0
121 155 0
112 149 0
120 154 0
119 153 0
116 151 0
115 151 0
121 154 0
120 154 0
120 153 0
120 154 0
121 154 0
118 153 0
115 151 0
115 150 0
121 154 0
124 156 0
118 152 0
122 155 0
111 149 0
122 155 0
119 153 0
111 148 0
122 155 0
118 153 0
115 151 0
113 149 0
112 149 0
115 151 0
113 150 0
128 158 0
119 153 0
113 149 0
125 157 0
117 152 0
111 148 0
119 153 0
116 151 0
119 153 0
123 155 0
117 152 0
115 151 0
116 152 0
117 152 0
115 151 0
112 149 0
112 149 0
115 151 0
120 154 0
117 152 0
119 153 0
113 149 0
110 148 0
120 154 0
120 154 0
113 150 0
115 151 0
116 151 0
115 151 0
117 152 0
119 153 0
121 154 0
112 149 0
108 147 0
107 146 0
107 146 0
105 145 0
103 144 0
104 144 0
106 146 0
106 146 0
105 145 0
107 146 0
104 144 0
106 145 0
103 143 0
106 145 0
106 145 0
103 144 0
104 144 0
105 145 0
108 147 0
104 144 0
110 148 0
105 145 0
105 145 0
104 144 0
105 145 0
105 145 0
106 146 0
108 147 0
106 146 0
104 144 0
104 144 0
103 144 0
107 146 0
106 145 0
105 145 0
104 144 0
107 146 0
107 146 0
106 146 0
109 147 0
105 144 0
105 144 0
105 145 0
105 144 0
105 144 0
105 145 0
105 145 0
107 146 0
106 145 0
105 145 0
105 145 0
106 145 0
105 145 0
105 145 0
110 148 0
104 144 0
103 143 0
109 147 0
106 145 0
104 144 0
108 146 0
106 145 0
104 144 0
107 146 0
105 145 0
106 145 0
105 145 0
104 144 0
104 144 0
108 147 0
104 144 0
104 144 0
105 144 0
104 144 0
109 147 0
105 145 0
105 145 0
105 145 0
105 145 0
105 145 0
104 144 0
105 144 0
108 147 0
106 145 0
108 147 0
108 146 0
107 146 0
106 146 0
107 146 0
107 146 0
108 147 0
108 146 0
106 145 0
107 146 0
104 144 0
105 145 0
105 145 0
107 146 0
105 145 0
105 145 0
105 145 0
105 145 0
107 146 0
108 147 0
110 148 0
110 148 0
107 146 0
111 148 0
105 145 0
105 145 0
105 145 0
114 150 0
105 145 0
106 145 0
107 146 0
106 145 0
104 144 0
104 144 0
107 146 0
113 150 0
110 148 0
111 148 0
109 147 0
104 144 0
106 145 0
98 135 0
107 146 0
108 146 0
104 144 0
111 149 0
111 148 0
114 150 0
111 149 0
107 146 0
111 148 0
114 150 0
116 151 0
115 151 0
110 148 0
116 151 0
106 140 0
104 139 0
110 148 0
112 149 0
111 148 0
113 150 0
104 139 0
120 153 0
118 153 0
110 148 0
116 151 0
106 145 0
113 150 0
113 149 0
113 150 0
109 147 0
115 151 0
111 149 0
108 146 0
115 151 0
116 151 0
109 147 0
106 146 0
115 151 0
123 155 0
113 149 0
112 149 0
112 149 0
111 143 0
107 146 0
117 152 0
119 153 0
103 138 0
122 155 0
112 149 0
108 147 0
109 147 0
116 152 0
131 160 0
110 148 0
109 147 0
109 147 0
118 153 0
117 152 0
111 149 0
117 152 0
117 152 0
116 152 0
117 152 0
118 153 0
113 150 0
123 156 0
117 152 0
107 146 0
112 149 0
118 153 0
113 150 0
121 154 0
113 150 0
117 152 0
120 154 0
116 151 0
109 147 0
118 152 0
114 150 0
122 155 0
119 153 0
124 156 0
124 156 0
116 151 0
114 150 0
129 159 0
130 160 0
124 156 0
115 150 0
123 156 0
120 153 0
120 154 0
118 152 0
123 155 0
118 152 0
114 150 0
120 154 0
121 154 0
115 150 0
111 148 0
124 156 0
120 154 0
122 155 0
128 159 0
129 159 0
116 151 0
125 157 0
121 154 0
122 155 0
124 156 0
124 156 0
119 153 0
118 152 0
114 150 0
120 154 0
122 155 0
120 153 0
116 152 0
120 154 0
130 160 0
127 158 0
124 156 0
119 153 0
122 155 0
131 160 0
121 155 0
126 157 0
117 152 0
120 154 0
118 152 0
112 149 0
126 157 0
126 158 0
119 153 0
121 154 0
112 149 0
118 153 0
117 152 0
127 158 0
119 153 0
125 157 0
114 150 0
123 156 0
122 155 0
118 153 0
122 155 0
128 159 0
111 148 0
118 152 0
118 152 0
113 149 0
119 153 0
122 155 0
114 150 0
123 156 0
115 151 0
122 155 0
121 154 0
120 154 0
122 155 0
123 155 0
126 157 0
112 149 0
119 153 0
118 153 0
119 153 0
125 157 0
121 154 0
121 154 0
122 155 0
118 153 0
120 154 0
125 157 0
121 154 0
119 153 0
126 157 0
129 159 0
113 149 0
114 150 0
122 155 0
124 156 0
119 153 0
121 154 0
116 151 0
119 153 0
119 153 0
116 152 0
127 158 0
115 151 0
114 150 0
124 156 0
115 151 0
121 155 0
115 151 0
120 154 0
115 151 0
118 153 0
120 154 0
120 154 0
122 155 0
117 152 0
120 154 0
117 152 0
122 155 0
120 154 0
127 158 0
120 154 0
118 152 0
116 151 0
117 152 0
121 154 0
120 154 0
115 151 0
120 154 0
110 148 0
110 147 0
118 153 0
120 154 0
121 154 0
125 157 0
118 152 0
127 158 0
117 152 0
120 154 0
117 152 0
119 153 0
125 157 0
115 151 0
120 154 0
124 156 0
120 154 0
119 153 0
116 151 0
115 150 0
120 154 0
122 155 0
118 152 0
118 153 0
117 152 0
118 152 0
122 155 0
117 152 0
115 151 0
110 148 0
115 151 0
111 148 0
118 152 0
118 152 0
122 155 0
114 150 0
121 154 0
121 154 0
122 155 0
119 153 0
112 149 0
118 153 0
115 151 0
116 151 0
111 148 0
115 151 0
116 151 0
117 152 0
125 157 0
116 152 0
111 148 0
116 152 0
116 151 0
120 154 0
113 150 0
119 153 0
121 154 0
117 152 0
119 153 0
120 153 0
105 145 0
103 144 0
106 146 0
105 145 0
107 146 0
104 144 0
104 144 0
103 144 0
108 146 0
104 144 0
104 144 0
106 145 0
105 145 0
105 145 0
108 146 0
104 144 0
104 144 0
108 147 0
105 145 0
106 145 0
104 144 0
104 144 0
108 146 0
106 145 0
104 144 0
103 144 0
105 145 0
107 146 0
105 145 0
109 147 0
105 144 0
109 147 0
105 145 0
104 144 0
105 145 0
103 143 0
104 144 0
107 146 0
104 144 0
105 144 0
106 146 0
105 145 0
106 145 0
106 145 0
108 146 0
107 146 0
104 144 0
103 144 0
110 148 0
106 145 0
110 148 0
106 146 0
106 145 0
106 145 0
109 147 0
98 135 0
107 146 0
104 144 0
106 146 0
109 147 0
106 145 0
109 147 0
107 146 0
107 146 0
106 146 0
106 145 0
106 145 0
105 145 0
103 143 0
103 144 0
111 148 0
105 145 0
107 146 0
103 143 0
110 148 0
103 143 0
107 146 0
106 145 0
107 146 0
105 144 0
105 144 0
104 144 0
103 144 0
105 145 0
100 136 0
106 145 0
106 145 0
106 145 0
112 149 0
111 148 0
103 144 0
104 144 0
105 145 0
107 146 0
105 145 0
111 149 0
108 147 0
103 144 0
104 144 0
102 137 0
104 144 0
108 147 0
107 146 0
105 145 0
105 145 0
100 136 0
110 148 0
105 145 0
107 146 0
106 145 0
109 147 0
110 148 0
107 146 0
105 145 0
105 145 0
111 148 0
110 148 0
110 148 0
106 146 0
109 147 0
113 150 0
109 147 0
104 144 0
110 148 0
111 148 0
106 145 0
120 154 0
112 149 0
117 152 0
113 149 0
108 146 0
112 149 0
114 150 0
113 150 0
107 146 0
103 138 0
116 152 0
112 149 0
110 148 0
112 149 0
111 149 0
108 146 0
116 151 0
106 145 0
112 149 0
115 151 0
111 148 0
107 146 0
107 146 0
110 148 0
112 149 0
108 147 0
114 150 0
110 148 0
105 145 0
110 148 0
114 150 0
114 150 0
110 148 0
107 146 0
119 153 0
116 152 0
123 156 0
107 146 0
108 141 0
113 149 0
113 149 0
115 151 0
111 148 0
108 147 0
128 159 0
97 129 0
117 152 0
116 151 0
112 149 0
119 153 0
111 148 0
112 149 0
117 152 0
108 146 0
117 152 0
110 148 0
109 147 0
107 146 0
126 158 0
116 151 0
111 148 0
114 150 0
122 155 0
124 156 0
116 151 0
110 148 0
116 151 0
121 154 0
121 154 0
117 152 0
118 152 0
123 155 0
129 159 0
120 154 0
118 152 0
120 154 0
114 150 0
129 159 0
116 151 0
128 158 0
118 153 0
119 153 0
119 153 0
116 151 0
116 152 0
115 151 0
111 148 0
123 156 0
125 157 0
115 151 0
113 149 0
120 154 0
124 156 0
126 157 0
125 157 0
120 154 0
123 155 0
121 154 0
118 152 0
121 154 0
123 156 0
125 157 0
116 151 0
115 151 0
130 160 0
117 152 0
114 150 0
116 151 0
121 154 0
128 159 0
119 153 0
124 156 0
125 157 0
134 162 0
134 162 0
119 153 0
118 153 0
120 154 0
120 154 0
125 157 0
123 156 0
121 154 0
114 150 0
126 157 0
117 152 0
127 158 0
122 155 0
122 155 0
113 149 0
124 156 0
128 159 0
109 147 0
127 158 0
111 148 0
128 159 0
125 157 0
124 156 0
123 156 0
125 157 0
117 152 0
115 151 0
121 154 0
123 156 0
124 156 0
116 151 0
119 153 0
116 152 0
117 152 0
117 152 0
126 157 0
130 160 0
121 154 0
118 153 0
116 151 0
124 156 0
127 158 0
117 152 0
122 155 0
120 153 0
124 156 0
126 157 0
121 154 0
112 149 0
119 153 0
125 157 0
113 149 0
128 159 0
122 155 0
119 153 0
119 153 0
120 153 0
110 148 0
123 156 0
121 155 0
130 159 0
123 156 0
121 154 0
119 153 0
126 157 0
120 154 0
115 151 0
124 156 0
115 151 0
119 153 0
120 154 0
120 154 0
118 153 0
121 154 0
111 148 0
121 154 0
122 155 0
118 153 0
113 150 0
119 153 0
113 150 0
122 155 0
121 154 0
123 156 0
120 154 0
117 152 0
121 155 0
110 147 0
122 155 0
119 153 0
118 152 0
122 155 0
122 155 0
125 157 0
112 149 0
115 151 0
110 148 0
128 158 0
119 153 0
115 151 0
115 151 0
115 151 0
116 151 0
115 151 0
120 154 0
119 153 0
110 147 0
112 149 0
123 156 0
122 155 0
118 153 0
126 157 0
118 153 0
115 150 0
119 153 0
116 151 0
115 151 0
121 154 0
121 154 0
120 154 0
111 148 0
113 150 0
117 152 0
117 152 0
123 155 0
113 150 0
119 153 0
114 150 0
120 154 0
119 153 0
118 153 0
120 154 0
121 154 0
113 149 0
112 149 0
109 147 0
121 154 0
112 149 0
117 152 0
113 150 0
117 152 0
119 153 0
112 149 0
121 154 0
119 153 0
121 154 0
114 150 0
115 151 0
112 149 0
117 152 0
117 152 0
115 151 0
118 152 0
120 154 0
118 153 0
117 152 0
118 152 0
113 150 0
123 156 0
121 154 0
105 145 0
106 145 0
105 144 0
106 146 0
109 147 0
108 146 0
106 145 0
108 146 0
105 145 0
105 145 0
104 144 0
107 146 0
104 144 0
104 144 0
103 143 0
107 146 0
105 145 0
103 144 0
105 144 0
108 147 0
106 145 0
107 146 0
104 144 0
106 145 0
104 144 0
105 145 0
107 146 0
107 146 0
108 146 0
104 144 0
107 146 0
106 145 0
106 146 0
109 147 0
104 144 0
106 145 0
105 145 0
106 145 0
109 147 0
108 147 0
103 144 0
105 145 0
105 145 0
104 144 0
105 145 0
102 143 0
104 144 0
104 144 0
109 147 0
104 144 0
109 147 0
105 145 0
105 145 0
111 148 0
104 144 0
102 143 0
108 147 0
108 146 0
107 146 0
105 145 0
103 143 0
105 145 0
108 146 0
108 146 0
105 144 0
105 145 0
104 144 0
108 146 0
104 144 0
104 144 0
105 145 0
108 146 0
105 145 0
106 145 0
107 146 0
108 146 0
106 145 0
105 145 0
105 144 0
111 148 0
109 147 0
108 146 0
112 149 0
106 145 0
113 149 0
107 146 0
105 145 0
104 144 0
107 146 0
108 147 0
110 148 0
107 146 0
105 145 0
109 147 0
106 145 0
107 146 0
109 147 0
108 147 0
109 147 0
105 145 0
107 146 0
105 145 0
106 145 0
106 145 0
106 145 0
109 147 0
108 147 0
104 144 0
106 145 0
107 146 0
103 143 0
106 145 0
107 146 0
107 146 0
108 147 0
106 145 0
103 138 0
111 148 0
110 148 0
109 147 0
113 149 0
109 147 0
108 146 0
113 149 0
111 149 0
110 148 0
116 152 0
105 145 0
112 149 0
110 148 0
106 145 0
108 147 0
110 148 0
107 146 0
105 145 0
104 144 0
100 136 0
108 146 0
107 146 0
109 147 0
106 146 0
104 144 0
111 148 0
105 144 0
110 148 0
117 152 0
111 148 0
115 151 0
116 151 0
110 147 0
110 148 0
109 147 0
107 146 0
118 153 0
107 146 0
119 153 0
109 147 0
120 153 0
119 153 0
98 135 0
113 149 0
117 152 0
115 150 0
118 152 0
115 151 0
110 148 0
115 151 0
113 149 0
107 140 0
114 150 0
113 149 0
114 150 0
117 152 0
107 146 0
116 151 0
106 145 0
109 147 0
112 149 0
117 152 0
117 152 0
116 151 0
110 148 0
113 149 0
122 155 0
106 145 0
111 148 0
111 148 0
122 155 0
111 148 0
116 151 0
121 154 0
117 152 0
120 154 0
113 150 0
121 155 0
116 151 0
119 153 0
126 157 0
117 152 0
119 153 0
116 151 0
121 155 0
119 153 0
130 159 0
116 151 0
121 154 0
123 156 0
112 149 0
125 157 0
121 154 0
112 149 0
132 161 0
118 153 0
126 157 0
134 162 0
121 154 0
128 158 0
111 148 0
118 152 0
121 154 0
118 152 0
116 151 0
111 148 0
123 156 0
125 156 0
124 156 0
125 157 0
125 157 0
123 156 0
113 150 0
116 151 0
129 159 0
131 160 0
112 149 0
126 157 0
115 151 0
124 156 0
117 152 0
124 156 0
123 156 0
132 161 0
116 151 0
122 155 0
131 161 0
126 157 0
120 154 0
118 153 0
120 154 0
127 158 0
113 150 0
124 156 0
132 161 0
126 157 0
134 162 0
129 159 0
120 154 0
124 156 0
118 152 0
127 158 0
130 160 0
122 155 0
126 157 0
123 155 0
119 153 0
127 158 0
120 154 0
113 150 0
122 155 0
118 153 0
118 153 0
129 159 0
120 153 0
117 152 0
129 159 0
122 155 0
117 152 0
120 154 0
125 157 0
124 156 0
126 157 0
123 156 0
118 153 0
129 159 0
118 152 0
118 153 0
122 155 0
115 151 0
134 162 0
123 156 0
117 152 0
120 154 0
122 155 0
127 158 0
120 154 0
120 154 0
125 157 0
124 156 0
118 152 0
112 149 0
116 151 0
117 152 0
120 154 0
119 153 0
130 160 0
119 153 0
125 157 0
124 156 0
128 159 0
116 152 0
111 148 0
121 155 0
121 154 0
112 149 0
112 149 0
121 154 0
121 154 0
117 152 0
122 155 0
121 154 0
118 153 0
121 154 0
119 153 0
125 157 0
121 154 0
119 153 0
117 152 0
116 151 0
117 152 0
118 153 0
116 152 0
112 149 0
128 159 0
123 156 0
120 154 0
122 155 0
118 153 0
121 154 0
117 152 0
117 152 0
114 150 0
121 154 0
116 151 0
121 155 0
121 155 0
119 153 0
113 149 0
123 155 0
119 153 0
117 152 0
116 151 0
122 155 0
114 150 0
118 153 0
119 153 0
119 153 0
119 153 0
115 151 0
121 155 0
115 151 0
118 153 0
118 153 0
117 152 0
120 154 0
116 151 0
118 153 0
114 150 0
120 153 0
118 153 0
119 153 0
115 151 0
119 153 0
121 154 0
119 153 0
111 148 0
115 151 0
114 150 0
111 148 0
118 153 0
115 151 0
120 154 0
123 156 0
115 151 0
118 153 0
114 150 0
118 153 0
112 149 0
114 150 0
124 156 0
117 152 0
119 153 0
113 150 0
120 154 0
123 155 0
114 150 0
112 149 0
114 150 0
123 155 0
119 153 0
124 156 0
115 151 0
105 145 0
104 144 0
104 144 0
104 144 0
111 148 0
107 146 0
104 144 0
105 144 0
108 146 0
104 144 0
105 145 0
103 144 0
105 144 0
104 144 0
106 145 0
103 143 0
105 145 0
105 145 0
104 144 0
106 145 0
105 145 0
103 143 0
106 145 0
105 145 0
106 146 0
106 145 0
105 145 0
106 146 0
105 145 0
103 143 0
107 146 0
104 144 0
107 146 0
106 145 0
106 145 0
106 145 0
104 144 0
105 145 0
103 144 0
108 146 0
104 144 0
107 146 0
106 145 0
106 145 0
108 146 0
106 145 0
105 145 0
109 147 0
106 145 0
104 144 0
107 146 0
104 144 0
106 145 0
109 147 0
108 146 0
104 144 0
105 145 0
103 144 0
104 144 0
104 144 0
103 144 0
104 144 0
107 146 0
99 136 0
106 145 0
103 144 0
107 146 0
104 144 0
107 146 0
104 144 0
104 144 0
107 146 0
107 146 0
106 145 0
110 148 0
106 145 0
104 144 0
105 144 0
107 146 0
106 145 0
104 144 0
106 145 0
104 144 0
100 136 0
107 146 0
108 146 0
105 145 0
109 147 0
104 144 0
104 144 0
113 149 0
109 147 0
107 146 0
106 145 0
105 145 0
103 144 0
107 146 0
104 144 0
104 144 0
103 144 0
100 136 0
103 144 0
104 144 0
113 150 0
109 147 0
105 145 0
114 150 0
103 144 0
108 147 0
106 146 0
106 145 0
109 147 0
112 149 0
114 150 0
106 145 0
113 150 0
108 146 0
111 148 0
108 146 0
113 149 0
113 150 0
108 146 0
110 148 0
109 147 0
107 146 0
105 145 0
114 150 0
108 141 0
106 145 0
106 146 0
111 149 0
98 135 0
109 147 0
106 146 0
109 147 0
104 139 0
108 146 0
111 148 0
108 147 0
108 146 0
115 151 0
104 144 0
114 150 0
110 148 0
119 153 0
123 156 0
109 147 0
112 149 0
111 148 0
111 149 0
123 156 0
113 150 0
108 147 0
121 154 0
118 152 0
111 148 0
107 140 0
122 155 0
109 147 0
109 147 0
108 146 0
114 150 0
111 149 0
101 137 0
108 146 0
110 148 0
106 145 0
112 149 0
117 152 0
117 152 0
114 150 0
109 147 0
110 148 0
124 156 0
113 144 0
113 150 0
116 151 0
102 137 0
112 149 0
119 153 0
128 159 0
110 148 0
107 146 0
106 145 0
122 155 0
132 161 0
122 155 0
116 152 0
121 154 0
111 148 0
119 153 0
113 149 0
115 151 0
116 151 0
112 149 0
120 154 0
115 151 0
119 153 0
120 154 0
122 155 0
122 155 0
136 164 0
116 151 0
122 155 0
122 155 0
115 151 0
118 153 0
118 153 0
119 153 0
113 150 0
131 160 0
116 151 0
114 150 0
125 157 0
131 160 0
118 153 0
116 152 0
116 151 0
124 156 0
122 155 0
123 155 0
125 157 0
122 155 0
118 153 0
118 152 0
119 153 0
117 152 0
128 159 0
129 159 0
123 155 0
132 161 0
127 158 0
133 162 0
121 154 0
136 163 0
132 161 0
127 158 0
115 151 0
120 154 0
123 155 0
129 159 0
122 155 0
123 156 0
123 155 0
121 154 0
125 157 0
115 151 0
115 151 0
126 158 0
128 158 0
128 159 0
126 157 0
118 152 0
120 153 0
121 154 0
129 159 0
119 153 0
121 154 0
122 155 0
114 150 0
124 156 0
126 158 0
121 154 0
124 156 0
114 150 0
115 151 0
128 158 0
122 155 0
119 153 0
121 155 0
125 157 0
127 158 0
121 154 0
126 157 0
119 153 0
122 155 0
120 154 0
124 156 0
130 160 0
123 155 0
117 152 0
119 153 0
122 155 0
118 153 0
124 156 0
129 159 0
122 155 0
120 153 0
127 158 0
131 161 0
122 155 0
117 152 0
126 157 0
125 156 0
120 154 0
123 156 0
128 158 0
120 154 0
112 149 0
119 153 0
117 152 0
119 153 0
118 153 0
125 156 0
124 156 0
121 155 0
122 155 0
122 155 0
119 153 0
114 150 0
120 154 0
121 154 0
118 152 0
119 153 0
120 154 0
120 154 0
119 153 0
116 151 0
119 153 0
119 153 0
125 157 0
117 152 0
122 155 0
122 155 0
118 153 0
122 155 0
115 151 0
118 153 0
114 150 0
121 155 0
118 153 0
117 152 0
120 154 0
121 154 0
119 153 0
116 151 0
122 155 0
120 154 0
119 153 0
125 157 0
120 154 0
124 156 0
112 149 0
122 155 0
116 151 0
111 148 0
109 147 0
128 159 0
119 153 0
119 153 0
121 154 0
119 153 0
117 152 0
111 149 0
115 151 0
115 151 0
116 151 0
120 154 0
118 152 0
116 151 0
111 148 0
119 153 0
120 154 0
116 151 0
122 155 0
117 152 0
117 152 0
117 152 0
117 152 0
125 157 0
120 154 0
112 149 0
119 153 0
123 155 0
113 149 0
113 150 0
120 154 0
111 148 0
116 151 0
121 154 0
117 152 0
116 152 0
119 153 0
120 154 0
123 155 0
114 150 0
119 153 0
114 150 0
113 150 0
121 154 0
117 152 0
115 151 0
116 151 0
120 154 0
118 152 0
123 155 0
114 150 0
116 151 0
116 151 0
112 149 0
104 144 0
105 145 0
107 146 0
106 146 0
106 145 0
106 145 0
105 145 0
106 145 0
107 146 0
104 144 0
108 146 0
104 144 0
105 145 0
106 146 0
106 145 0
107 146 0
107 146 0
105 145 0
104 144 0
103 144 0
104 144 0
106 146 0
107 146 0
104 144 0
105 145 0
104 144 0
108 146 0
105 145 0
103 144 0
107 146 0
106 145 0
105 145 0
104 144 0
108 146 0
107 146 0
109 147 0
102 143 0
106 146 0
106 146 0
103 144 0
104 144 0
105 145 0
106 145 0
105 145 0
106 145 0
105 145 0
106 145 0
109 147 0
104 144 0
107 146 0
103 144 0
106 145 0
103 143 0
106 145 0
108 147 0
106 145 0
107 146 0
104 144 0
107 146 0
107 146 0
106 145 0
107 146 0
106 145 0
105 145 0
107 146 0
110 148 0
107 146 0
105 145 0
104 144 0
106 145 0
108 146 0
105 145 0
105 145 0
103 144 0
106 145 0
110 148 0
106 146 0
108 146 0
103 144 0
105 145 0
107 146 0
106 146 0
108 147 0
109 147 0
108 146 0
107 146 0
106 145 0
110 148 0
102 143 0
105 145 0
110 148 0
108 146 0
107 146 0
112 149 0
108 147 0
108 146 0
108 147 0
108 146 0
112 149 0
106 145 0
107 146 0
104 144 0
108 146 0
105 145 0
109 147 0
107 146 0
107 146 0
109 147 0
109 147 0
107 146 0
109 147 0
106 145 0
114 150 0
105 145 0
102 143 0
107 146 0
105 145 0
109 147 0
109 147 0
104 144 0
108 146 0
107 146 0
111 148 0
110 148 0
108 146 0
108 146 0
112 149 0
111 148 0
108 146 0
117 152 0
100 137 0
115 151 0
105 145 0
99 136 0
112 149 0
107 146 0
109 147 0
112 149 0
111 148 0
109 147 0
108 147 0
108 147 0
109 147 0
107 146 0
98 135 0
113 149 0
106 145 0
119 153 0
125 157 0
113 150 0
113 149 0
108 146 0
109 147 0
109 147 0
125 157 0
114 150 0
114 150 0
107 146 0
108 147 0
126 157 0
112 149 0
114 150 0
114 150 0
127 158 0
110 148 0
107 146 0
126 157 0
118 153 0
116 151 0
114 150 0
114 150 0
115 150 0
111 148 0
115 150 0
120 154 0
119 153 0
112 149 0
117 152 0
111 148 0
124 156 0
126 157 0
117 152 0
115 151 0
120 154 0
112 149 0
131 160 0
119 153 0
114 150 0
131 160 0
124 156 0
120 154 0
130 160 0
116 151 0
122 155 0
116 151 0
123 156 0
123 156 0
122 155 0
121 154 0
117 152 0
109 147 0
118 153 0
120 154 0
112 149 0
133 161 0
118 153 0
124 156 0
120 154 0
116 151 0
118 152 0
128 159 0
119 153 0
127 158 0
117 152 0
116 151 0
126 157 0
115 151 0
129 159 0
125 157 0
113 150 0
126 157 0
118 153 0
118 152 0
127 158 0
127 158 0
129 159 0
130 160 0
118 152 0
131 160 0
132 161 0
124 156 0
121 154 0
116 152 0
120 154 0
115 151 0
123 155 0
118 153 0
118 153 0
133 161 0
125 157 0
123 156 0
120 154 0
124 156 0
123 155 0
126 157 0
120 154 0
123 155 0
130 160 0
127 158 0
120 154 0
117 152 0
115 151 0
116 151 0
129 159 0
123 156 0
121 154 0
124 156 0
116 152 0
123 156 0
117 152 0
133 161 0
120 154 0
120 154 0
123 155 0
120 154 0
117 152 0
116 151 0
122 155 0
127 158 0
126 157 0
132 161 0
119 153 0
116 151 0
122 155 0
113 150 0
121 154 0
120 154 0
122 155 0
126 157 0
126 157 0
117 152 0
120 154 0
115 151 0
123 155 0
122 155 0
127 158 0
130 159 0
130 160 0
121 154 0
123 156 0
124 156 0
121 154 0
123 156 0
121 154 0
125 157 0
125 156 0
122 155 0
125 157 0
114 150 0
124 156 0
122 155 0
121 154 0
120 154 0
117 152 0
127 158 0
117 152 0
131 160 0
117 152 0
121 154 0
128 158 0
118 152 0
123 156 0
125 157 0
114 150 0
122 155 0
118 152 0
127 158 0
117 152 0
114 150 0
123 155 0
122 155 0
117 152 0
123 156 0
116 151 0
123 156 0
119 153 0
125 157 0
119 153 0
123 155 0
123 155 0
114 150 0
117 152 0
119 153 0
120 153 0
119 153 0
122 155 0
118 153 0
114 150 0
117 152 0
114 150 0
118 153 0
116 152 0
123 156 0
119 153 0
116 151 0
119 153 0
117 152 0
124 156 0
116 151 0
114 150 0
115 151 0
118 152 0
114 150 0
118 152 0
124 156 0
117 152 0
122 155 0
122 155 0
116 151 0
119 153 0
113 149 0
120 154 0
115 151 0
116 151 0
121 154 0
118 152 0
122 155 0
116 151 0
123 155 0
121 154 0
123 155 0
115 151 0
118 152 0
124 156 0
112 149 0
116 151 0
122 155 0
114 150 0
121 154 0
114 150 0
117 152 0
113 149 0
116 151 0
119 153 0
113 149 0
119 153 0
113 149 0
117 152 0
112 149 0
115 151 0
121 154 0
118 152 0
124 156 0
120 154 0
121 154 0
113 150 0
127 158 0
121 154 0
115 151 0
113 149 0
103 144 0
104 144 0
106 145 0
105 145 0
108 146 0
105 145 0
106 145 0
106 146 0
110 148 0
105 145 0
105 145 0
105 145 0
108 146 0
105 145 0
108 147 0
106 145 0
104 144 0
105 145 0
104 144 0
106 145 0
103 144 0
104 144 0
107 146 0
104 144 0
107 146 0
105 145 0
104 144 0
107 146 0
106 145 0
107 146 0
106 145 0
103 144 0
107 146 0
104 144 0
105 145 0
109 147 0
108 146 0
105 145 0
103 144 0
108 146 0
106 145 0
105 145 0
106 146 0
104 144 0
103 144 0
106 145 0
106 145 0
107 146 0
108 147 0
103 143 0
115 151 0
103 143 0
104 144 0
103 143 0
105 145 0
106 146 0
105 144 0
104 144 0
109 147 0
106 146 0
105 145 0
107 146 0
105 145 0
107 146 0
105 145 0
109 147 0
104 144 0
105 145 0
106 145 0
105 145 0
109 147 0
106 145 0
105 145 0
105 145 0
106 145 0
112 149 0
108 146 0
99 135 0
107 146 0
107 146 0
101 137 0
106 145 0
108 147 0
106 145 0
112 149 0
104 144 0
103 144 0
107 146 0
109 147 0
105 145 0
103 143 0
109 147 0
109 147 0
105 145 0
104 144 0
106 145 0
110 148 0
106 145 0
108 147 0
105 145 0
115 151 0
113 149 0
108 147 0
106 146 0
107 146 0
102 138 0
104 144 0
108 147 0
112 149 0
107 146 0
109 147 0
107 146 0
107 146 0
105 145 0
101 137 0
106 145 0
109 147 0
107 146 0
105 145 0
111 148 0
115 151 0
108 146 0
110 148 0
104 144 0
110 148 0
111 148 0
114 150 0
109 147 0
104 144 0
110 148 0
109 147 0
113 150 0
125 157 0
118 152 0
107 146 0
109 147 0
104 139 0
112 149 0
107 146 0
109 147 0
108 147 0
111 148 0
110 148 0
106 145 0
122 155 0
107 146 0
114 150 0
109 147 0
110 147 0
110 147 0
111 148 0
113 150 0
115 151 0
105 144 0
111 148 0
109 147 0
118 153 0
117 152 0
115 151 0
119 153 0
117 152 0
111 149 0
108 146 0
116 152 0
124 156 0
108 146 0
104 139 0
113 150 0
116 151 0
114 150 0
130 159 0
129 159 0
111 149 0
115 151 0
113 149 0
129 159 0
121 154 0
123 156 0
121 154 0
124 156 0
119 153 0
112 149 0
116 151 0
112 149 0
107 146 0
114 150 0
115 151 0
107 146 0
113 149 0
128 158 0
124 156 0
127 158 0
123 156 0
124 156 0
117 152 0
113 149 0
116 151 0
110 147 0
115 151 0
118 152 0
120 154 0
118 153 0
110 148 0
118 152 0
110 148 0
120 154 0
124 156 0
122 155 0
116 151 0
121 154 0
116 152 0
121 154 0
122 155 0
109 147 0
121 154 0
120 154 0
118 152 0
109 147 0
115 151 0
115 150 0
121 154 0
121 154 0
118 153 0
111 148 0
124 156 0
126 157 0
119 153 0
116 151 0
127 158 0
131 160 0
119 153 0
122 155 0
118 152 0
124 156 0
122 155 0
126 157 0
122 155 0
123 156 0
112 149 0
129 159 0
126 157 0
119 153 0
116 152 0
128 159 0
133 161 0
130 160 0
127 158 0
113 150 0
116 151 0
121 155 0
122 155 0
118 153 0
134 162 0
121 154 0
119 153 0
123 155 0
118 152 0
120 154 0
112 149 0
119 153 0
116 151 0
140 166 0
118 152 0
124 156 0
127 158 0
121 154 0
119 153 0
121 154 0
124 156 0
122 155 0
122 155 0
116 152 0
116 151 0
125 157 0
113 150 0
123 156 0
121 155 0
122 155 0
126 157 0
126 157 0
109 147 0
123 156 0
123 155 0
121 154 0
116 151 0
121 154 0
128 158 0
124 156 0
123 156 0
119 153 0
123 156 0
115 151 0
115 151 0
119 153 0
113 149 0
117 152 0
111 149 0
124 156 0
120 154 0
116 151 0
119 153 0
117 152 0
126 157 0
129 159 0
126 157 0
119 153 0
117 152 0
114 150 0
114 150 0
126 157 0
124 156 0
120 154 0
120 154 0
121 154 0
121 154 0
118 153 0
121 154 0
117 152 0
127 158 0
118 153 0
124 156 0
119 153 0
113 150 0
123 155 0
117 152 0
119 153 0
122 155 0
115 151 0
113 150 0
121 154 0
119 153 0
123 155 0
117 152 0
127 158 0
122 155 0
115 150 0
123 156 0
118 152 0
122 155 0
122 155 0
121 154 0
119 153 0
113 150 0
117 152 0
119 153 0
122 155 0
120 154 0
114 150 0
123 155 0
116 151 0
116 151 0
121 154 0
112 149 0
115 151 0
119 153 0
119 153 0
120 154 0
120 153 0
118 153 0
127 158 0
119 153 0
126 158 0
119 153 0
122 155 0
122 155 0
121 154 0
126 157 0
115 151 0
122 155 0
125 157 0
114 150 0
116 151 0
125 157 0
115 151 0
120 154 0
120 154 0
114 150 0
123 155 0
111 148 0
119 153 0
116 151 0
120 154 0
118 152 0
117 152 0
119 153 0
123 156 0
117 152 0
115 151 0
119 153 0
115 151 0
115 151 0
114 150 0
124 156 0
116 151 0
114 150 0
121 154 0
113 149 0
115 151 0
120 154 0
118 152 0
107 146 0
108 147 0
106 146 0
108 147 0
104 144 0
109 147 0
106 145 0
104 144 0
106 145 0
105 145 0
106 145 0
105 145 0
105 145 0
104 144 0
110 148 0
107 146 0
106 146 0
103 143 0
105 145 0
104 144 0
106 145 0
110 148 0
111 148 0
109 147 0
105 145 0
110 148 0
105 145 0
106 145 0
105 144 0
110 147 0
109 147 0
105 145 0
104 144 0
106 145 0
105 144 0
106 146 0
108 146 0
106 145 0
104 144 0
108 147 0
105 145 0
107 146 0
103 143 0
106 145 0
106 145 0
98 135 0
105 145 0
107 146 0
106 145 0
108 146 0
107 146 0
108 146 0
104 144 0
104 144 0
104 144 0
106 145 0
108 146 0
109 147 0
108 147 0
105 145 0
105 144 0
106 145 0
108 146 0
107 146 0
105 144 0
108 147 0
107 146 0
105 145 0
112 149 0
109 147 0
105 145 0
107 146 0
107 146 0
106 145 0
108 146 0
106 146 0
108 147 0
110 147 0
106 145 0
105 144 0
109 147 0
104 144 0
107 146 0
103 144 0
106 145 0
107 146 0
103 144 0
104 144 0
107 146 0
107 146 0
106 145 0
110 148 0
109 147 0
111 148 0
110 147 0
99 136 0
109 147 0
104 144 0
104 144 0
109 147 0
112 149 0
104 144 0
105 145 0
110 148 0
108 146 0
107 146 0
105 144 0
106 146 0
108 147 0
106 146 0
100 136 0
103 138 0
105 145 0
110 148 0
108 146 0
105 144 0
108 147 0
112 149 0
107 146 0
108 146 0
112 149 0
100 136 0
110 148 0
107 146 0
106 145 0
105 145 0
107 146 0
112 149 0
100 136 0
108 141 0
113 149 0
113 149 0
119 153 0
113 150 0
117 152 0
106 145 0
98 135 0
102 138 0
117 152 0
105 145 0
116 151 0
120 154 0
109 147 0
109 147 0
105 145 0
109 147 0
113 149 0
111 149 0
106 145 0
123 155 0
107 146 0
103 138 0
112 149 0
123 155 0
122 155 0
128 158 0
109 147 0
109 142 0
124 156 0
123 156 0
120 154 0
117 152 0
118 153 0
118 152 0
120 154 0
119 153 0
114 150 0
120 154 0
119 153 0
114 150 0
124 156 0
111 148 0
106 145 0
126 158 0
109 147 0
121 155 0
112 143 0
131 161 0
116 152 0
110 148 0
112 149 0
112 149 0
117 152 0
110 148 0
114 150 0
114 150 0
109 147 0
119 153 0
125 157 0
114 150 0
126 157 0
111 148 0
111 149 0
119 153 0
109 147 0
112 149 0
119 153 0
115 151 0
119 153 0
125 157 0
114 150 0
119 153 0
120 154 0
123 155 0
112 149 0
120 153 0
111 148 0
122 155 0
111 148 0
126 157 0
136 163 0
117 152 0
130 160 0
116 151 0
120 154 0
120 154 0
124 156 0
126 157 0
130 160 0
122 155 0
119 153 0
121 154 0
130 160 0
116 151 0
124 156 0
120 154 0
113 150 0
123 155 0
126 157 0
116 152 0
127 158 0
122 155 0
124 156 0
114 150 0
124 156 0
125 157 0
115 150 0
127 158 0
135 163 0
116 152 0
117 152 0
126 157 0
127 158 0
122 155 0
123 155 0
128 159 0
118 153 0
131 160 0
138 164 0
129 159 0
122 155 0
122 155 0
130 160 0
121 154 0
131 160 0
119 153 0
121 154 0
136 163 0
128 159 0
123 156 0
111 148 0
121 154 0
129 159 0
122 155 0
124 156 0
116 152 0
125 157 0
125 157 0
115 151 0
124 156 0
118 153 0
123 155 0
128 158 0
124 156 0
130 160 0
120 154 0
125 157 0
121 154 0
117 152 0
113 149 0
116 151 0
112 149 0
113 150 0
126 157 0
125 157 0
120 154 0
119 153 0
120 153 0
120 154 0
118 152 0
117 152 0
124 156 0
124 156 0
121 154 0
124 156 0
126 157 0
129 159 0
118 153 0
120 154 0
122 155 0
118 153 0
121 154 0
121 155 0
128 159 0
119 153 0
123 156 0
123 156 0
119 153 0
118 153 0
123 155 0
132 161 0
124 156 0
124 156 0
121 154 0
121 154 0
126 157 0
123 156 0
129 159 0
119 153 0
120 154 0
123 156 0
123 155 0
118 153 0
122 155 0
122 155 0
123 156 0
116 152 0
120 154 0
129 159 0
118 152 0
115 151 0
120 154 0
117 152 0
121 154 0
120 154 0
118 152 0
116 151 0
124 156 0
122 155 0
121 154 0
124 156 0
115 150 0
118 152 0
120 154 0
120 154 0
117 152 0
117 152 0
122 155 0
120 154 0
114 150 0
119 153 0
112 149 0
112 149 0
119 153 0
120 154 0
112 149 0
119 153 0
118 152 0
119 153 0
117 152 0
118 153 0
118 152 0
121 154 0
117 152 0
117 152 0
118 152 0
121 154 0
116 151 0
124 156 0
119 153 0
113 150 0
118 152 0
115 151 0
115 151 0
115 151 0
120 154 0
121 154 0
114 150 0
117 152 0
115 151 0
117 152 0
117 152 0
127 158 0
119 153 0
116 151 0
118 153 0
112 149 0
125 157 0
115 151 0
114 150 0
119 153 0
112 149 0
120 154 0
116 151 0
115 151 0
119 153 0
117 152 0
119 153 0
120 154 0
117 152 0
103 143 0
105 145 0
105 145 0
108 147 0
106 145 0
105 145 0
106 146 0
107 146 0
104 144 0
108 146 0
104 144 0
106 145 0
105 145 0
105 145 0
105 145 0
103 144 0
103 144 0
108 146 0
107 146 0
109 147 0
104 144 0
103 144 0
104 144 0
106 145 0
104 144 0
105 145 0
109 147 0
106 145 0
108 147 0
108 146 0
108 146 0
103 144 0
108 146 0
108 146 0
109 147 0
110 148 0
108 146 0
105 145 0
105 145 0
105 145 0
106 146 0
103 143 0
107 146 0
106 145 0
107 146 0
105 145 0
104 144 0
104 144 0
104 144 0
104 144 0
109 147 0
104 144 0
105 145 0
107 146 0
105 145 0
112 149 0
106 145 0
109 147 0
106 145 0
104 144 0
105 145 0
104 144 0
104 144 0
106 145 0
104 144 0
107 146 0
108 147 0
105 145 0
107 146 0
107 146 0
104 144 0
106 145 0
106 145 0
103 144 0
105 145 0
106 145 0
108 147 0
110 148 0
104 144 0
106 145 0
109 147 0
106 145 0
106 145 0
107 146 0
107 146 0
110 148 0
111 148 0
108 146 0
105 145 0
105 145 0
105 145 0
105 145 0
108 147 0
104 144 0
104 144 0
106 145 0
113 150 0
107 146 0
104 144 0
116 151 0
113 150 0
106 145 0
101 137 0
108 146 0
106 145 0
107 146 0
107 146 0
108 146 0
116 151 0
111 148 0
107 146 0
102 143 0
106 145 0
106 145 0
107 146 0
108 147 0
108 147 0
105 145 0
106 145 0
106 145 0
110 148 0
96 128 0
110 147 0
110 148 0
109 147 0
103 138 0
99 136 0
116 151 0
105 145 0
119 153 0
109 147 0
107 146 0
112 149 0
106 145 0
106 145 0
101 137 0
113 149 0
104 144 0
105 145 0
109 147 0
126 158 0
117 152 0
112 149 0
106 140 0
110 148 0
106 145 0
107 146 0
110 148 0
112 149 0
107 146 0
116 151 0
103 138 0
109 147 0
118 153 0
111 148 0
103 144 0
113 150 0
115 151 0
114 150 0
113 150 0
115 151 0
120 154 0
114 150 0
114 150 0
120 154 0
110 148 0
118 152 0
106 145 0
109 147 0
121 154 0
116 151 0
123 156 0
116 151 0
122 155 0
127 158 0
124 156 0
119 153 0
114 150 0
114 150 0
120 154 0
110 148 0
115 150 0
118 153 0
117 152 0
128 158 0
125 157 0
112 149 0
114 150 0
134 162 0
123 150 0
132 161 0
114 150 0
119 153 0
117 152 0
135 163 0
116 151 0
120 153 0
125 157 0
119 153 0
123 156 0
128 159 0
114 150 0
120 154 0
118 153 0
118 152 0
123 156 0
125 156 0
127 158 0
119 153 0
127 158 0
138 164 0
122 155 0
126 157 0
109 147 0
121 154 0
124 156 0
122 155 0
120 154 0
115 151 0
122 155 0
127 158 0
123 156 0
119 153 0
113 149 0
122 155 0
129 159 0
120 153 0
119 153 0
119 153 0
122 155 0
121 154 0
131 161 0
125 157 0
123 155 0
128 159 0
121 155 0
127 158 0
111 148 0
132 161 0
118 153 0
121 154 0
128 159 0
120 154 0
119 153 0
129 159 0
127 158 0
121 154 0
126 157 0
123 155 0
128 158 0
123 155 0
118 152 0
125 157 0
125 157 0
115 151 0
125 157 0
123 156 0
125 156 0
120 154 0
129 159 0
122 155 0
124 156 0
122 155 0
115 151 0
118 153 0
124 156 0
118 153 0
122 155 0
122 155 0
119 153 0
120 154 0
125 157 0
127 158 0
124 156 0
121 154 0
125 157 0
121 155 0
129 159 0
121 154 0
132 161 0
117 152 0
122 155 0
130 160 0
121 154 0
131 160 0
125 157 0
132 161 0
119 153 0
121 154 0
124 156 0
125 157 0
118 152 0
116 151 0
121 155 0
126 157 0
123 156 0
121 154 0
120 153 0
119 153 0
123 156 0
121 154 0
119 153 0
125 156 0
128 158 0
117 152 0
120 154 0
122 155 0
119 153 0
116 151 0
130 160 0
116 151 0
121 154 0
117 152 0
122 155 0
124 156 0
120 154 0
114 150 0
123 156 0
113 150 0
120 154 0
121 154 0
112 149 0
120 154 0
123 156 0
119 153 0
122 155 0
117 152 0
116 151 0
117 152 0
116 151 0
116 152 0
125 157 0
117 152 0
121 155 0
118 153 0
122 155 0
116 152 0
120 154 0
118 153 0
121 154 0
120 153 0
121 154 0
114 150 0
116 151 0
122 155 0
122 155 0
119 153 0
117 152 0
112 149 0
118 153 0
120 154 0
125 157 0
126 157 0
116 151 0
115 151 0
122 155 0
117 152 0
112 149 0
120 154 0
123 155 0
118 152 0
121 154 0
115 150 0
114 150 0
115 150 0
117 152 0
117 152 0
113 150 0
119 153 0
115 151 0
115 151 0
119 153 0
118 152 0
114 150 0
118 153 0
118 153 0
121 154 0
122 155 0
120 154 0
112 149 0
116 151 0
121 154 0
118 152 0
121 155 0
111 149 0
118 152 0
118 152 0
123 156 0
122 155 0
118 153 0
111 148 0
117 152 0
111 148 0
117 152 0
116 151 0
123 156 0
114 150 0
115 151 0
112 149 0
121 154 0
107 146 0
108 146 0
107 146 0
103 143 0
108 147 0
108 146 0
105 145 0
103 144 0
104 144 0
106 145 0
106 145 0
103 144 0
108 146 0
110 148 0
103 144 0
107 146 0
103 144 0
108 147 0
106 145 0
106 145 0
105 145 0
107 146 0
105 145 0
107 146 0
111 148 0
105 145 0
104 144 0
103 143 0
106 145 0
107 146 0
109 147 0
104 144 0
106 145 0
104 144 0
107 146 0
109 147 0
107 146 0
103 143 0
104 144 0
107 146 0
105 144 0
105 145 0
106 146 0
104 144 0
104 144 0
105 145 0
105 144 0
108 146 0
105 145 0
104 144 0
103 143 0
110 147 0
113 149 0
104 144 0
106 145 0
110 148 0
110 148 0
109 147 0
107 146 0
104 144 0
106 145 0
110 148 0
107 146 0
105 145 0
105 145 0
105 145 0
106 145 0
107 146 0
103 144 0
109 147 0
108 147 0
106 145 0
106 145 0
106 145 0
107 146 0
108 147 0
104 144 0
117 152 0
107 146 0
109 147 0
107 146 0
112 149 0
110 148 0
103 144 0
109 147 0
107 146 0
106 145 0
111 148 0
104 144 0
104 144 0
101 137 0
105 145 0
116 151 0
108 146 0
110 148 0
113 149 0
105 145 0
108 146 0
106 145 0
108 147 0
110 148 0
109 147 0
108 146 0
101 137 0
108 146 0
112 149 0
108 146 0
108 146 0
107 146 0
114 150 0
111 148 0
107 146 0
110 148 0
105 144 0
99 136 0
100 136 0
111 148 0
110 147 0
104 144 0
113 149 0
107 146 0
101 137 0
106 145 0
115 150 0
104 144 0
108 147 0
114 150 0
108 146 0
109 147 0
108 146 0
109 147 0
113 149 0
106 146 0
109 147 0
123 155 0
108 147 0
116 151 0
122 155 0
97 135 0
108 147 0
114 150 0
104 138 0
107 146 0
110 147 0
105 139 0
120 154 0
115 151 0
116 146 0
122 155 0
122 155 0
110 148 0
110 148 0
102 138 0
109 147 0
104 139 0
105 139 0
118 152 0
112 149 0
106 145 0
111 149 0
135 162 0
105 145 0
120 154 0
116 152 0
115 151 0
117 147 0
115 151 0
110 148 0
106 140 0
120 154 0
121 154 0
114 150 0
118 147 0
119 153 0
109 147 0
118 152 0
116 152 0
121 154 0
118 153 0
106 146 0
110 148 0
120 154 0
125 157 0
117 152 0
124 156 0
115 151 0
118 153 0
122 155 0
113 149 0
109 147 0
125 157 0
120 153 0
121 154 0
118 153 0
129 159 0
124 156 0
128 158 0
117 152 0
129 159 0
116 151 0
117 152 0
110 148 0
132 161 0
134 162 0
128 159 0
117 152 0
121 155 0
129 159 0
116 152 0
119 153 0
129 159 0
134 162 0
123 156 0
111 148 0
128 159 0
121 154 0
130 160 0
126 157 0
113 150 0
120 154 0
135 162 0
129 159 0
116 151 0
119 153 0
119 153 0
122 155 0
117 152 0
124 156 0
136 163 0
128 158 0
134 162 0
120 154 0
120 154 0
120 154 0
132 161 0
117 152 0
120 154 0
120 154 0
123 156 0
140 165 0
127 158 0
123 156 0
125 156 0
131 160 0
123 155 0
126 157 0
124 156 0
114 150 0
119 153 0
115 150 0
113 150 0
125 157 0
134 162 0
118 153 0
128 158 0
130 159 0
123 156 0
119 153 0
124 156 0
118 152 0
121 154 0
122 155 0
124 156 0
127 158 0
127 158 0
116 151 0
120 153 0
123 156 0
122 155 0
115 151 0
118 153 0
119 153 0
123 156 0
125 157 0
126 157 0
123 155 0
128 159 0
118 153 0
125 156 0
124 156 0
124 156 0
120 154 0
117 152 0
121 155 0
130 160 0
123 155 0
124 156 0
118 153 0
123 156 0
130 160 0
120 154 0
118 152 0
114 150 0
129 159 0
129 159 0
126 158 0
123 156 0
118 152 0
119 153 0
129 159 0
122 155 0
130 160 0
125 157 0
126 158 0
120 154 0
130 160 0
123 156 0
117 152 0
121 154 0
116 151 0
122 155 0
119 153 0
116 151 0
119 153 0
123 155 0
117 152 0
126 157 0
130 160 0
112 149 0
126 157 0
122 155 0
114 150 0
127 158 0
121 154 0
120 154 0
123 156 0
118 153 0
119 153 0
124 156 0
121 154 0
119 153 0
122 155 0
116 151 0
125 157 0
120 154 0
121 154 0
112 149 0
127 158 0
118 153 0
123 155 0
125 157 0
117 152 0
124 156 0
123 155 0
125 157 0
123 155 0
122 155 0
114 150 0
122 155 0
112 149 0
115 151 0
125 157 0
120 154 0
125 157 0
116 152 0
125 157 0
126 157 0
115 151 0
120 154 0
114 150 0
124 156 0
121 154 0
116 151 0
115 151 0
111 148 0
119 153 0
116 152 0
112 149 0
112 149 0
111 148 0
109 147 0
119 153 0
114 150 0
118 153 0
125 157 0
110 148 0
119 153 0
122 155 0
118 153 0
113 150 0
117 152 0
123 155 0
115 151 0
115 151 0
114 150 0
120 153 0
112 149 0
117 152 0
123 155 0
116 151 0
119 153 0
115 151 0
111 148 0
115 151 0
118 153 0
119 153 0
126 157 0
117 152 0
113 150 0
123 156 0
108 146 0
105 145 0
105 145 0
106 146 0
104 144 0
103 143 0
108 147 0
106 145 0
104 144 0
106 145 0
104 144 0
109 147 0
107 146 0
104 144 0
106 145 0
108 146 0
107 146 0
109 147 0
106 145 0
104 144 0
106 145 0
105 145 0
107 146 0
107 146 0
106 145 0
111 148 0
106 145 0
109 147 0
105 145 0
105 144 0
106 145 0
103 143 0
107 146 0
104 144 0
105 145 0
104 144 0
105 145 0
107 146 0
105 145 0
106 145 0
110 148 0
103 143 0
107 146 0
108 146 0
104 144 0
113 150 0
105 145 0
104 144 0
105 145 0
107 146 0
107 146 0
109 147 0
103 144 0
103 144 0
104 144 0
109 147 0
107 146 0
111 148 0
104 144 0
108 147 0
104 144 0
108 146 0
106 145 0
104 144 0
108 146 0
106 145 0
110 148 0
106 145 0
108 146 0
105 145 0
107 146 0
105 145 0
113 150 0
114 150 0
103 144 0
108 147 0
106 145 0
110 148 0
104 144 0
108 146 0
109 147 0
106 146 0
96 134 0
109 147 0
112 149 0
110 148 0
109 147 0
106 146 0
107 146 0
99 136 0
105 145 0
109 147 0
104 144 0
109 147 0
107 146 0
108 147 0
108 147 0
110 148 0
105 145 0
111 148 0
98 135 0
105 139 0
104 144 0
112 149 0
106 140 0
109 147 0
109 147 0
115 151 0
112 149 0
110 148 0
111 148 0
106 145 0
109 147 0
108 147 0
111 148 0
104 144 0
109 147 0
105 145 0
112 149 0
115 151 0
103 144 0
112 149 0
117 152 0
106 145 0
118 153 0
107 146 0
105 139 0
115 151 0
116 151 0
104 144 0
118 153 0
115 151 0
106 145 0
108 146 0
104 139 0
105 145 0
102 138 0
114 150 0
119 153 0
116 151 0
117 152 0
109 147 0
108 146 0
116 151 0
104 138 0
116 152 0
111 148 0
103 138 0
106 145 0
124 156 0
111 148 0
113 149 0
108 146 0
109 147 0
109 147 0
116 152 0
118 152 0
118 153 0
117 146 0
108 147 0
114 150 0
115 150 0
119 153 0
122 155 0
118 153 0
116 151 0
123 155 0
113 149 0
105 145 0
122 155 0
117 152 0
112 149 0
114 150 0
131 160 0
116 151 0
124 156 0
125 157 0
114 150 0
130 160 0
108 146 0
127 158 0
113 149 0
126 158 0
117 152 0
116 151 0
118 152 0
116 151 0
117 152 0
115 151 0
125 157 0
115 151 0
118 152 0
121 154 0
119 153 0
132 161 0
127 158 0
128 159 0
122 155 0
112 149 0
117 152 0
116 151 0
119 153 0
118 153 0
119 153 0
114 150 0
130 160 0
111 148 0
133 161 0
125 157 0
118 152 0
128 158 0
127 158 0
123 156 0
116 151 0
123 155 0
131 160 0
112 149 0
132 161 0
129 159 0
127 158 0
120 154 0
126 157 0
129 159 0
121 154 0
124 156 0
126 157 0
119 153 0
122 155 0
109 147 0
128 159 0
129 159 0
119 153 0
128 158 0
108 147 0
131 161 0
129 159 0
125 157 0
134 162 0
117 152 0
134 162 0
126 158 0
120 154 0
121 155 0
118 153 0
122 155 0
121 155 0
134 162 0
126 158 0
116 151 0
119 153 0
129 159 0
114 150 0
128 159 0
120 154 0
129 159 0
116 151 0
123 156 0
128 158 0
116 151 0
122 155 0
122 155 0
119 153 0
115 151 0
120 154 0
117 152 0
116 151 0
121 154 0
123 156 0
128 158 0
125 157 0
129 159 0
121 154 0
123 155 0
133 162 0
124 156 0
121 154 0
120 154 0
125 157 0
133 161 0
124 156 0
121 155 0
122 155 0
126 157 0
125 157 0
126 158 0
120 154 0
128 158 0
124 156 0
118 152 0
118 152 0
123 156 0
121 154 0
123 156 0
119 153 0
123 155 0
134 162 0
124 156 0
127 158 0
127 158 0
129 159 0
118 152 0
129 159 0
116 151 0
131 161 0
123 156 0
126 157 0
126 157 0
118 153 0
119 153 0
122 155 0
119 153 0
121 155 0
118 153 0
122 155 0
119 153 0
123 156 0
126 157 0
118 152 0
121 154 0
121 154 0
123 155 0
114 150 0
119 153 0
118 152 0
124 156 0
124 156 0
120 153 0
117 152 0
118 152 0
112 149 0
120 153 0
119 153 0
121 155 0
125 157 0
118 152 0
127 158 0
116 151 0
116 151 0
117 152 0
125 156 0
117 152 0
123 155 0
116 151 0
116 151 0
118 152 0
120 154 0
123 156 0
119 153 0
128 158 0
120 154 0
118 153 0
122 155 0
116 151 0
123 155 0
116 151 0
118 153 0
122 155 0
117 152 0
121 154 0
120 154 0
122 155 0
120 154 0
117 152 0
113 149 0
117 152 0
117 152 0
113 150 0
118 153 0
120 154 0
118 152 0
120 154 0
123 155 0
118 153 0
113 150 0
126 157 0
121 154 0
118 153 0
118 153 0
126 157 0
116 152 0
114 150 0
121 154 0
124 156 0
117 152 0
119 153 0
121 154 0
115 151 0
123 155 0
112 149 0
124 156 0
121 155 0
112 149 0
122 155 0
121 154 0
122 155 0
116 152 0
119 153 0
118 153 0
115 150 0
120 154 0
106 145 0
106 145 0
105 145 0
103 144 0
106 145 0
106 145 0
107 146 0
105 145 0
107 146 0
105 145 0
104 144 0
105 144 0
106 145 0
107 146 0
102 143 0
106 145 0
108 147 0
107 146 0
105 145 0
105 145 0
106 145 0
106 145 0
104 144 0
105 145 0
110 148 0
107 146 0
107 146 0
105 145 0
103 143 0
105 145 0
107 146 0
104 144 0
107 146 0
106 145 0
109 147 0
104 144 0
103 143 0
113 150 0
107 146 0
107 146 0
107 146 0
108 147 0
105 145 0
104 144 0
109 147 0
106 145 0
105 144 0
104 144 0
104 144 0
107 146 0
108 146 0
105 145 0
108 146 0
106 145 0
106 145 0
103 144 0
107 146 0
105 145 0
105 144 0
106 145 0
108 146 0
108 147 0
108 147 0
108 147 0
107 146 0
104 144 0
108 146 0
111 148 0
109 147 0
105 145 0
105 145 0
109 147 0
110 148 0
107 146 0
106 145 0
107 146 0
107 146 0
108 146 0
107 146 0
104 144 0
108 147 0
104 144 0
104 144 0
107 146 0
104 144 0
106 146 0
106 146 0
104 144 0
109 147 0
106 145 0
107 146 0
110 148 0
106 145 0
111 148 0
108 147 0
105 144 0
111 148 0
112 149 0
106 145 0
107 146 0
113 150 0
111 148 0
106 145 0
108 147 0
108 147 0
114 150 0
99 136 0
110 148 0
104 144 0
110 148 0
112 149 0
110 148 0
114 150 0
108 146 0
107 146 0
113 149 0
110 148 0
109 147 0
114 150 0
109 147 0
109 147 0
106 140 0
105 145 0
112 149 0
111 148 0
111 149 0
109 147 0
111 148 0
110 148 0
107 146 0
110 148 0
108 147 0
113 150 0
104 139 0
108 147 0
110 147 0
117 152 0
110 147 0
114 150 0
119 153 0
100 136 0
117 152 0
121 154 0
106 145 0
121 154 0
108 147 0
107 141 0
103 138 0
109 147 0
106 145 0
114 150 0
114 145 0
119 153 0
127 158 0
116 151 0
100 137 0
112 149 0
114 150 0
112 149 0
112 149 0
113 150 0
110 148 0
109 147 0
120 154 0
107 146 0
114 150 0
130 160 0
105 139 0
118 153 0
129 159 0
114 150 0
109 147 0
125 157 0
117 152 0
112 149 0
121 154 0
122 155 0
129 159 0
114 150 0
117 152 0
137 164 0
119 153 0
119 153 0
109 141 0
115 151 0
113 150 0
122 155 0
122 155 0
119 153 0
119 153 0
112 149 0
116 151 0
112 149 0
116 151 0
113 149 0
114 150 0
117 152 0
117 152 0
127 158 0
129 159 0
119 153 0
118 153 0
128 159 0
116 151 0
117 152 0
114 150 0
122 155 0
128 158 0
130 160 0
126 157 0
114 150 0
115 151 0
128 159 0
125 156 0
123 155 0
117 152 0
133 162 0
129 159 0
115 151 0
136 163 0
126 157 0
122 155 0
124 156 0
121 155 0
124 156 0
118 153 0
117 152 0
119 153 0
120 154 0
118 152 0
125 157 0
123 156 0
123 156 0
132 161 0
133 161 0
121 154 0
128 158 0
127 158 0
126 157 0
125 156 0
128 158 0
120 154 0
118 153 0
121 154 0
121 154 0
128 159 0
123 155 0
133 162 0
125 157 0
127 158 0
135 163 0
123 156 0
124 156 0
128 158 0
125 157 0
129 159 0
122 155 0
121 154 0
118 153 0
118 153 0
128 158 0
129 159 0
125 157 0
122 155 0
121 155 0
126 157 0
123 155 0
123 156 0
129 159 0
119 153 0
123 155 0
122 155 0
135 163 0
125 156 0
125 157 0
121 154 0
128 158 0
120 154 0
118 153 0
126 157 0
134 162 0
128 158 0
123 156 0
121 154 0
119 153 0
121 154 0
123 155 0
118 152 0
128 158 0
124 156 0
118 152 0
121 154 0
123 155 0
116 151 0
120 153 0
126 157 0
116 151 0
116 151 0
128 158 0
118 153 0
117 152 0
124 156 0
116 152 0
123 156 0
122 155 0
120 154 0
124 156 0
120 154 0
116 151 0
125 157 0
122 155 0
124 156 0
117 152 0
125 157 0
120 154 0
127 158 0
125 157 0
122 155 0
122 155 0
130 160 0
120 154 0
120 153 0
122 155 0
117 152 0
123 155 0
123 156 0
124 156 0
121 154 0
115 151 0
122 155 0
119 153 0
123 155 0
117 152 0
122 155 0
122 155 0
117 152 0
117 152 0
111 149 0
115 151 0
119 153 0
119 153 0
120 154 0
117 152 0
121 155 0
123 155 0
122 155 0
117 152 0
123 155 0
126 157 0
122 155 0
121 155 0
121 154 0
116 151 0
124 156 0
120 153 0
117 152 0
119 153 0
122 155 0
117 152 0
119 153 0
118 153 0
127 158 0
124 156 0
116 151 0
116 151 0
115 150 0
116 151 0
123 156 0
124 156 0
126 157 0
118 153 0
113 150 0
114 150 0
117 152 0
114 150 0
114 150 0
115 151 0
122 155 0
119 153 0
118 153 0
113 150 0
116 151 0
114 150 0
119 153 0
118 152 0
120 154 0
118 152 0
118 153 0
117 152 0
120 154 0
113 150 0
115 150 0
117 152 0
117 152 0
115 151 0
119 153 0
120 154 0
118 152 0
121 154 0
122 155 0
106 145 0
107 146 0
105 145 0
110 148 0
105 144 0
109 147 0
110 148 0
107 146 0
105 145 0
108 146 0
104 144 0
104 144 0
105 145 0
106 146 0
107 146 0
105 145 0
107 146 0
106 145 0
108 147 0
105 145 0
105 145 0
103 144 0
105 145 0
107 146 0
104 144 0
108 146 0
105 145 0
109 147 0
104 144 0
106 145 0
103 144 0
104 144 0
108 147 0
106 145 0
104 144 0
107 146 0
106 145 0
107 146 0
105 145 0
104 144 0
106 145 0
104 144 0
106 145 0
105 145 0
104 144 0
110 147 0
105 145 0
104 144 0
110 148 0
107 146 0
105 145 0
108 146 0
111 149 0
105 145 0
110 148 0
113 149 0
103 143 0
106 145 0
104 144 0
103 144 0
106 145 0
109 147 0
106 140 0
108 146 0
107 146 0
105 145 0
107 146 0
107 146 0
108 147 0
104 144 0
107 146 0
107 146 0
109 147 0
107 146 0
105 145 0
105 145 0
108 147 0
112 149 0
105 145 0
107 146 0
107 146 0
109 147 0
113 149 0
116 151 0
105 145 0
105 145 0
106 145 0
111 148 0
105 144 0
104 144 0
106 145 0
108 146 0
107 146 0
111 148 0
105 145 0
105 145 0
106 146 0
105 145 0
111 148 0
112 149 0
101 137 0
110 148 0
111 148 0
103 143 0
101 137 0
108 146 0
104 144 0
114 150 0
104 144 0
107 146 0
108 147 0
112 149 0
113 150 0
111 148 0
112 149 0
98 135 0
98 135 0
105 145 0
113 150 0
106 145 0
106 145 0
107 146 0
101 137 0
116 152 0
116 151 0
106 145 0
109 147 0
100 136 0
112 149 0
99 136 0
113 149 0
110 147 0
115 150 0
110 148 0
115 151 0
108 147 0
109 142 0
98 131 0
113 149 0
108 146 0
114 150 0
107 146 0
115 151 0
119 153 0
118 153 0
108 146 0
114 150 0
123 156 0
114 150 0
112 149 0
125 157 0
112 149 0
107 146 0
94 127 0
114 150 0
114 150 0
118 152 0
105 145 0
120 154 0
116 151 0
120 154 0
114 150 0
107 146 0
112 149 0
114 150 0
128 158 0
121 155 0
120 154 0
109 147 0
126 157 0
104 144 0
114 150 0
126 157 0
114 150 0
115 151 0
119 153 0
118 152 0
118 153 0
119 153 0
121 154 0
110 148 0
121 155 0
120 154 0
129 159 0
114 150 0
120 154 0
112 149 0
118 153 0
115 151 0
129 159 0
113 149 0
125 157 0
123 156 0
124 156 0
118 153 0
125 156 0
119 153 0
114 150 0
123 156 0
117 152 0
134 162 0
133 161 0
118 153 0
122 155 0
124 156 0
129 159 0
119 153 0
114 150 0
120 154 0
133 162 0
122 155 0
129 159 0
130 160 0
130 160 0
126 157 0
122 155 0
127 158 0
127 158 0
126 157 0
119 153 0
124 156 0
118 153 0
121 154 0
129 159 0
123 155 0
125 157 0
127 158 0
123 156 0
117 152 0
120 154 0
131 160 0
125 157 0
123 156 0
118 153 0
133 161 0
132 161 0
123 156 0
124 156 0
118 153 0
122 155 0
128 158 0
125 157 0
121 155 0
126 158 0
127 158 0
134 162 0
116 151 0
124 156 0
120 154 0
121 155 0
117 152 0
131 160 0
126 157 0
128 159 0
124 156 0
124 156 0
120 154 0
131 160 0
123 156 0
118 152 0
114 150 0
120 154 0
125 157 0
113 150 0
121 154 0
124 156 0
132 161 0
126 157 0
123 156 0
130 159 0
120 154 0
132 161 0
118 153 0
129 159 0
120 153 0
123 156 0
128 158 0
123 156 0
134 162 0
121 154 0
125 157 0
121 154 0
127 158 0
130 160 0
121 154 0
121 155 0
116 151 0
129 159 0
122 155 0
123 156 0
118 153 0
124 156 0
123 156 0
126 157 0
132 161 0
126 157 0
122 155 0
130 160 0
135 162 0
126 157 0
120 154 0
127 158 0
118 153 0
129 159 0
115 151 0
121 154 0
125 157 0
120 154 0
115 151 0
118 152 0
123 156 0
118 153 0
112 149 0
119 153 0
121 155 0
120 153 0
119 153 0
123 156 0
123 156 0
116 151 0
120 154 0
122 155 0
114 150 0
129 159 0
118 152 0
125 157 0
115 151 0
122 155 0
121 155 0
130 160 0
119 153 0
127 158 0
119 153 0
122 155 0
118 153 0
116 151 0
120 154 0
118 152 0
117 152 0
122 155 0
114 150 0
122 155 0
118 152 0
119 153 0
119 153 0
123 155 0
118 152 0
118 152 0
126 157 0
116 151 0
117 152 0
124 156 0
118 153 0
123 155 0
117 152 0
120 154 0
116 151 0
113 150 0
113 149 0
116 152 0
122 155 0
125 157 0
117 152 0
114 150 0
114 150 0
123 155 0
115 151 0
114 150 0
111 148 0
121 154 0
114 150 0
116 151 0
122 155 0
116 151 0
123 155 0
114 150 0
112 149 0
121 155 0
117 152 0
119 153 0
117 152 0
115 150 0
119 153 0
125 156 0
115 151 0
120 154 0
117 152 0
117 152 0
116 151 0
114 150 0
123 155 0
123 156 0
122 155 0
125 157 0
117 152 0
113 150 0
120 153 0
115 151 0
114 150 0
116 151 0
104 144 0
104 144 0
106 146 0
103 144 0
107 146 0
107 146 0
105 144 0
107 146 0
107 146 0
104 144 0
104 144 0
105 145 0
104 144 0
109 147 0
106 145 0
106 145 0
108 147 0
106 145 0
105 145 0
104 144 0
104 144 0
110 147 0
107 146 0
105 145 0
112 149 0
104 144 0
104 144 0
108 146 0
105 145 0
106 146 0
106 145 0
108 146 0
105 145 0
106 145 0
106 145 0
105 145 0
105 145 0
104 144 0
105 145 0
106 145 0
109 147 0
107 146 0
115 151 0
106 145 0
110 148 0
108 147 0
109 147 0
103 144 0
104 144 0
107 146 0
108 147 0
104 144 0
108 146 0
111 148 0
106 145 0
106 145 0
107 146 0
104 144 0
107 146 0
110 148 0
105 144 0
109 147 0
105 145 0
109 147 0
105 145 0
104 144 0
106 145 0
107 146 0
105 145 0
109 147 0
107 146 0
107 146 0
111 149 0
104 144 0
108 147 0
105 145 0
110 148 0
107 146 0
115 151 0
106 145 0
104 144 0
107 146 0
106 145 0
110 148 0
101 137 0
106 145 0
113 149 0
101 137 0
109 147 0
117 152 0
110 148 0
112 149 0
105 145 0
105 145 0
105 145 0
109 147 0
107 146 0
109 147 0
110 148 0
110 148 0
107 146 0
113 150 0
110 147 0
106 145 0
105 145 0
109 147 0
110 148 0
107 146 0
107 146 0
113 150 0
110 147 0
113 149 0
107 146 0
101 137 0
105 145 0
104 138 0
110 148 0
96 134 0
108 147 0
113 149 0
109 147 0
108 146 0
99 131 0
106 145 0
110 148 0
112 149 0
108 147 0
114 150 0
113 149 0
101 137 0
110 147 0
114 150 0
111 148 0
105 145 0
112 149 0
107 146 0
115 151 0
99 136 0
104 138 0
107 146 0
119 153 0
113 149 0
115 151 0
108 147 0
106 146 0
113 150 0
110 148 0
108 141 0
121 154 0
121 154 0
107 140 0
121 155 0
108 147 0
115 151 0
118 152 0
121 154 0
119 153 0
116 151 0
107 141 0
111 148 0
118 153 0
112 149 0
111 148 0
119 153 0
125 157 0
112 149 0
116 152 0
115 151 0
129 159 0
120 154 0
133 162 0
123 156 0
121 154 0
110 148 0
123 155 0
121 154 0
119 153 0
122 155 0
117 152 0
112 149 0
113 150 0
121 155 0
119 153 0
123 156 0
117 152 0
118 153 0
120 154 0
102 137 0
119 153 0
121 155 0
119 153 0
119 153 0
122 155 0
110 147 0
125 157 0
116 152 0
127 158 0
133 162 0
131 161 0
131 161 0
115 151 0
124 156 0
116 151 0
117 152 0
126 157 0
130 160 0
118 153 0
111 148 0
124 156 0
118 153 0
120 154 0
117 152 0
119 153 0
119 153 0
124 156 0
131 160 0
128 159 0
121 154 0
117 152 0
120 153 0
116 151 0
116 151 0
127 158 0
123 155 0
124 156 0
115 151 0
129 159 0
119 153 0
117 152 0
124 156 0
120 154 0
125 157 0
126 157 0
113 149 0
120 154 0
130 160 0
132 161 0
118 152 0
122 155 0
128 158 0
119 153 0
124 156 0
131 160 0
122 155 0
134 162 0
110 148 0
114 150 0
119 153 0
129 159 0
125 156 0
128 159 0
126 157 0
126 157 0
122 155 0
134 162 0
123 155 0
121 154 0
126 158 0
124 156 0
120 154 0
124 156 0
128 159 0
114 150 0
122 155 0
118 153 0
126 157 0
120 154 0
116 151 0
128 159 0
127 158 0
134 162 0
114 150 0
119 153 0
124 156 0
126 157 0
115 151 0
129 159 0
126 158 0
124 156 0
125 157 0
121 155 0
126 158 0
124 156 0
125 157 0
116 151 0
124 156 0
119 153 0
134 162 0
122 155 0
125 157 0
112 149 0
128 158 0
120 154 0
115 151 0
121 154 0
122 155 0
121 154 0
121 154 0
117 152 0
118 152 0
121 154 0
118 153 0
119 153 0
123 155 0
124 156 0
130 160 0
119 153 0
127 158 0
116 151 0
124 156 0
121 154 0
124 156 0
129 159 0
118 152 0
123 156 0
118 152 0
125 157 0
122 155 0
124 156 0
119 153 0
115 151 0
117 152 0
123 156 0
123 156 0
118 153 0
127 158 0
115 151 0
117 152 0
129 159 0
120 154 0
121 154 0
120 154 0
119 153 0
117 152 0
118 152 0
122 155 0
116 151 0
117 152 0
117 152 0
126 158 0
115 151 0
115 151 0
121 154 0
114 150 0
114 150 0
118 152 0
119 153 0
123 156 0
122 155 0
112 149 0
124 156 0
119 153 0
122 155 0
121 154 0
120 154 0
126 158 0
120 154 0
118 152 0
127 158 0
118 153 0
122 155 0
123 156 0
119 153 0
118 153 0
128 158 0
123 156 0
122 155 0
120 154 0
116 151 0
118 153 0
115 151 0
117 152 0
120 154 0
121 154 0
121 154 0
117 152 0
114 150 0
124 156 0
117 152 0
118 153 0
122 155 0
114 150 0
116 152 0
121 154 0
122 155 0
115 151 0
124 156 0
120 154 0
114 150 0
120 154 0
119 153 0
115 150 0
120 154 0
113 150 0
117 152 0
120 154 0
125 157 0
112 149 0
112 149 0
123 156 0
108 146 0
107 146 0
105 144 0
103 144 0
105 144 0
107 146 0
105 145 0
104 144 0
108 147 0
105 145 0
105 145 0
106 145 0
108 147 0
105 144 0
103 144 0
105 145 0
106 145 0
105 145 0
106 146 0
110 148 0
105 145 0
110 148 0
106 145 0
106 145 0
107 146 0
110 148 0
105 145 0
106 145 0
107 146 0
106 145 0
105 145 0
107 146 0
106 145 0
110 148 0
104 144 0
106 145 0
108 146 0
105 145 0
104 144 0
105 145 0
105 145 0
105 144 0
105 145 0
106 145 0
107 146 0
104 144 0
108 146 0
103 143 0
109 147 0
115 151 0
107 146 0
106 145 0
106 145 0
104 144 0
105 145 0
107 146 0
111 148 0
106 145 0
105 144 0
104 144 0
105 144 0
105 145 0
108 146 0
105 145 0
108 146 0
108 146 0
108 147 0
105 145 0
110 148 0
109 147 0
106 145 0
103 144 0
111 148 0
105 145 0
104 144 0
108 147 0
108 146 0
106 145 0
104 144 0
104 144 0
111 149 0
104 144 0
107 146 0
99 136 0
107 146 0
106 145 0
108 146 0
109 147 0
108 147 0
113 150 0
106 145 0
116 152 0
108 147 0
110 148 0
112 149 0
106 145 0
111 148 0
106 146 0
114 150 0
107 146 0
108 147 0
105 145 0
117 152 0
107 146 0
103 138 0
94 127 0
111 148 0
116 151 0
112 149 0
108 146 0
106 145 0
110 148 0
118 152 0
108 147 0
111 148 0
109 147 0
112 149 0
106 140 0
107 146 0
110 142 0
109 147 0
112 149 0
105 145 0
110 148 0
125 157 0
106 145 0
111 148 0
112 149 0
102 137 0
104 144 0
108 147 0
97 135 0
114 150 0
107 146 0
116 151 0
113 149 0
110 147 0
102 137 0
107 146 0
112 149 0
122 155 0
119 153 0
111 148 0
116 151 0
119 153 0
112 149 0
122 155 0
111 148 0
112 149 0
105 145 0
114 150 0
108 146 0
109 147 0
122 155 0
115 151 0
96 129 0
116 151 0
126 158 0
122 155 0
111 149 0
104 139 0
120 154 0
118 152 0
118 152 0
117 152 0
121 154 0
131 160 0
114 150 0
117 152 0
116 151 0
114 150 0
113 149 0
112 149 0
117 152 0
120 154 0
105 145 0
112 149 0
116 152 0
115 145 0
128 158 0
120 154 0
117 152 0
118 153 0
110 147 0
116 146 0
129 159 0
109 147 0
119 153 0
122 155 0
125 157 0
125 156 0
119 153 0
117 152 0
114 150 0
123 155 0
115 151 0
121 155 0
122 155 0
122 155 0
121 154 0
127 158 0
124 156 0
123 156 0
135 163 0
125 157 0
117 152 0
128 158 0
125 157 0
119 153 0
117 152 0
125 157 0
113 149 0
125 157 0
131 160 0
124 156 0
122 155 0
126 157 0
131 160 0
112 149 0
129 159 0
125 157 0
126 158 0
134 162 0
123 156 0
118 152 0
121 154 0
133 161 0
123 155 0
122 155 0
125 157 0
116 151 0
123 155 0
125 157 0
133 162 0
124 156 0
130 160 0
119 153 0
113 149 0
125 157 0
122 155 0
116 151 0
116 151 0
118 152 0
133 162 0
123 155 0
120 154 0
122 155 0
119 153 0
127 158 0
119 153 0
123 156 0
121 154 0
119 153 0
119 153 0
125 157 0
122 155 0
121 154 0
120 154 0
122 155 0
123 156 0
129 159 0
120 154 0
131 160 0
128 159 0
122 155 0
121 154 0
122 155 0
126 157 0
129 159 0
117 152 0
120 154 0
118 153 0
123 156 0
115 151 0
126 157 0
120 154 0
126 158 0
128 158 0
128 158 0
134 162 0
116 151 0
128 159 0
121 155 0
125 157 0
117 152 0
114 150 0
115 151 0
125 157 0
130 160 0
129 159 0
114 150 0
119 153 0
131 160 0
118 152 0
119 153 0
125 157 0
125 156 0
128 159 0
123 155 0
127 158 0
119 153 0
124 156 0
124 156 0
125 157 0
135 163 0
123 156 0
125 157 0
122 155 0
133 161 0
122 155 0
126 157 0
116 151 0
118 153 0
117 152 0
134 162 0
124 156 0
123 156 0
124 156 0
123 155 0
130 160 0
117 152 0
122 155 0
123 155 0
114 150 0
119 153 0
120 153 0
123 156 0
128 159 0
120 154 0
117 152 0
118 153 0
119 153 0
119 153 0
113 149 0
120 154 0
126 157 0
119 153 0
119 153 0
122 155 0
115 151 0
125 157 0
121 154 0
124 156 0
119 153 0
122 155 0
123 155 0
123 155 0
124 156 0
119 153 0
129 159 0
122 155 0
121 154 0
115 151 0
126 157 0
123 156 0
120 154 0
118 153 0
118 152 0
120 154 0
125 157 0
121 154 0
118 153 0
117 152 0
120 153 0
115 151 0
119 153 0
114 150 0
125 157 0
112 149 0
123 156 0
121 155 0
119 153 0
124 156 0
120 154 0
121 155 0
120 154 0
120 154 0
117 152 0
115 151 0
124 156 0
118 152 0
117 152 0
114 150 0
118 152 0
117 152 0
115 151 0
114 150 0
122 155 0
122 155 0
127 158 0
115 151 0
119 153 0
119 153 0
118 153 0
115 151 0
117 152 0
114 150 0
116 152 0
116 152 0
111 148 0
107 146 0
104 144 0
106 145 0
106 145 0
108 147 0
107 146 0
109 147 0
104 144 0
106 145 0
108 147 0
106 145 0
105 145 0
103 143 0
105 145 0
107 146 0
107 146 0
105 145 0
106 145 0
105 144 0
105 144 0
106 146 0
109 147 0
105 145 0
104 144 0
104 144 0
108 147 0
105 145 0
105 145 0
110 148 0
105 145 0
105 145 0
107 146 0
107 146 0
106 145 0
106 146 0
105 145 0
106 145 0
107 146 0
117 152 0
105 145 0
107 146 0
106 146 0
103 143 0
104 144 0
108 147 0
103 144 0
106 146 0
105 145 0
103 143 0
107 146 0
111 148 0
106 146 0
106 145 0
106 145 0
105 145 0
108 146 0
113 149 0
110 147 0
104 144 0
107 146 0
106 145 0
106 145 0
104 144 0
107 146 0
104 144 0
107 146 0
105 145 0
104 144 0
111 148 0
107 146 0
106 145 0
114 150 0
105 145 0
108 147 0
105 145 0
104 144 0
104 144 0
106 145 0
105 145 0
106 146 0
108 146 0
99 136 0
104 144 0
107 146 0
109 147 0
105 145 0
107 146 0
113 149 0
104 144 0
118 152 0
112 149 0
107 146 0
107 146 0
112 149 0
98 135 0
108 147 0
114 150 0
110 148 0
107 146 0
104 144 0
107 146 0
108 146 0
107 146 0
98 135 0
118 152 0
106 145 0
109 147 0
108 147 0
99 136 0
112 149 0
107 146 0
114 150 0
112 149 0
104 144 0
101 133 0
115 151 0
99 135 0
113 150 0
110 148 0
114 150 0
112 149 0
112 149 0
109 147 0
112 149 0
106 145 0
102 138 0
108 147 0
111 148 0
107 146 0
110 148 0
106 145 0
109 147 0
102 133 0
114 150 0
111 148 0
115 151 0
106 146 0
104 144 0
105 145 0
116 151 0
109 147 0
109 147 0
113 150 0
105 139 0
122 155 0
113 150 0
106 145 0
119 153 0
108 147 0
118 152 0
109 147 0
120 154 0
108 147 0
95 128 0
121 154 0
119 153 0
121 155 0
113 150 0
102 138 0
111 149 0
119 153 0
121 155 0
121 154 0
109 147 0
107 146 0
111 148 0
119 148 0
112 149 0
113 150 0
111 148 0
128 158 0
113 150 0
111 148 0
119 153 0
123 155 0
117 152 0
116 151 0
123 155 0
117 152 0
124 156 0
120 154 0
115 151 0
120 154 0
119 153 0
115 151 0
116 152 0
129 159 0
125 157 0
119 153 0
122 155 0
123 156 0
127 158 0
123 156 0
116 152 0
118 153 0
129 159 0
123 155 0
120 154 0
119 153 0
118 152 0
124 156 0
126 157 0
133 162 0
121 154 0
118 152 0
111 148 0
122 155 0
120 154 0
109 147 0
137 164 0
127 158 0
122 155 0
123 156 0
122 155 0
139 165 0
125 157 0
125 157 0
131 160 0
115 151 0
126 157 0
128 159 0
115 151 0
116 151 0
127 158 0
129 159 0
122 155 0
122 155 0
124 156 0
127 158 0
123 155 0
113 150 0
127 158 0
120 154 0
123 156 0
134 162 0
128 158 0
130 160 0
109 147 0
124 156 0
122 155 0
133 161 0
120 154 0
134 162 0
122 155 0
126 158 0
136 164 0
115 151 0
127 158 0
129 159 0
132 161 0
140 166 0
122 155 0
130 160 0
121 154 0
126 157 0
127 158 0
128 159 0
125 157 0
124 156 0
120 153 0
122 155 0
127 158 0
121 154 0
125 157 0
124 156 0
126 157 0
127 158 0
124 156 0
122 155 0
118 153 0
132 161 0
129 159 0
129 159 0
123 156 0
117 152 0
119 153 0
118 153 0
112 149 0
117 152 0
126 157 0
121 154 0
132 161 0
120 154 0
121 155 0
123 156 0
118 153 0
123 155 0
115 151 0
123 156 0
131 160 0
122 155 0
125 157 0
126 157 0
121 154 0
125 157 0
126 157 0
126 157 0
116 151 0
125 157 0
126 158 0
121 154 0
124 156 0
122 155 0
128 158 0
129 159 0
118 152 0
125 157 0
125 156 0
115 151 0
123 155 0
119 153 0
127 158 0
115 151 0
116 151 0
121 155 0
121 154 0
119 153 0
119 153 0
128 159 0
122 155 0
126 157 0
125 157 0
115 151 0
119 153 0
116 151 0
117 152 0
124 156 0
123 155 0
120 154 0
120 154 0
127 158 0
118 153 0
126 157 0
121 154 0
111 148 0
118 152 0
123 156 0
126 157 0
128 159 0
119 153 0
124 156 0
125 157 0
117 152 0
118 153 0
120 154 0
121 154 0
118 152 0
122 155 0
117 152 0
120 154 0
122 155 0
126 157 0
125 157 0
117 152 0
122 155 0
124 156 0
115 151 0
125 156 0
121 155 0
122 155 0
120 154 0
114 150 0
116 152 0
121 154 0
122 155 0
123 155 0
121 154 0
124 156 0
123 156 0
125 157 0
120 154 0
119 153 0
115 151 0
126 157 0
124 156 0
117 152 0
123 156 0
117 152 0
114 150 0
117 152 0
120 154 0
118 153 0
121 154 0
123 156 0
115 151 0
120 154 0
119 153 0
120 154 0
124 156 0
123 155 0
120 154 0
115 151 0
115 151 0
117 152 0
113 149 0
119 153 0
120 153 0
118 153 0
116 151 0
122 155 0
109 147 0
108 147 0
104 144 0
109 147 0
104 144 0
105 145 0
110 147 0
104 144 0
104 144 0
105 145 0
112 149 0
103 143 0
107 146 0
103 143 0
107 146 0
105 145 0
110 148 0
107 146 0
104 144 0
104 144 0
106 145 0
107 146 0
107 146 0
107 146 0
96 134 0
105 144 0
105 145 0
109 147 0
105 145 0
106 145 0
113 149 0
107 146 0
106 145 0
109 147 0
108 147 0
104 144 0
109 147 0
111 149 0
107 146 0
105 145 0
107 146 0
101 137 0
107 146 0
108 147 0
105 145 0
108 147 0
107 146 0
106 145 0
107 146 0
107 146 0
104 144 0
106 145 0
105 145 0
109 147 0
108 146 0
107 146 0
104 144 0
107 146 0
110 148 0
105 144 0
109 147 0
108 147 0
105 145 0
104 144 0
105 145 0
111 148 0
106 145 0
100 136 0
114 150 0
107 146 0
107 146 0
106 145 0
109 147 0
106 145 0
103 144 0
112 149 0
103 144 0
108 146 0
109 147 0
108 147 0
108 146 0
105 145 0
106 145 0
102 137 0
116 151 0
114 150 0
103 143 0
110 148 0
112 149 0
115 151 0
106 145 0
99 135 0
106 145 0
107 146 0
107 146 0
99 136 0
105 144 0
107 146 0
109 147 0
104 144 0
107 146 0
108 146 0
109 147 0
111 148 0
108 147 0
109 147 0
104 144 0
107 141 0
105 145 0
112 149 0
111 148 0
106 145 0
114 150 0
107 146 0
98 135 0
115 151 0
111 148 0
117 152 0
106 140 0
113 149 0
109 147 0
112 149 0
116 152 0
100 136 0
110 148 0
123 156 0
106 145 0
101 137 0
116 151 0
105 145 0
109 147 0
109 147 0
122 155 0
115 150 0
107 146 0
112 149 0
101 137 0
108 147 0
123 155 0
94 127 0
102 137 0
120 153 0
116 146 0
123 156 0
106 140 0
112 149 0
123 155 0
110 148 0
121 154 0
108 147 0
117 152 0
105 145 0
114 145 0
121 154 0
119 153 0
119 153 0
114 150 0
106 146 0
106 146 0
113 149 0
118 153 0
120 154 0
109 142 0
113 149 0
109 142 0
112 149 0
109 147 0
105 139 0
120 154 0
113 150 0
126 157 0
119 153 0
120 154 0
110 142 0
115 151 0
112 149 0
114 150 0
113 150 0
116 152 0
114 150 0
114 150 0
121 154 0
129 159 0
116 151 0
125 157 0
120 154 0
122 155 0
131 160 0
122 155 0
110 148 0
109 147 0
127 158 0
119 153 0
118 152 0
117 152 0
128 158 0
125 157 0
127 158 0
121 154 0
116 151 0
119 153 0
126 157 0
129 159 0
125 157 0
113 150 0
124 156 0
133 161 0
121 154 0
121 154 0
119 153 0
126 157 0
130 160 0
127 158 0
115 151 0
130 160 0
130 160 0
120 154 0
136 163 0
113 149 0
120 154 0
128 158 0
125 156 0
132 161 0
132 161 0
121 154 0
128 158 0
129 159 0
132 161 0
129 159 0
129 159 0
126 157 0
126 157 0
136 163 0
129 159 0
133 161 0
129 159 0
128 159 0
121 155 0
125 157 0
130 160 0
122 155 0
116 151 0
131 160 0
126 157 0
129 159 0
135 163 0
132 161 0
125 157 0
125 157 0
128 159 0
128 158 0
124 156 0
130 160 0
120 154 0
129 159 0
123 155 0
125 157 0
124 156 0
125 157 0
128 158 0
122 155 0
125 157 0
129 159 0
124 156 0
130 160 0
123 155 0
126 157 0
135 163 0
130 160 0
129 159 0
129 159 0
123 156 0
129 159 0
126 157 0
125 157 0
120 154 0
130 160 0
121 154 0
115 151 0
133 162 0
122 155 0
124 156 0
137 164 0
126 157 0
121 154 0
128 158 0
120 154 0
127 158 0
120 154 0
128 159 0
123 155 0
127 158 0
124 156 0
121 154 0
126 157 0
125 157 0
127 158 0
124 156 0
132 161 0
124 156 0
131 160 0
116 151 0
121 154 0
124 156 0
120 154 0
117 152 0
123 155 0
128 158 0
124 156 0
125 156 0
120 153 0
121 155 0
120 154 0
128 159 0
121 154 0
118 153 0
129 159 0
122 155 0
123 156 0
122 155 0
120 154 0
135 162 0
125 156 0
120 154 0
117 152 0
125 157 0
126 158 0
120 154 0
123 156 0
123 156 0
122 155 0
115 151 0
122 155 0
127 158 0
120 154 0
121 154 0
119 153 0
114 150 0
128 158 0
115 151 0
121 154 0
124 156 0
118 152 0
120 154 0
121 154 0
120 154 0
117 152 0
118 153 0
125 157 0
123 155 0
121 154 0
125 157 0
121 154 0
117 152 0
115 151 0
119 153 0
118 153 0
117 152 0
116 152 0
125 157 0
121 155 0
115 151 0
116 151 0
120 154 0
115 151 0
119 153 0
123 156 0
126 158 0
122 155 0
118 153 0
118 153 0
122 155 0
121 154 0
113 149 0
123 156 0
114 150 0
122 155 0
122 155 0
121 154 0
120 154 0
122 155 0
116 152 0
119 153 0
113 150 0
120 154 0
124 156 0
126 157 0
116 151 0
124 156 0
119 153 0
114 150 0
123 156 0
124 156 0
109 147 0
126 157 0
122 155 0
120 154 0
117 152 0
122 155 0
123 155 0
103 144 0
104 144 0
104 144 0
105 145 0
108 147 0
106 145 0
106 145 0
108 147 0
106 145 0
104 144 0
106 146 0
108 147 0
106 145 0
105 145 0
106 145 0
103 144 0
103 144 0
106 145 0
109 147 0
109 147 0
106 145 0
106 145 0
108 147 0
105 145 0
104 144 0
106 146 0
105 145 0
107 146 0
105 145 0
109 147 0
106 145 0
110 148 0
110 148 0
108 147 0
106 146 0
104 144 0
111 148 0
107 146 0
103 143 0
106 145 0
107 146 0
98 135 0
104 144 0
106 145 0
106 145 0
110 147 0
105 144 0
101 137 0
108 146 0
110 148 0
110 148 0
105 145 0
105 145 0
104 144 0
104 144 0
106 145 0
107 146 0
107 146 0
106 145 0
108 146 0
104 144 0
106 146 0
111 149 0
104 144 0
106 145 0
111 148 0
108 146 0
113 149 0
110 148 0
106 145 0
105 145 0
102 137 0
105 139 0
108 147 0
105 144 0
100 136 0
106 145 0
111 149 0
106 145 0
104 144 0
107 146 0
108 146 0
108 146 0
109 147 0
103 144 0
107 146 0
107 146 0
103 144 0
103 144 0
109 147 0
113 149 0
111 148 0
106 145 0
99 136 0
108 147 0
112 149 0
103 144 0
103 143 0
115 151 0
111 148 0
105 139 0
107 146 0
111 148 0
109 147 0
106 146 0
110 148 0
99 135 0
105 145 0
114 150 0
107 146 0
112 149 0
112 149 0
109 147 0
97 134 0
111 149 0
105 144 0
103 144 0
118 153 0
107 146 0
109 147 0
110 148 0
114 150 0
112 149 0
106 145 0
109 147 0
108 146 0
120 154 0
112 149 0
113 150 0
110 148 0
115 151 0
114 150 0
110 148 0
111 148 0
115 151 0
112 149 0
111 148 0
109 142 0
114 150 0
105 145 0
116 151 0
112 149 0
108 146 0
127 158 0
118 152 0
119 153 0
110 142 0
124 156 0
115 151 0
114 150 0
119 153 0
119 153 0
110 142 0
116 151 0
109 142 0
116 151 0
107 146 0
112 149 0
108 146 0
108 141 0
101 137 0
116 151 0
116 151 0
117 152 0
109 147 0
111 148 0
124 156 0
113 150 0
106 140 0
101 137 0
122 155 0
104 139 0
110 148 0
111 148 0
113 149 0
111 148 0
120 154 0
126 157 0
113 149 0
121 154 0
112 149 0
130 160 0
124 156 0
117 152 0
121 154 0
116 151 0
131 160 0
115 151 0
126 158 0
130 160 0
119 153 0
139 165 0
116 152 0
124 156 0
121 154 0
119 153 0
124 156 0
137 164 0
119 153 0
118 153 0
125 156 0
126 157 0
124 156 0
117 152 0
115 151 0
109 147 0
133 161 0
123 156 0
124 156 0
120 154 0
115 151 0
127 158 0
115 151 0
137 164 0
124 156 0
118 152 0
132 161 0
134 162 0
128 159 0
124 156 0
129 159 0
125 157 0
134 162 0
130 160 0
127 158 0
128 159 0
127 158 0
127 158 0
122 155 0
131 161 0
134 162 0
136 163 0
128 158 0
133 161 0
137 164 0
126 157 0
124 156 0
118 152 0
116 151 0
124 156 0
122 155 0
126 157 0
130 160 0
128 159 0
132 161 0
119 153 0
123 155 0
121 154 0
126 157 0
122 155 0
122 155 0
126 157 0
131 161 0
124 156 0
129 159 0
128 159 0
127 158 0
126 158 0
116 151 0
128 158 0
122 155 0
126 157 0
116 151 0
133 161 0
122 155 0
130 160 0
121 154 0
123 156 0
129 159 0
124 156 0
121 155 0
131 160 0
121 154 0
119 153 0
131 160 0
135 163 0
124 156 0
120 154 0
129 159 0
127 158 0
122 155 0
124 156 0
123 156 0
123 156 0
127 158 0
122 155 0
134 162 0
126 158 0
122 155 0
131 160 0
135 163 0
124 156 0
128 158 0
133 161 0
128 158 0
115 151 0
121 154 0
122 155 0
119 153 0
124 156 0
124 156 0
121 154 0
121 154 0
123 156 0
121 154 0
116 151 0
116 151 0
127 158 0
124 156 0
121 154 0
125 157 0
133 161 0
124 156 0
129 159 0
121 154 0
121 154 0
120 154 0
123 156 0
125 157 0
122 155 0
127 158 0
118 153 0
124 156 0
128 159 0
123 156 0
123 155 0
120 154 0
128 158 0
126 157 0
124 156 0
122 155 0
123 156 0
119 153 0
120 154 0
126 158 0
126 157 0
116 151 0
125 157 0
120 154 0
126 157 0
132 161 0
126 157 0
114 150 0
124 156 0
132 161 0
124 156 0
119 153 0
116 151 0
121 155 0
122 155 0
119 153 0
121 154 0
115 151 0
128 158 0
126 157 0
116 151 0
121 154 0
128 158 0
118 153 0
119 153 0
117 152 0
122 155 0
118 152 0
124 156 0
117 152 0
117 152 0
123 155 0
116 151 0
125 157 0
115 151 0
122 155 0
123 155 0
122 155 0
123 155 0
118 153 0
119 153 0
121 154 0
114 150 0
115 151 0
123 155 0
119 153 0
122 155 0
124 156 0
120 154 0
124 156 0
120 154 0
116 151 0
114 150 0
113 150 0
122 155 0
112 149 0
124 156 0
111 148 0
126 157 0
115 151 0
120 154 0
123 156 0
125 157 0
116 151 0
114 150 0
107 146 0
109 147 0
105 145 0
108 147 0
106 145 0
105 144 0
107 146 0
103 144 0
108 146 0
106 145 0
107 146 0
105 145 0
105 144 0
104 144 0
105 145 0
105 145 0
105 145 0
103 144 0
106 145 0
111 148 0
108 146 0
109 147 0
103 143 0
108 147 0
107 146 0
106 145 0
104 144 0
106 145 0
108 146 0
109 147 0
108 147 0
104 144 0
105 145 0
104 144 0
108 147 0
106 145 0
106 145 0
105 144 0
107 146 0
106 145 0
104 144 0
110 148 0
104 144 0
109 147 0
110 147 0
107 146 0
106 145 0
105 145 0
106 145 0
109 147 0
107 146 0
106 145 0
107 146 0
104 144 0
108 146 0
109 147 0
106 145 0
105 145 0
106 145 0
108 146 0
108 147 0
99 136 0
103 144 0
105 145 0
110 148 0
104 144 0
111 149 0
105 145 0
107 146 0
107 146 0
107 146 0
107 146 0
107 146 0
104 144 0
110 148 0
110 148 0
107 146 0
111 148 0
100 136 0
109 147 0
106 145 0
106 145 0
106 145 0
105 145 0
98 135 0
106 145 0
107 146 0
112 149 0
115 151 0
103 144 0
104 144 0
107 146 0
107 146 0
106 145 0
111 149 0
116 151 0
109 147 0
108 147 0
112 149 0
113 150 0
104 144 0
109 147 0
107 146 0
117 152 0
116 151 0
110 148 0
105 145 0
108 146 0
113 149 0
118 153 0
108 147 0
107 146 0
109 147 0
107 146 0
108 147 0
113 149 0
116 152 0
113 149 0
113 149 0
111 148 0
110 148 0
106 140 0
117 152 0
111 149 0
108 147 0
106 145 0
104 144 0
115 150 0
108 141 0
112 149 0
107 146 0
111 148 0
104 144 0
115 151 0
111 143 0
117 152 0
108 147 0
112 149 0
122 155 0
122 155 0
112 149 0
111 149 0
116 152 0
112 149 0
105 139 0
98 125 0
116 151 0
111 148 0
110 148 0
111 148 0
120 154 0
124 156 0
107 140 0
109 147 0
116 151 0
114 150 0
122 155 0
125 156 0
108 141 0
125 157 0
117 147 0
122 155 0
114 150 0
126 157 0
118 147 0
115 150 0
123 156 0
119 153 0
119 153 0
120 154 0
108 141 0
118 152 0
110 148 0
117 152 0
122 155 0
115 151 0
133 161 0
113 144 0
127 158 0
119 153 0
120 154 0
126 158 0
114 150 0
112 149 0
122 155 0
123 155 0
116 151 0
111 143 0
113 144 0
121 154 0
118 147 0
133 161 0
121 155 0
126 157 0
113 144 0
134 162 0
130 160 0
127 158 0
128 159 0
127 158 0
127 158 0
120 154 0
120 154 0
116 151 0
119 153 0
127 158 0
129 159 0
121 154 0
129 159 0
128 159 0
125 157 0
124 156 0
135 163 0
122 155 0
123 155 0
123 156 0
127 158 0
128 158 0
118 152 0
122 155 0
124 156 0
140 166 0
121 155 0
117 152 0
134 162 0
137 164 0
133 161 0
132 161 0
131 160 0
130 160 0
123 156 0
133 161 0
127 158 0
125 157 0
130 160 0
126 158 0
130 160 0
135 163 0
131 160 0
139 165 0
129 159 0
128 159 0
127 158 0
124 156 0
125 157 0
124 156 0
118 152 0
129 159 0
121 154 0
132 161 0
118 153 0
126 157 0
126 158 0
133 162 0
122 155 0
129 159 0
125 157 0
125 157 0
117 152 0
120 154 0
120 154 0
114 150 0
123 156 0
126 157 0
124 156 0
129 159 0
129 159 0
124 156 0
127 158 0
126 157 0
126 158 0
133 161 0
129 159 0
126 157 0
125 156 0
123 155 0
133 161 0
124 156 0
126 157 0
119 153 0
124 156 0
124 156 0
130 160 0
125 157 0
126 157 0
114 150 0
127 158 0
124 156 0
134 162 0
121 154 0
128 159 0
134 162 0
126 158 0
115 151 0
127 158 0
128 158 0
125 157 0
116 151 0
125 157 0
117 152 0
127 158 0
121 154 0
121 155 0
122 155 0
121 154 0
118 152 0
124 156 0
120 154 0
127 158 0
122 155 0
126 157 0
126 157 0
121 155 0
123 156 0
129 159 0
128 159 0
124 156 0
122 155 0
117 152 0
127 158 0
113 149 0
124 156 0
119 153 0
125 156 0
119 153 0
120 154 0
116 151 0
122 155 0
117 152 0
115 151 0
124 156 0
124 156 0
119 153 0
117 152 0
122 155 0
124 156 0
118 153 0
119 153 0
124 156 0
118 153 0
119 153 0
121 154 0
119 153 0
127 158 0
127 158 0
124 156 0
120 153 0
122 155 0
119 153 0
119 153 0
120 154 0
123 155 0
119 153 0
117 152 0
129 159 0
124 156 0
123 155 0
122 155 0
122 155 0
122 155 0
118 153 0
118 152 0
114 150 0
121 154 0
128 159 0
122 155 0
130 159 0
121 154 0
121 155 0
118 153 0
122 155 0
119 153 0
117 152 0
116 151 0
125 157 0
114 150 0
119 153 0
127 158 0
123 156 0
116 152 0
120 154 0
124 156 0
123 155 0
117 152 0
119 153 0
120 154 0
118 153 0
122 155 0
118 153 0
118 153 0
116 151 0
120 154 0
120 153 0
118 152 0
121 154 0
117 152 0
115 151 0
121 154 0
126 157 0
116 151 0
109 147 0
106 145 0
110 147 0
107 146 0
104 144 0
104 144 0
106 146 0
104 144 0
107 146 0
112 149 0
106 146 0
108 146 0
107 146 0
103 144 0
106 146 0
104 144 0
106 145 0
109 147 0
109 147 0
104 144 0
104 144 0
105 145 0
105 144 0
111 149 0
104 144 0
109 147 0
106 145 0
111 148 0
109 147 0
107 146 0
104 144 0
107 146 0
107 146 0
103 144 0
106 145 0
109 147 0
112 149 0
106 145 0
110 148 0
106 145 0
104 144 0
108 147 0
106 145 0
106 146 0
106 145 0
106 145 0
108 147 0
107 146 0
112 149 0
104 144 0
111 149 0
108 147 0
104 144 0
105 145 0
105 145 0
98 135 0
103 143 0
112 149 0
106 145 0
105 145 0
106 145 0
105 145 0
107 146 0
104 144 0
103 144 0
103 144 0
104 144 0
105 145 0
108 147 0
105 145 0
110 148 0
109 147 0
106 145 0
107 146 0
111 149 0
107 146 0
111 148 0
109 147 0
104 144 0
104 144 0
104 144 0
104 144 0
106 145 0
109 147 0
105 145 0
109 147 0
114 150 0
98 135 0
107 146 0
108 146 0
116 151 0
116 151 0
110 148 0
109 147 0
112 149 0
107 146 0
110 148 0
110 148 0
105 145 0
107 146 0
106 145 0
108 147 0
104 144 0
105 145 0
107 146 0
117 152 0
107 146 0
107 146 0
106 145 0
98 130 0
98 135 0
112 149 0
108 146 0
119 153 0
112 149 0
112 149 0
105 144 0
104 138 0
107 146 0
114 150 0
107 146 0
110 148 0
114 150 0
105 144 0
110 147 0
104 144 0
106 145 0
97 134 0
109 147 0
108 147 0
123 155 0
116 151 0
109 147 0
114 150 0
109 147 0
110 148 0
105 145 0
103 144 0
112 149 0
112 149 0
120 154 0
117 152 0
107 146 0
107 146 0
118 153 0
115 151 0
103 134 0
112 149 0
108 141 0
106 145 0
110 147 0
115 151 0
113 149 0
103 143 0
117 152 0
124 156 0
116 151 0
104 138 0
122 155 0
108 141 0
116 151 0
114 150 0
107 141 0
121 155 0
109 147 0
125 157 0
115 151 0
106 140 0
116 151 0
111 148 0
111 148 0
130 159 0
119 153 0
121 154 0
111 148 0
108 146 0
119 153 0
125 156 0
118 153 0
127 152 0
122 155 0
112 149 0
118 152 0
118 152 0
122 155 0
112 149 0
127 158 0
127 158 0
129 159 0
109 147 0
118 153 0
119 153 0
123 155 0
110 148 0
119 153 0
131 161 0
130 160 0
138 164 0
137 164 0
130 159 0
122 155 0
130 159 0
121 154 0
127 158 0
127 158 0
128 158 0
123 156 0
122 155 0
120 154 0
131 160 0
134 162 0
116 151 0
127 158 0
126 157 0
129 159 0
136 163 0
122 155 0
122 155 0
128 159 0
125 157 0
132 161 0
124 156 0
130 160 0
115 151 0
125 157 0
124 156 0
123 156 0
131 160 0
124 156 0
127 158 0
116 151 0
115 151 0
128 159 0
119 153 0
137 164 0
127 158 0
117 152 0
121 155 0
128 159 0
134 162 0
121 154 0
133 162 0
130 160 0
131 160 0
114 150 0
127 158 0
123 155 0
123 155 0
122 155 0
130 160 0
122 155 0
133 161 0
120 154 0
117 152 0
128 159 0
124 156 0
130 160 0
126 157 0
136 163 0
114 150 0
127 158 0
125 157 0
129 159 0
133 162 0
131 160 0
128 158 0
130 160 0
125 157 0
113 150 0
135 163 0
123 155 0
129 159 0
125 157 0
127 158 0
129 159 0
129 159 0
125 157 0
128 158 0
123 155 0
123 155 0
129 159 0
128 158 0
131 160 0
127 158 0
123 155 0
121 154 0
131 160 0
131 160 0
121 154 0
134 162 0
130 160 0
116 152 0
121 154 0
119 153 0
119 153 0
133 162 0
126 157 0
122 155 0
132 161 0
125 157 0
125 157 0
124 156 0
128 159 0
124 156 0
119 153 0
127 158 0
122 155 0
125 156 0
119 153 0
127 158 0
121 154 0
120 154 0
114 150 0
130 159 0
123 155 0
120 154 0
121 155 0
120 153 0
126 157 0
122 155 0
123 155 0
124 156 0
122 155 0
121 154 0
114 150 0
123 155 0
125 157 0
126 157 0
122 155 0
119 153 0
117 152 0
128 159 0
119 153 0
118 153 0
121 154 0
124 156 0
116 151 0
121 154 0
115 151 0
125 157 0
121 154 0
126 157 0
123 155 0
125 157 0
121 155 0
125 157 0
122 155 0
126 157 0
119 153 0
118 152 0
124 156 0
119 153 0
124 156 0
126 157 0
122 155 0
117 152 0
118 153 0
118 152 0
122 155 0
118 152 0
119 153 0
125 157 0
116 152 0
124 156 0
120 154 0
118 153 0
123 156 0
122 155 0
127 158 0
122 155 0
119 153 0
125 157 0
126 158 0
125 157 0
113 149 0
123 156 0
120 154 0
126 157 0
123 155 0
124 156 0
115 151 0
118 152 0
123 156 0
118 152 0
111 148 0
118 152 0
122 155 0
117 152 0
116 151 0
124 156 0
121 154 0
120 154 0
122 155 0
111 148 0
118 152 0
125 157 0
120 153 0
118 152 0
122 155 0
120 154 0
106 145 0
106 145 0
105 145 0
104 144 0
107 146 0
104 144 0
107 146 0
108 146 0
109 147 0
110 148 0
111 148 0
107 146 0
112 149 0
103 144 0
108 147 0
105 145 0
107 146 0
113 150 0
106 146 0
109 147 0
109 147 0
103 143 0
106 145 0
108 147 0
107 146 0
107 146 0
105 145 0
106 145 0
112 149 0
108 146 0
104 144 0
104 144 0
106 145 0
108 147 0
106 145 0
103 144 0
106 145 0
104 144 0
107 146 0
105 145 0
103 143 0
105 145 0
103 144 0
109 147 0
103 144 0
96 134 0
105 145 0
109 147 0
107 146 0
106 145 0
103 144 0
110 148 0
110 148 0
112 149 0
106 145 0
104 144 0
107 146 0
106 145 0
108 147 0
106 145 0
110 147 0
106 145 0
111 148 0
112 149 0
105 145 0
107 146 0
106 145 0
100 136 0
107 146 0
107 146 0
105 145 0
107 146 0
105 145 0
107 146 0
104 144 0
105 145 0
110 148 0
108 147 0
113 150 0
106 145 0
109 147 0
106 145 0
107 146 0
97 134 0
110 148 0
107 146 0
106 145 0
106 146 0
107 146 0
111 148 0
109 147 0
113 149 0
106 146 0
109 147 0
112 149 0
100 136 0
115 151 0
111 148 0
107 140 0
109 147 0
110 148 0
107 146 0
106 145 0
108 146 0
117 152 0
106 140 0
109 147 0
106 145 0
106 145 0
109 147 0
110 148 0
110 148 0
120 154 0
108 147 0
105 145 0
108 146 0
106 145 0
110 148 0
119 153 0
111 148 0
117 152 0
107 146 0
107 141 0
116 151 0
113 150 0
112 149 0
114 150 0
112 149 0
106 145 0
123 155 0
115 151 0
115 151 0
109 147 0
118 153 0
102 138 0
114 150 0
113 149 0
108 147 0
113 149 0
107 146 0
120 154 0
112 149 0
99 136 0
112 149 0
119 153 0
121 154 0
96 134 0
106 145 0
121 154 0
113 150 0
118 153 0
114 150 0
115 151 0
116 151 0
116 151 0
112 149 0
98 135 0
110 142 0
123 156 0
104 138 0
124 156 0
120 154 0
109 147 0
114 150 0
120 154 0
127 158 0
117 152 0
132 161 0
117 152 0
117 152 0
112 149 0
116 152 0
114 150 0
118 153 0
104 139 0
113 149 0
133 161 0
111 148 0
115 151 0
115 151 0
135 163 0
121 154 0
103 138 0
120 154 0
115 151 0
116 151 0
115 151 0
118 153 0
113 150 0
114 150 0
124 156 0
117 146 0
124 156 0
121 154 0
141 166 0
120 154 0
120 154 0
122 155 0
118 153 0
117 152 0
128 158 0
120 154 0
130 160 0
115 151 0
129 159 0
116 151 0
121 154 0
126 157 0
120 154 0
127 158 0
125 157 0
134 162 0
115 151 0
122 155 0
138 165 0
130 160 0
124 156 0
125 157 0
128 159 0
120 154 0
129 159 0
122 155 0
132 161 0
127 158 0
128 158 0
129 159 0
123 156 0
124 156 0
126 157 0
130 160 0
129 159 0
125 157 0
125 156 0
127 158 0
126 157 0
122 155 0
126 157 0
127 158 0
127 158 0
123 156 0
127 158 0
126 157 0
119 153 0
123 156 0
121 154 0
124 156 0
125 157 0
127 158 0
124 156 0
132 161 0
114 150 0
125 157 0
131 161 0
124 156 0
130 160 0
116 151 0
125 157 0
119 153 0
136 163 0
135 163 0
129 159 0
135 163 0
126 158 0
122 155 0
134 162 0
126 157 0
124 156 0
125 157 0
116 151 0
113 150 0
116 152 0
130 159 0
130 160 0
122 155 0
125 157 0
131 160 0
123 156 0
138 165 0
120 154 0
121 154 0
122 155 0
119 153 0
127 158 0
127 158 0
131 160 0
124 156 0
125 157 0
138 164 0
124 156 0
122 155 0
122 155 0
124 156 0
137 164 0
125 157 0
121 154 0
125 157 0
120 154 0
123 156 0
120 154 0
121 154 0
122 155 0
125 156 0
121 154 0
120 153 0
129 159 0
122 155 0
134 162 0
121 154 0
125 157 0
113 150 0
121 154 0
128 158 0
126 157 0
123 156 0
120 153 0
126 157 0
125 157 0
122 155 0
125 157 0
119 153 0
127 158 0
134 162 0
123 155 0
119 153 0
127 158 0
115 151 0
116 151 0
121 154 0
128 158 0
120 153 0
121 154 0
119 153 0
120 154 0
121 154 0
122 155 0
119 153 0
127 158 0
115 151 0
119 153 0
120 154 0
124 156 0
129 159 0
114 150 0
124 156 0
120 154 0
123 155 0
130 160 0
130 159 0
118 153 0
117 152 0
124 156 0
122 155 0
123 155 0
122 155 0
120 154 0
122 155 0
120 154 0
115 151 0
118 153 0
122 155 0
126 157 0
115 151 0
117 152 0
123 156 0
126 157 0
117 152 0
113 149 0
119 153 0
116 151 0
117 152 0
113 150 0
122 155 0
121 154 0
116 151 0
124 156 0
120 154 0
122 155 0
116 151 0
124 156 0
115 151 0
114 150 0
118 153 0
114 150 0
118 153 0
122 155 0
117 152 0
125 157 0
121 154 0
123 155 0
116 152 0
124 156 0
117 152 0
120 153 0
119 153 0
124 156 0
115 151 0
118 153 0
125 157 0
119 153 0
118 152 0
109 147 0
104 144 0
112 149 0
108 147 0
107 146 0
105 145 0
111 148 0
104 144 0
105 145 0
114 150 0
105 145 0
108 146 0
106 145 0
106 146 0
104 144 0
108 147 0
107 146 0
108 146 0
104 144 0
105 145 0
109 147 0
104 144 0
104 144 0
107 146 0
107 146 0
108 146 0
105 145 0
104 144 0
108 147 0
112 149 0
107 146 0
106 145 0
104 144 0
107 146 0
106 145 0
106 145 0
104 144 0
110 148 0
106 146 0
111 148 0
110 148 0
107 146 0
108 147 0
104 144 0
107 146 0
99 136 0
105 145 0
105 145 0
107 146 0
107 146 0
101 137 0
103 143 0
105 145 0
107 146 0
105 145 0
111 148 0
110 148 0
108 146 0
107 146 0
106 145 0
107 140 0
99 136 0
110 148 0
106 146 0
100 136 0
103 144 0
100 136 0
111 148 0
110 148 0
105 145 0
106 145 0
105 145 0
108 146 0
104 144 0
107 146 0
109 147 0
108 146 0
102 137 0
112 149 0
112 149 0
111 148 0
103 143 0
106 145 0
109 147 0
108 146 0
110 148 0
111 148 0
107 146 0
114 150 0
109 147 0
106 145 0
110 148 0
110 148 0
103 138 0
110 148 0
110 148 0
104 144 0
106 146 0
110 148 0
109 147 0
109 147 0
106 145 0
112 149 0
107 146 0
113 149 0
107 146 0
110 148 0
106 145 0
100 136 0
112 149 0
114 150 0
106 145 0
99 136 0
109 147 0
126 157 0
116 151 0
116 151 0
102 138 0
110 148 0
112 149 0
104 139 0
112 149 0
103 138 0
111 148 0
122 155 0
111 148 0
106 140 0
107 146 0
104 144 0
115 151 0
108 147 0
113 150 0
108 141 0
108 147 0
117 152 0
125 157 0
109 147 0
114 150 0
116 151 0
108 146 0
107 141 0
122 155 0
113 150 0
113 149 0
115 150 0
125 157 0
107 146 0
126 157 0
114 150 0
118 152 0
131 160 0
117 152 0
111 149 0
116 151 0
119 153 0
111 148 0
105 145 0
114 145 0
112 149 0
114 150 0
113 139 0
120 154 0
118 153 0
120 154 0
119 153 0
112 149 0
129 159 0
115 151 0
117 152 0
119 153 0
116 151 0
107 141 0
114 144 0
115 151 0
132 161 0
117 152 0
118 152 0
139 165 0
103 138 0
131 161 0
126 157 0
121 154 0
127 158 0
127 152 0
124 156 0
129 159 0
111 148 0
115 145 0
126 157 0
124 156 0
136 163 0
123 156 0
123 155 0
121 154 0
116 151 0
115 150 0
117 152 0
127 158 0
129 159 0
133 161 0
121 154 0
123 155 0
123 155 0
131 161 0
126 158 0
146 170 0
134 162 0
129 159 0
123 156 0
122 155 0
126 157 0
121 155 0
121 154 0
139 165 0
117 152 0
128 158 0
135 163 0
135 163 0
124 156 0
130 160 0
122 155 0
124 156 0
122 155 0
125 156 0
134 162 0
133 161 0
126 157 0
126 157 0
124 156 0
128 158 0
122 155 0
122 155 0
129 159 0
136 164 0
125 157 0
141 166 0
123 155 0
121 154 0
134 162 0
122 155 0
126 158 0
125 156 0
140 166 0
125 157 0
136 163 0
129 159 0
133 162 0
131 160 0
132 161 0
133 162 0
141 167 0
139 165 0
127 158 0
127 158 0
128 158 0
120 153 0
132 161 0
127 158 0
124 156 0
132 161 0
122 155 0
129 159 0
123 155 0
129 159 0
134 162 0
128 158 0
118 153 0
134 162 0
128 159 0
124 156 0
119 153 0
120 154 0
127 158 0
134 162 0
115 151 0
131 160 0
134 162 0
131 160 0
130 160 0
136 163 0
124 156 0
123 155 0
124 156 0
123 155 0
127 158 0
126 157 0
119 153 0
127 158 0
132 161 0
131 160 0
125 157 0
133 162 0
132 161 0
118 153 0
128 159 0
122 155 0
118 153 0
129 159 0
125 156 0
118 153 0
118 153 0
124 156 0
119 153 0
126 157 0
118 152 0
130 160 0
132 161 0
126 157 0
123 155 0
129 159 0
120 153 0
125 157 0
126 157 0
120 153 0
128 158 0
121 154 0
123 155 0
118 153 0
127 158 0
130 160 0
124 156 0
123 156 0
119 153 0
125 157 0
125 157 0
122 155 0
127 158 0
129 159 0
126 157 0
126 157 0
118 153 0
128 159 0
127 158 0
115 151 0
122 155 0
123 156 0
128 159 0
122 155 0
126 157 0
124 156 0
120 154 0
125 157 0
122 155 0
121 154 0
125 157 0
122 155 0
122 155 0
120 154 0
119 153 0
124 156 0
117 152 0
117 152 0
122 155 0
121 155 0
127 158 0
120 154 0
116 152 0
122 155 0
114 150 0
123 155 0
119 153 0
117 152 0
116 151 0
118 153 0
121 154 0
121 154 0
125 156 0
121 154 0
123 155 0
114 150 0
114 150 0
117 152 0
120 154 0
128 158 0
123 156 0
124 156 0
122 155 0
117 152 0
118 153 0
122 155 0
118 153 0
112 149 0
114 150 0
123 155 0
114 150 0
113 150 0
123 155 0
114 150 0
112 149 0
127 158 0
114 150 0
116 152 0
114 150 0
115 151 0
122 155 0
121 154 0
121 154 0
125 157 0
119 153 0
115 151 0
105 145 0
107 146 0
103 144 0
106 145 0
108 146 0
108 146 0
110 148 0
104 144 0
106 146 0
106 145 0
107 146 0
103 144 0
106 145 0
104 144 0
105 145 0
106 145 0
105 144 0
108 146 0
107 146 0
112 149 0
108 147 0
105 145 0
107 146 0
103 143 0
104 144 0
103 143 0
109 147 0
108 146 0
103 144 0
113 149 0
103 144 0
105 145 0
108 146 0
108 147 0
105 144 0
108 147 0
105 145 0
107 146 0
105 145 0
104 144 0
106 146 0
103 144 0
105 145 0
109 147 0
98 135 0
111 148 0
111 148 0
106 145 0
108 146 0
106 146 0
108 147 0
105 145 0
108 147 0
110 148 0
104 144 0
109 147 0
107 146 0
108 147 0
109 147 0
108 147 0
106 145 0
106 145 0
104 144 0
108 147 0
106 145 0
110 148 0
104 144 0
105 145 0
112 149 0
111 148 0
110 148 0
109 147 0
110 148 0
108 146 0
119 153 0
105 145 0
103 144 0
107 146 0
104 144 0
111 148 0
107 146 0
100 136 0
104 144 0
111 148 0
103 144 0
107 146 0
112 149 0
107 146 0
106 145 0
104 144 0
116 151 0
97 135 0
107 146 0
112 149 0
104 144 0
113 150 0
106 145 0
112 149 0
98 135 0
110 148 0
97 134 0
113 150 0
122 155 0
109 147 0
105 145 0
113 150 0
114 150 0
112 149 0
107 146 0
109 147 0
105 145 0
127 158 0
108 141 0
119 153 0
106 140 0
106 146 0
105 145 0
106 146 0
100 136 0
103 138 0
105 145 0
106 140 0
103 138 0
115 151 0
109 142 0
110 148 0
117 152 0
96 134 0
114 150 0
109 142 0
110 148 0
106 145 0
115 151 0
95 128 0
121 155 0
112 149 0
107 146 0
114 150 0
111 148 0
117 152 0
113 150 0
111 143 0
110 148 0
110 148 0
104 138 0
114 150 0
130 160 0
124 156 0
100 136 0
126 157 0
120 154 0
120 154 0
123 156 0
107 140 0
118 152 0
101 132 0
106 145 0
112 144 0
113 149 0
117 152 0
118 153 0
115 150 0
116 151 0
119 148 0
122 155 0
122 155 0
114 150 0
115 145 0
114 150 0
120 153 0
119 148 0
118 147 0
128 153 0
111 148 0
128 158 0
122 155 0
118 152 0
112 149 0
112 149 0
118 152 0
121 154 0
130 160 0
137 164 0
119 153 0
121 155 0
120 154 0
117 152 0
133 162 0
124 156 0
109 147 0
119 153 0
117 152 0
124 156 0
121 154 0
132 161 0
122 155 0
137 164 0
112 149 0
122 155 0
138 164 0
127 158 0
132 161 0
123 155 0
126 157 0
119 153 0
130 160 0
120 154 0
122 155 0
130 159 0
127 158 0
128 158 0
139 165 0
118 152 0
122 155 0
130 160 0
132 161 0
136 163 0
127 158 0
118 153 0
122 155 0
130 160 0
132 161 0
116 151 0
135 163 0
137 164 0
126 157 0
132 161 0
130 159 0
132 161 0
137 164 0
129 159 0
127 158 0
133 161 0
133 161 0
134 162 0
115 151 0
127 158 0
124 156 0
121 154 0
134 162 0
132 161 0
141 166 0
127 158 0
125 157 0
130 160 0
115 151 0
128 159 0
132 161 0
119 153 0
130 160 0
120 154 0
123 156 0
117 152 0
135 162 0
125 157 0
134 162 0
124 156 0
133 162 0
136 163 0
122 155 0
125 157 0
122 155 0
116 151 0
130 160 0
123 156 0
121 154 0
132 161 0
128 158 0
125 157 0
119 153 0
121 154 0
119 153 0
126 157 0
129 159 0
130 160 0
122 155 0
128 159 0
124 156 0
134 162 0
126 157 0
125 157 0
126 157 0
130 160 0
124 156 0
117 152 0
125 157 0
123 155 0
118 153 0
127 158 0
128 159 0
128 159 0
123 156 0
120 154 0
124 156 0
136 163 0
125 157 0
121 155 0
125 157 0
128 158 0
126 158 0
124 156 0
128 158 0
122 155 0
119 153 0
129 159 0
136 163 0
131 160 0
119 153 0
121 154 0
127 158 0
117 152 0
121 154 0
125 157 0
130 160 0
123 156 0
121 154 0
124 156 0
124 156 0
122 155 0
121 154 0
125 157 0
126 158 0
123 155 0
124 156 0
122 155 0
125 157 0
118 153 0
120 154 0
123 156 0
115 151 0
128 158 0
116 151 0
122 155 0
126 157 0
127 158 0
126 158 0
129 159 0
123 155 0
129 159 0
116 151 0
119 153 0
116 151 0
119 153 0
128 158 0
115 151 0
120 154 0
125 157 0
118 153 0
119 153 0
122 155 0
123 156 0
122 155 0
123 155 0
122 155 0
122 155 0
126 158 0
124 156 0
115 151 0
120 153 0
125 156 0
122 155 0
126 157 0
115 151 0
124 156 0
123 156 0
124 156 0
119 153 0
121 154 0
123 156 0
122 155 0
123 156 0
125 157 0
111 148 0
120 154 0
124 156 0
122 155 0
124 156 0
119 153 0
119 153 0
125 157 0
125 157 0
130 160 0
121 154 0
125 157 0
120 154 0
113 149 0
121 154 0
119 153 0
123 156 0
119 153 0
121 154 0
113 149 0
124 156 0
115 151 0
119 153 0
114 150 0
118 153 0
116 151 0
117 152 0
120 154 0
109 147 0
112 149 0
104 144 0
113 149 0
106 145 0
103 144 0
104 144 0
109 147 0
106 145 0
106 146 0
115 151 0
104 144 0
105 145 0
108 147 0
109 147 0
105 145 0
111 148 0
107 146 0
111 148 0
104 144 0
106 145 0
106 146 0
110 148 0
107 146 0
105 145 0
111 148 0
108 146 0
103 144 0
105 145 0
105 145 0
109 147 0
107 146 0
105 145 0
105 145 0
107 146 0
106 146 0
111 148 0
107 146 0
110 148 0
104 144 0
109 147 0
107 146 0
109 147 0
105 145 0
104 144 0
105 145 0
108 146 0
105 144 0
106 145 0
104 144 0
106 145 0
110 148 0
109 147 0
109 147 0
113 149 0
110 148 0
109 147 0
108 147 0
105 145 0
109 147 0
108 146 0
105 145 0
105 145 0
114 150 0
117 152 0
109 147 0
105 145 0
111 148 0
106 145 0
105 145 0
111 148 0
107 146 0
108 147 0
107 146 0
101 137 0
103 143 0
110 148 0
109 147 0
101 137 0
112 149 0
107 146 0
105 145 0
107 146 0
113 150 0
107 146 0
109 147 0
96 129 0
115 150 0
112 149 0
105 145 0
107 146 0
100 137 0
109 147 0
107 146 0
102 137 0
114 150 0
110 148 0
111 148 0
107 146 0
109 147 0
110 148 0
98 135 0
111 148 0
107 146 0
117 152 0
107 140 0
110 148 0
104 139 0
112 149 0
110 148 0
104 144 0
107 146 0
104 138 0
111 149 0
106 145 0
101 137 0
114 150 0
99 136 0
105 145 0
111 149 0
115 151 0
113 150 0
113 149 0
120 154 0
123 156 0
121 154 0
115 151 0
115 151 0
115 151 0
116 151 0
106 140 0
102 137 0
117 152 0
112 149 0
112 149 0
113 149 0
107 146 0
108 146 0
109 147 0
117 152 0
109 142 0
113 150 0
105 139 0
103 138 0
121 154 0
118 152 0
115 151 0
119 153 0
125 156 0
119 153 0
127 158 0
110 148 0
115 150 0
122 155 0
116 151 0
117 152 0
114 150 0
108 141 0
114 144 0
122 155 0
124 156 0
123 156 0
118 152 0
119 153 0
128 158 0
127 158 0
115 151 0
115 151 0
118 152 0
130 160 0
124 156 0
93 127 0
111 143 0
133 161 0
128 158 0
123 156 0
126 157 0
118 152 0
118 153 0
127 158 0
128 159 0
124 156 0
122 155 0
119 153 0
133 161 0
125 157 0
131 160 0
118 153 0
110 148 0
123 156 0
130 159 0
117 152 0
131 161 0
131 160 0
115 151 0
123 156 0
130 160 0
127 158 0
120 154 0
117 152 0
114 150 0
131 160 0
122 155 0
123 155 0
139 165 0
128 158 0
124 156 0
138 165 0
135 163 0
117 152 0
126 157 0
134 162 0
124 156 0
114 150 0
122 155 0
111 148 0
122 155 0
123 156 0
139 165 0
129 159 0
128 159 0
122 155 0
126 158 0
137 164 0
120 154 0
123 156 0
133 162 0
125 156 0
122 155 0
116 151 0
124 156 0
138 164 0
116 152 0
122 155 0
139 165 0
126 158 0
133 161 0
120 154 0
121 155 0
136 163 0
133 161 0
117 152 0
136 163 0
130 160 0
119 153 0
126 158 0
132 161 0
131 160 0
136 163 0
123 156 0
125 157 0
131 160 0
127 158 0
133 162 0
124 156 0
132 161 0
118 152 0
129 159 0
132 161 0
136 163 0
119 153 0
120 154 0
135 163 0
126 157 0
127 158 0
125 157 0
119 153 0
130 160 0
129 159 0
132 161 0
125 157 0
120 154 0
121 154 0
133 161 0
138 164 0
127 158 0
130 160 0
137 164 0
118 153 0
127 158 0
117 152 0
135 163 0
124 156 0
134 162 0
127 158 0
125 157 0
130 160 0
125 156 0
127 158 0
122 155 0
131 160 0
137 164 0
125 157 0
127 158 0
133 161 0
135 163 0
122 155 0
128 158 0
134 162 0
128 159 0
128 159 0
121 154 0
132 161 0
122 155 0
130 159 0
123 156 0
118 152 0
124 156 0
132 161 0
127 158 0
129 159 0
124 156 0
127 158 0
118 153 0
129 159 0
124 156 0
130 160 0
129 159 0
122 155 0
135 163 0
123 155 0
123 155 0
125 157 0
130 160 0
121 155 0
123 155 0
115 151 0
124 156 0
125 156 0
122 155 0
119 153 0
121 154 0
117 152 0
131 161 0
125 157 0
128 159 0
132 161 0
129 159 0
120 154 0
127 158 0
120 153 0
120 154 0
117 152 0
122 155 0
117 152 0
122 155 0
115 151 0
122 155 0
121 154 0
127 158 0
121 154 0
123 156 0
127 158 0
127 158 0
130 160 0
119 153 0
121 154 0
118 152 0
125 156 0
126 157 0
126 157 0
120 154 0
127 158 0
125 156 0
119 153 0
116 151 0
122 155 0
113 150 0
122 155 0
125 157 0
117 152 0
123 155 0
118 152 0
122 155 0
122 155 0
119 153 0
130 160 0
120 154 0
120 154 0
129 159 0
118 152 0
120 154 0
122 155 0
125 157 0
118 152 0
122 155 0
123 155 0
122 155 0
119 153 0
117 152 0
120 154 0
130 160 0
122 155 0
117 152 0
115 151 0
126 157 0
118 152 0
119 153 0
124 156 0
123 156 0
109 147 0
106 146 0
104 144 0
111 148 0
112 149 0
109 147 0
108 147 0
104 144 0
105 145 0
106 145 0
104 144 0
109 147 0
109 147 0
107 146 0
106 145 0
107 146 0
104 144 0
110 147 0
103 144 0
110 147 0
110 148 0
111 148 0
104 144 0
110 148 0
109 147 0
106 146 0
105 145 0
110 148 0
105 145 0
104 144 0
109 147 0
107 146 0
106 145 0
106 146 0
108 147 0
105 145 0
106 145 0
105 144 0
110 147 0
108 146 0
105 145 0
106 145 0
107 146 0
106 145 0
107 146 0
108 147 0
110 148 0
104 144 0
107 146 0
105 145 0
110 148 0
108 147 0
109 147 0
106 145 0
111 148 0
105 145 0
106 145 0
105 145 0
108 146 0
100 136 0
102 137 0
106 145 0
101 137 0
113 149 0
107 146 0
108 147 0
114 150 0
104 144 0
105 139 0
108 147 0
119 153 0
106 145 0
108 147 0
111 148 0
110 148 0
104 144 0
108 146 0
106 145 0
109 147 0
104 144 0
108 147 0
100 136 0
106 145 0
105 145 0
113 149 0
107 146 0
109 147 0
106 146 0
111 149 0
104 144 0
105 145 0
101 137 0
110 147 0
106 145 0
105 145 0
113 149 0
95 129 0
107 146 0
115 151 0
112 149 0
106 145 0
112 149 0
111 148 0
112 149 0
110 148 0
104 144 0
112 149 0
109 147 0
109 147 0
111 148 0
111 148 0
112 149 0
114 150 0
100 136 0
107 140 0
114 150 0
107 146 0
109 147 0
104 139 0
104 139 0
117 152 0
123 155 0
117 152 0
112 149 0
107 146 0
114 150 0
115 151 0
104 144 0
112 149 0
109 147 0
97 135 0
108 141 0
100 126 0
123 155 0
117 147 0
114 150 0
114 150 0
105 139 0
108 146 0
104 138 0
126 157 0
114 145 0
119 153 0
101 137 0
124 156 0
115 151 0
111 149 0
110 142 0
122 155 0
98 135 0
117 146 0
119 153 0
104 139 0
111 143 0
118 147 0
102 137 0
110 137 0
119 153 0
116 151 0
122 155 0
107 140 0
135 163 0
116 151 0
110 143 0
113 149 0
120 154 0
131 161 0
110 148 0
113 149 0
116 151 0
119 153 0
116 151 0
114 150 0
117 152 0
123 155 0
111 148 0
126 158 0
122 155 0
128 159 0
115 151 0
112 149 0
107 135 0
117 152 0
128 159 0
122 155 0
119 153 0
130 160 0
136 163 0
128 158 0
121 155 0
143 168 0
126 158 0
128 158 0
120 154 0
140 166 0
121 155 0
116 151 0
124 156 0
124 156 0
126 157 0
114 150 0
135 163 0
128 159 0
115 151 0
129 159 0
120 154 0
138 165 0
120 154 0
124 156 0
116 152 0
112 149 0
124 156 0
120 153 0
120 154 0
133 162 0
116 151 0
116 151 0
125 157 0
120 153 0
135 163 0
122 155 0
125 157 0
119 153 0
138 164 0
134 162 0
124 156 0
128 159 0
131 160 0
123 155 0
130 159 0
130 160 0
134 162 0
120 154 0
127 158 0
125 156 0
120 153 0
123 156 0
137 164 0
136 164 0
128 158 0
122 155 0
135 163 0
140 166 0
131 160 0
127 158 0
122 155 0
131 160 0
118 152 0
127 158 0
131 160 0
123 156 0
116 151 0
126 157 0
122 155 0
136 163 0
135 163 0
123 155 0
135 163 0
127 158 0
124 156 0
134 162 0
127 158 0
127 158 0
129 159 0
126 157 0
123 156 0
124 156 0
121 154 0
119 153 0
134 162 0
131 160 0
125 157 0
128 159 0
128 159 0
122 155 0
129 159 0
120 154 0
126 157 0
127 158 0
119 153 0
129 159 0
131 160 0
126 157 0
125 157 0
130 160 0
128 158 0
123 156 0
121 155 0
123 155 0
127 158 0
134 162 0
124 156 0
132 161 0
116 151 0
125 157 0
125 157 0
129 159 0
132 161 0
121 155 0
122 155 0
121 155 0
129 159 0
126 158 0
130 159 0
131 160 0
121 154 0
121 154 0
126 157 0
119 153 0
134 162 0
127 158 0
120 154 0
126 157 0
119 153 0
127 158 0
123 155 0
114 150 0
123 156 0
130 160 0
123 155 0
122 155 0
127 158 0
123 156 0
123 155 0
125 157 0
127 158 0
121 154 0
122 155 0
127 158 0
128 159 0
127 158 0
122 155 0
123 156 0
126 157 0
120 154 0
124 156 0
116 152 0
126 157 0
125 156 0
132 161 0
123 156 0
119 153 0
121 154 0
123 155 0
124 156 0
122 155 0
125 157 0
115 151 0
120 154 0
121 154 0
124 156 0
124 156 0
124 156 0
126 157 0
122 155 0
123 155 0
124 156 0
122 155 0
121 154 0
123 156 0
120 153 0
129 159 0
117 152 0
127 158 0
123 156 0
120 154 0
119 153 0
111 149 0
115 151 0
113 149 0
118 153 0
122 155 0
120 154 0
118 153 0
124 156 0
126 157 0
118 153 0
123 155 0
118 152 0
118 152 0
125 157 0
123 156 0
119 153 0
127 158 0
119 153 0
120 154 0
122 155 0
117 152 0
121 154 0
120 154 0
124 156 0
122 155 0
115 150 0
123 155 0
120 154 0
122 155 0
121 154 0
119 153 0
122 155 0
118 153 0
108 146 0
104 144 0
103 143 0
108 147 0
105 145 0
102 143 0
107 146 0
108 147 0
110 147 0
105 144 0
106 145 0
105 145 0
103 143 0
104 144 0
107 146 0
103 144 0
107 146 0
107 146 0
109 147 0
111 148 0
108 146 0
106 145 0
108 146 0
104 144 0
105 145 0
110 147 0
107 146 0
106 145 0
104 144 0
110 147 0
105 145 0
106 145 0
104 144 0
105 145 0
109 147 0
103 143 0
110 148 0
107 146 0
106 145 0
107 146 0
106 145 0
109 147 0
111 148 0
107 146 0
108 146 0
109 147 0
111 148 0
111 148 0
110 148 0
112 149 0
101 137 0
109 147 0
100 136 0
106 145 0
106 145 0
111 148 0
108 147 0
108 146 0
109 147 0
112 149 0
103 143 0
103 144 0
108 146 0
108 146 0
104 144 0
101 137 0
105 145 0
105 145 0
108 146 0
109 147 0
106 145 0
112 149 0
110 148 0
107 146 0
107 146 0
111 148 0
105 145 0
107 146 0
111 148 0
104 144 0
104 144 0
108 147 0
107 146 0
114 150 0
103 144 0
110 148 0
107 146 0
107 140 0
117 152 0
114 150 0
113 149 0
114 150 0
104 139 0
100 136 0
108 146 0
107 146 0
111 148 0
97 129 0
115 151 0
108 146 0
113 149 0
106 145 0
111 148 0
109 147 0
109 147 0
111 148 0
92 126 0
113 149 0
107 146 0
110 148 0
109 147 0
106 145 0
114 150 0
116 152 0
110 148 0
111 148 0
102 138 0
112 149 0
104 144 0
104 139 0
112 149 0
111 149 0
105 139 0
115 151 0
107 146 0
110 148 0
112 149 0
106 140 0
121 154 0
107 146 0
115 151 0
124 156 0
109 147 0
99 136 0
107 146 0
109 147 0
130 160 0
108 147 0
109 142 0
115 150 0
116 151 0
115 151 0
118 153 0
120 154 0
123 156 0
101 137 0
107 140 0
118 153 0
136 163 0
119 153 0
129 159 0
119 147 0
104 139 0
130 160 0
110 148 0
124 156 0
121 154 0
114 150 0
121 154 0
117 152 0
105 145 0
115 151 0
131 160 0
111 149 0
124 156 0
119 153 0
100 136 0
122 155 0
137 164 0
124 156 0
128 159 0
122 155 0
129 154 0
119 153 0
113 144 0
110 148 0
115 151 0
136 163 0
99 136 0
113 149 0
142 167 0
120 154 0
126 157 0
126 157 0
125 157 0
122 155 0
116 146 0
128 158 0
121 154 0
118 152 0
120 154 0
133 162 0
119 153 0
118 153 0
135 163 0
124 156 0
133 162 0
117 146 0
126 157 0
121 154 0
137 164 0
127 158 0
134 162 0
134 162 0
124 156 0
126 157 0
122 155 0
128 158 0
123 155 0
123 156 0
127 158 0
125 157 0
122 155 0
132 161 0
120 154 0
141 166 0
133 161 0
125 156 0
119 153 0
125 157 0
142 167 0
126 157 0
130 160 0
123 156 0
143 168 0
128 158 0
143 168 0
122 155 0
132 161 0
138 165 0
138 165 0
122 155 0
126 157 0
125 157 0
135 163 0
129 159 0
123 156 0
122 155 0
134 162 0
132 161 0
120 154 0
133 162 0
136 163 0
130 160 0
136 163 0
131 160 0
131 160 0
130 160 0
124 156 0
127 158 0
130 160 0
138 164 0
138 164 0
128 159 0
125 156 0
126 157 0
124 156 0
136 163 0
133 161 0
122 155 0
128 158 0
131 160 0
118 153 0
126 157 0
123 156 0
129 159 0
129 159 0
122 155 0
126 157 0
127 158 0
125 157 0
121 154 0
137 164 0
137 164 0
125 157 0
127 158 0
128 159 0
132 161 0
128 158 0
124 156 0
120 154 0
135 163 0
129 159 0
118 153 0
125 157 0
127 158 0
116 151 0
135 162 0
133 162 0
117 152 0
127 158 0
123 155 0
132 161 0
114 150 0
124 156 0
130 159 0
127 158 0
130 160 0
129 159 0
128 158 0
120 154 0
133 162 0
127 158 0
118 152 0
118 153 0
126 157 0
137 164 0
125 157 0
126 157 0
119 153 0
119 153 0
115 151 0
121 154 0
124 156 0
116 151 0
124 156 0
123 155 0
128 159 0
135 162 0
125 157 0
126 158 0
133 162 0
127 158 0
119 153 0
119 153 0
118 152 0
126 157 0
125 156 0
121 154 0
121 154 0
125 157 0
129 159 0
122 155 0
119 153 0
121 154 0
119 153 0
130 160 0
119 153 0
119 153 0
121 154 0
128 159 0
127 158 0
125 156 0
121 154 0
120 154 0
121 154 0
122 155 0
118 152 0
122 155 0
121 154 0
118 152 0
125 157 0
118 153 0
118 152 0
120 154 0
125 157 0
125 157 0
126 157 0
119 153 0
120 154 0
115 151 0
125 156 0
120 154 0
118 152 0
124 156 0
123 155 0
123 155 0
120 154 0
124 156 0
118 153 0
124 156 0
117 152 0
118 153 0
115 151 0
115 151 0
118 152 0
123 155 0
122 155 0
123 156 0
118 153 0
120 154 0
117 152 0
128 158 0
121 154 0
119 153 0
126 157 0
126 157 0
119 153 0
129 159 0
125 157 0
117 152 0
117 152 0
116 151 0
128 159 0
118 152 0
120 154 0
123 156 0
116 152 0
126 157 0
126 157 0
113 149 0
105 145 0
108 147 0
108 146 0
106 145 0
105 145 0
107 146 0
108 146 0
104 144 0
109 147 0
108 147 0
106 145 0
111 148 0
107 146 0
103 144 0
103 144 0
108 146 0
105 145 0
109 147 0
104 144 0
104 144 0
104 144 0
108 146 0
107 146 0
112 149 0
108 146 0
105 144 0
105 145 0
107 146 0
107 146 0
106 146 0
107 146 0
104 144 0
107 146 0
110 148 0
103 144 0
106 145 0
105 145 0
104 144 0
110 148 0
109 147 0
107 146 0
104 144 0
105 145 0
106 145 0
109 147 0
111 148 0
105 145 0
114 150 0
112 149 0
105 145 0
106 145 0
110 148 0
107 146 0
105 145 0
101 137 0
105 145 0
106 145 0
108 146 0
109 147 0
108 146 0
101 137 0
103 138 0
104 144 0
118 153 0
107 146 0
106 146 0
111 148 0
107 146 0
115 151 0
105 144 0
99 136 0
111 148 0
109 147 0
104 144 0
109 147 0
103 138 0
107 146 0
104 144 0
104 144 0
110 148 0
104 139 0
99 136 0
106 145 0
110 148 0
113 150 0
107 146 0
113 149 0
112 149 0
111 148 0
112 149 0
119 153 0
110 148 0
109 147 0
111 148 0
111 148 0
109 147 0
112 149 0
111 149 0
119 153 0
106 145 0
108 146 0
113 150 0
110 148 0
102 137 0
113 150 0
110 148 0
113 150 0
120 154 0
117 152 0
107 146 0
105 145 0
113 149 0
107 146 0
108 146 0
107 146 0
125 157 0
111 148 0
105 145 0
103 138 0
108 146 0
120 154 0
116 151 0
110 142 0
108 141 0
129 159 0
112 149 0
114 150 0
106 140 0
126 157 0
102 137 0
117 152 0
104 139 0
115 151 0
110 148 0
123 156 0
117 152 0
122 155 0
107 146 0
114 150 0
120 154 0
115 145 0
105 139 0
111 148 0
121 154 0
117 152 0
127 158 0
114 145 0
127 158 0
114 150 0
109 147 0
107 146 0
119 153 0
120 154 0
125 157 0
121 154 0
109 147 0
120 154 0
123 155 0
112 144 0
128 153 0
118 147 0
111 143 0
120 154 0
131 160 0
132 161 0
123 155 0
125 157 0
114 150 0
124 156 0
124 156 0
98 129 0
116 151 0
138 165 0
125 157 0
125 157 0
127 158 0
122 155 0
120 154 0
124 156 0
116 151 0
111 148 0
112 144 0
104 133 0
118 153 0
122 155 0
133 161 0
142 167 0
127 158 0
112 149 0
148 170 0
127 158 0
127 158 0
141 166 0
118 152 0
130 160 0
125 156 0
129 159 0
137 164 0
125 157 0
122 155 0
118 152 0
132 161 0
132 161 0
135 163 0
124 156 0
120 154 0
115 151 0
128 158 0
128 159 0
130 159 0
125 157 0
127 158 0
128 158 0
114 150 0
131 161 0
129 159 0
131 161 0
131 160 0
114 150 0
135 163 0
125 157 0
135 162 0
120 154 0
133 161 0
133 161 0
122 155 0
125 157 0
128 159 0
125 157 0
134 162 0
119 153 0
125 157 0
119 153 0
130 160 0
116 151 0
138 165 0
126 157 0
137 164 0
137 164 0
120 154 0
137 164 0
130 159 0
121 154 0
145 169 0
132 161 0
129 159 0
121 155 0
129 159 0
128 158 0
132 161 0
119 153 0
132 161 0
138 164 0
126 157 0
138 165 0
134 162 0
130 160 0
135 162 0
124 156 0
127 158 0
129 159 0
130 160 0
129 159 0
123 155 0
128 158 0
125 157 0
125 157 0
128 158 0
131 160 0
124 156 0
128 159 0
123 155 0
126 157 0
124 156 0
122 155 0
126 158 0
132 161 0
132 161 0
113 149 0
124 156 0
126 157 0
122 155 0
127 158 0
123 156 0
133 162 0
128 159 0
131 160 0
126 157 0
131 160 0
123 155 0
121 155 0
130 160 0
131 160 0
123 155 0
119 153 0
127 158 0
132 161 0
123 155 0
134 162 0
129 159 0
125 157 0
130 160 0
124 156 0
124 156 0
125 157 0
129 159 0
120 154 0
135 163 0
125 157 0
125 157 0
123 155 0
135 163 0
132 161 0
127 158 0
129 159 0
124 156 0
127 158 0
124 156 0
122 155 0
126 157 0
123 155 0
125 157 0
122 155 0
131 160 0
127 158 0
130 160 0
125 157 0
128 158 0
120 154 0
127 158 0
129 159 0
118 153 0
125 157 0
130 160 0
119 153 0
123 156 0
127 158 0
124 156 0
122 155 0
121 154 0
121 154 0
125 157 0
124 156 0
123 156 0
123 156 0
126 157 0
125 157 0
124 156 0
117 152 0
127 158 0
123 156 0
124 156 0
119 153 0
119 153 0
120 154 0
128 159 0
124 156 0
113 149 0
127 158 0
126 157 0
121 154 0
118 153 0
117 152 0
122 155 0
117 152 0
121 154 0
118 153 0
125 157 0
122 155 0
125 157 0
123 155 0
122 155 0
118 152 0
117 152 0
128 159 0
120 154 0
119 153 0
124 156 0
120 154 0
125 156 0
118 152 0
114 150 0
118 152 0
120 153 0
116 151 0
122 155 0
122 155 0
117 152 0
119 153 0
121 155 0
122 155 0
115 151 0
116 151 0
120 154 0
117 152 0
118 152 0
120 154 0
120 154 0
120 154 0
111 148 0
110 148 0
107 146 0
104 144 0
106 146 0
106 145 0
108 146 0
111 149 0
103 144 0
103 144 0
109 147 0
104 144 0
107 146 0
111 148 0
103 144 0
105 145 0
110 148 0
106 145 0
107 146 0
105 145 0
107 146 0
109 147 0
105 145 0
107 146 0
107 146 0
105 145 0
108 147 0
107 146 0
104 144 0
107 146 0
112 149 0
106 145 0
105 145 0
112 149 0
109 147 0
108 146 0
105 145 0
110 148 0
104 144 0
110 148 0
108 147 0
109 147 0
108 147 0
108 146 0
107 146 0
110 148 0
108 146 0
107 146 0
105 145 0
104 144 0
108 147 0
109 147 0
107 146 0
106 145 0
104 144 0
107 146 0
104 144 0
108 146 0
111 148 0
105 145 0
107 146 0
105 145 0
109 147 0
108 146 0
110 148 0
105 145 0
104 144 0
112 149 0
108 146 0
107 146 0
106 145 0
118 152 0
104 144 0
105 145 0
112 149 0
105 144 0
106 145 0
102 137 0
103 138 0
115 151 0
111 148 0
112 149 0
114 150 0
108 146 0
110 148 0
109 147 0
112 149 0
98 135 0
97 134 0
111 148 0
113 149 0
106 145 0
110 147 0
106 145 0
106 145 0
116 151 0
112 149 0
109 141 0
112 149 0
104 144 0
110 148 0
104 144 0
111 148 0
114 150 0
110 142 0
100 137 0
112 149 0
121 155 0
117 152 0
115 151 0
113 149 0
111 143 0
119 153 0
111 148 0
106 145 0
107 146 0
110 148 0
107 146 0
116 151 0
113 150 0
107 146 0
109 147 0
105 144 0
105 139 0
114 150 0
101 137 0
116 151 0
110 148 0
121 154 0
105 145 0
113 149 0
116 146 0
109 141 0
117 152 0
118 152 0
119 153 0
111 143 0
114 150 0
93 127 0
106 145 0
125 157 0
114 150 0
106 136 0
99 136 0
126 157 0
108 141 0
111 143 0
130 160 0
117 152 0
107 146 0
109 147 0
120 153 0
100 136 0
112 149 0
117 152 0
110 148 0
123 155 0
125 157 0
107 140 0
119 148 0
117 146 0
123 155 0
111 143 0
126 157 0
128 158 0
124 156 0
133 161 0
113 139 0
109 147 0
132 161 0
107 146 0
121 154 0
120 153 0
122 155 0
129 159 0
119 153 0
116 151 0
126 157 0
123 156 0
121 149 0
136 163 0
122 155 0
125 157 0
124 151 0
115 151 0
116 151 0
136 164 0
119 153 0
128 158 0
124 156 0
113 150 0
113 144 0
128 159 0
126 157 0
128 158 0
114 150 0
144 168 0
122 155 0
146 169 0
133 161 0
119 153 0
129 159 0
128 158 0
118 152 0
119 153 0
123 155 0
125 157 0
115 151 0
131 160 0
121 154 0
126 157 0
131 161 0
125 156 0
124 156 0
136 163 0
126 157 0
141 166 0
147 170 0
122 155 0
130 160 0
129 159 0
125 157 0
138 164 0
117 152 0
130 160 0
139 165 0
137 164 0
133 161 0
123 156 0
133 162 0
133 161 0
128 158 0
126 157 0
127 158 0
123 156 0
130 160 0
117 152 0
134 162 0
140 165 0
131 161 0
117 152 0
133 161 0
139 165 0
138 165 0
133 161 0
120 154 0
130 160 0
128 158 0
131 160 0
131 161 0
119 153 0
138 165 0
115 151 0
128 159 0
125 157 0
131 160 0
132 161 0
138 165 0
129 159 0
127 158 0
137 164 0
141 166 0
133 161 0
125 157 0
123 155 0
129 159 0
122 155 0
121 155 0
134 162 0
130 160 0
130 159 0
132 161 0
120 154 0
134 162 0
124 156 0
132 161 0
131 160 0
135 163 0
129 159 0
121 154 0
131 160 0
134 162 0
127 158 0
126 157 0
128 159 0
130 160 0
127 158 0
127 158 0
127 158 0
135 162 0
123 156 0
117 152 0
126 158 0
136 163 0
132 161 0
126 157 0
127 158 0
132 161 0
128 158 0
118 153 0
130 160 0
119 153 0
127 158 0
128 159 0
124 156 0
119 153 0
127 158 0
136 163 0
121 155 0
125 157 0
121 154 0
116 151 0
135 163 0
114 150 0
124 156 0
131 160 0
120 154 0
133 161 0
120 154 0
115 151 0
127 158 0
129 159 0
130 160 0
122 155 0
132 161 0
119 153 0
126 157 0
117 152 0
130 160 0
120 153 0
117 152 0
116 151 0
131 160 0
128 159 0
119 153 0
118 152 0
124 156 0
130 160 0
121 154 0
120 154 0
126 157 0
120 154 0
120 154 0
134 162 0
125 157 0
123 156 0
126 158 0
127 158 0
127 158 0
122 155 0
124 156 0
121 154 0
123 156 0
127 158 0
129 159 0
122 155 0
121 154 0
121 154 0
124 156 0
116 152 0
119 153 0
121 154 0
123 156 0
121 154 0
116 152 0
122 155 0
120 154 0
112 149 0
115 151 0
126 157 0
114 150 0
121 154 0
124 156 0
126 157 0
118 152 0
110 148 0
127 158 0
121 154 0
126 158 0
119 153 0
125 157 0
120 154 0
117 152 0
118 153 0
117 152 0
122 155 0
117 152 0
117 152 0
122 155 0
124 156 0
122 155 0
119 153 0
118 152 0
126 158 0
120 154 0
120 154 0
117 152 0
126 157 0
120 154 0
120 154 0
106 146 0
110 147 0
110 148 0
97 134 0
107 146 0
108 147 0
107 146 0
107 146 0
106 146 0
105 144 0
107 146 0
110 148 0
107 146 0
108 147 0
104 144 0
108 146 0
108 146 0
103 144 0
110 148 0
106 145 0
106 145 0
113 149 0
109 147 0
105 145 0
110 148 0
104 144 0
105 145 0
110 148 0
97 134 0
112 149 0
107 146 0
108 147 0
110 148 0
99 136 0
106 145 0
109 147 0
107 146 0
108 147 0
105 145 0
105 145 0
106 145 0
106 146 0
114 150 0
108 147 0
111 148 0
105 145 0
103 144 0
107 146 0
110 147 0
104 144 0
100 136 0
109 147 0
108 146 0
109 147 0
112 149 0
111 148 0
111 148 0
108 147 0
103 143 0
97 135 0
108 147 0
105 144 0
112 149 0
110 148 0
109 147 0
107 146 0
102 137 0
109 147 0
108 147 0
111 148 0
108 147 0
114 150 0
112 149 0
96 134 0
105 145 0
115 150 0
105 145 0
112 149 0
113 149 0
105 145 0
107 146 0
116 151 0
108 147 0
106 145 0
112 149 0
102 137 0
115 151 0
105 145 0
111 149 0
115 151 0
109 147 0
109 147 0
103 143 0
116 151 0
105 144 0
107 146 0
107 146 0
115 150 0
117 152 0
111 148 0
105 145 0
93 127 0
107 146 0
105 145 0
110 148 0
112 144 0
96 129 0
108 146 0
110 148 0
109 147 0
96 129 0
120 154 0
119 153 0
106 146 0
108 146 0
112 149 0
111 148 0
112 149 0
112 149 0
106 140 0
111 148 0
108 146 0
109 147 0
114 150 0
120 154 0
101 137 0
117 152 0
91 126 0
113 150 0
108 141 0
110 148 0
124 156 0
109 147 0
124 156 0
106 145 0
112 143 0
112 143 0
121 154 0
120 154 0
115 151 0
111 143 0
120 153 0
131 161 0
119 153 0
117 147 0
114 150 0
114 150 0
119 153 0
118 153 0
112 143 0
106 140 0
117 141 0
119 153 0
127 158 0
119 153 0
110 142 0
117 152 0
110 148 0
107 136 0
108 141 0
119 153 0
108 141 0
122 155 0
116 151 0
117 152 0
121 154 0
114 144 0
135 163 0
112 149 0
129 154 0
107 141 0
125 157 0
94 127 0
126 157 0
134 162 0
113 150 0
127 158 0
123 155 0
105 134 0
111 149 0
122 155 0
120 154 0
116 151 0
98 130 0
123 156 0
121 154 0
121 154 0
133 162 0
119 153 0
114 145 0
111 148 0
118 153 0
123 156 0
135 163 0
119 153 0
122 155 0
116 151 0
141 167 0
132 161 0
135 163 0
127 158 0
135 163 0
140 166 0
132 161 0
127 158 0
118 152 0
143 167 0
130 159 0
132 161 0
128 159 0
130 160 0
134 162 0
130 160 0
124 156 0
133 161 0
135 163 0
142 167 0
132 161 0
133 162 0
136 163 0
114 150 0
124 156 0
135 163 0
130 160 0
130 160 0
125 157 0
131 160 0
117 152 0
140 166 0
132 161 0
138 164 0
122 155 0
124 156 0
136 163 0
137 164 0
124 156 0
131 161 0
129 159 0
141 167 0
136 163 0
128 158 0
132 161 0
130 160 0
129 159 0
121 154 0
126 157 0
127 158 0
136 164 0
122 155 0
124 156 0
118 153 0
138 164 0
121 154 0
132 161 0
132 161 0
131 161 0
127 158 0
120 154 0
132 161 0
129 159 0
123 155 0
134 162 0
129 159 0
128 158 0
134 162 0
131 160 0
137 164 0
128 158 0
139 165 0
120 154 0
123 155 0
131 161 0
132 161 0
135 163 0
126 157 0
123 155 0
132 161 0
131 160 0
124 156 0
127 158 0
121 154 0
135 163 0
123 155 0
127 158 0
140 166 0
133 161 0
125 156 0
125 157 0
123 155 0
131 161 0
122 155 0
132 161 0
122 155 0
126 157 0
129 159 0
136 163 0
132 161 0
125 156 0
130 160 0
128 159 0
127 158 0
125 157 0
125 157 0
131 160 0
121 154 0
117 152 0
129 159 0
125 157 0
122 155 0
123 156 0
123 155 0
128 158 0
131 160 0
127 158 0
131 160 0
124 156 0
126 157 0
124 156 0
122 155 0
124 156 0
125 157 0
123 155 0
123 156 0
132 161 0
119 153 0
122 155 0
128 158 0
120 154 0
118 153 0
116 151 0
122 155 0
127 158 0
129 159 0
124 156 0
131 160 0
126 158 0
126 157 0
121 155 0
116 151 0
123 156 0
123 156 0
115 151 0
124 156 0
120 154 0
116 152 0
128 159 0
117 152 0
125 157 0
123 156 0
119 153 0
126 157 0
126 157 0
121 155 0
128 158 0
125 156 0
123 156 0
117 152 0
118 153 0
122 155 0
120 154 0
128 159 0
121 155 0
124 156 0
121 154 0
122 155 0
119 153 0
121 154 0
124 156 0
119 153 0
124 156 0
120 154 0
120 154 0
119 153 0
120 154 0
123 155 0
114 150 0
126 157 0
117 152 0
123 155 0
127 158 0
121 154 0
117 152 0
124 156 0
125 157 0
113 149 0
124 156 0
127 158 0
117 152 0
119 153 0
118 152 0
125 157 0
123 156 0
121 154 0
123 156 0
125 157 0
117 152 0
116 151 0
115 151 0
126 157 0
123 155 0
106 145 0
109 147 0
103 144 0
104 144 0
111 148 0
107 146 0
104 144 0
105 145 0
103 143 0
108 146 0
107 146 0
108 147 0
108 146 0
110 148 0
100 136 0
111 148 0
108 147 0
111 148 0
106 145 0
103 144 0
110 147 0
112 149 0
108 146 0
107 146 0
106 145 0
108 146 0
104 144 0
110 148 0
108 146 0
107 146 0
107 146 0
106 145 0
107 146 0
104 144 0
106 146 0
109 147 0
107 146 0
108 147 0
107 146 0
106 145 0
104 144 0
115 151 0
110 148 0
97 135 0
110 148 0
112 149 0
106 146 0
105 145 0
101 137 0
111 148 0
105 145 0
106 146 0
107 146 0
106 145 0
109 147 0
106 145 0
113 150 0
108 146 0
112 149 0
110 148 0
104 144 0
104 144 0
105 145 0
108 147 0
114 150 0
98 135 0
105 144 0
100 136 0
111 148 0
105 145 0
109 147 0
106 145 0
105 145 0
116 151 0
111 148 0
107 146 0
105 145 0
107 146 0
116 151 0
109 147 0
104 144 0
94 127 0
99 136 0
117 152 0
106 145 0
108 146 0
109 147 0
103 138 0
98 135 0
108 147 0
105 145 0
105 145 0
109 147 0
110 148 0
106 145 0
113 149 0
106 145 0
115 151 0
107 146 0
119 153 0
103 138 0
95 128 0
109 147 0
102 137 0
109 147 0
109 147 0
110 148 0
112 149 0
110 147 0
115 151 0
121 154 0
113 144 0
110 148 0
114 150 0
107 146 0
101 131 0
115 151 0
118 153 0
110 147 0
109 147 0
109 147 0
108 146 0
116 146 0
113 149 0
112 149 0
117 152 0
114 150 0
96 128 0
133 162 0
118 153 0
111 148 0
130 160 0
112 149 0
126 157 0
98 130 0
112 144 0
116 151 0
122 155 0
111 148 0
121 155 0
119 153 0
110 142 0
131 160 0
111 143 0
112 144 0
124 156 0
106 145 0
132 161 0
125 157 0
100 136 0
132 161 0
118 147 0
117 152 0
126 157 0
124 156 0
126 157 0
103 144 0
112 149 0
106 140 0
123 155 0
107 140 0
121 149 0
110 142 0
114 150 0
139 165 0
110 147 0
105 134 0
122 155 0
119 148 0
107 146 0
112 144 0
122 155 0
127 158 0
128 158 0
132 161 0
124 156 0
135 163 0
115 145 0
115 151 0
117 152 0
130 160 0
121 155 0
120 154 0
132 161 0
116 146 0
127 158 0
120 154 0
118 153 0
134 162 0
121 154 0
125 157 0
127 158 0
135 163 0
131 160 0
124 151 0
139 165 0
126 157 0
123 156 0
136 164 0
133 162 0
142 167 0
119 153 0
118 152 0
126 157 0
121 155 0
115 151 0
120 154 0
129 159 0
123 155 0
111 148 0
130 160 0
126 157 0
126 157 0
121 154 0
131 160 0
134 162 0
130 160 0
132 161 0
111 149 0
124 156 0
117 152 0
142 167 0
138 165 0
143 168 0
121 154 0
127 158 0
128 159 0
129 159 0
136 163 0
120 154 0
128 158 0
125 157 0
134 162 0
133 162 0
132 161 0
126 157 0
136 163 0
140 166 0
144 168 0
124 156 0
130 159 0
131 161 0
125 157 0
128 158 0
126 158 0
133 162 0
128 158 0
124 156 0
133 162 0
139 165 0
129 159 0
134 162 0
129 159 0
128 159 0
138 165 0
123 155 0
133 162 0
127 158 0
120 153 0
127 158 0
130 160 0
129 159 0
131 160 0
128 158 0
132 161 0
132 161 0
133 162 0
125 156 0
124 156 0
130 160 0
128 158 0
123 155 0
130 159 0
123 155 0
140 166 0
129 159 0
129 159 0
142 167 0
114 150 0
128 158 0
120 154 0
128 158 0
126 157 0
116 151 0
137 164 0
125 157 0
130 160 0
121 155 0
125 157 0
123 155 0
120 154 0
132 161 0
130 160 0
133 162 0
127 158 0
127 158 0
121 155 0
129 159 0
129 159 0
125 157 0
130 160 0
130 160 0
131 160 0
136 163 0
123 155 0
123 156 0
130 159 0
125 157 0
129 159 0
128 159 0
129 159 0
127 158 0
126 158 0
128 158 0
125 157 0
121 154 0
125 156 0
134 162 0
132 161 0
120 154 0
126 158 0
125 157 0
124 156 0
130 159 0
131 160 0
134 162 0
121 155 0
126 157 0
127 158 0
124 156 0
124 156 0
122 155 0
121 154 0
127 158 0
124 156 0
131 160 0
131 160 0
125 156 0
121 154 0
120 154 0
123 156 0
127 158 0
128 159 0
120 154 0
119 153 0
125 157 0
128 159 0
123 155 0
116 151 0
126 158 0
125 156 0
119 153 0
128 158 0
127 158 0
124 156 0
119 153 0
122 155 0
120 154 0
121 154 0
121 155 0
122 155 0
121 154 0
128 159 0
123 156 0
120 154 0
128 159 0
124 156 0
122 155 0
128 159 0
121 154 0
113 150 0
116 151 0
127 158 0
119 153 0
121 154 0
125 157 0
122 155 0
121 154 0
118 152 0
120 154 0
123 156 0
122 155 0
122 155 0
115 150 0
118 153 0
115 151 0
116 151 0
116 151 0
120 154 0
123 156 0
118 152 0
115 151 0
124 156 0
128 158 0
128 158 0
120 153 0
124 156 0
122 155 0
125 157 0
117 152 0
108 146 0
107 146 0
107 146 0
106 145 0
112 149 0
105 144 0
104 144 0
108 146 0
111 148 0
111 148 0
104 144 0
107 146 0
105 144 0
105 145 0
112 149 0
109 147 0
104 144 0
104 144 0
106 145 0
107 146 0
104 144 0
107 146 0
108 146 0
104 144 0
113 150 0
107 146 0
109 147 0
110 148 0
109 147 0
107 146 0
105 145 0
104 144 0
107 146 0
110 148 0
108 146 0
105 145 0
108 146 0
108 147 0
104 144 0
107 146 0
106 146 0
109 147 0
108 147 0
114 150 0
103 144 0
107 141 0
108 147 0
110 148 0
109 147 0
107 146 0
111 148 0
107 146 0
107 146 0
107 146 0
107 146 0
102 138 0
116 152 0
107 146 0
106 145 0
115 151 0
106 145 0
105 145 0
106 145 0
107 146 0
104 144 0
104 144 0
108 147 0
109 147 0
107 146 0
104 144 0
103 138 0
112 149 0
110 148 0
112 149 0
114 150 0
111 149 0
109 147 0
105 145 0
108 141 0
105 145 0
106 145 0
108 147 0
105 145 0
109 147 0
101 137 0
109 147 0
105 145 0
112 149 0
110 148 0
102 138 0
118 152 0
112 149 0
111 148 0
108 147 0
100 136 0
115 151 0
112 149 0
111 148 0
106 146 0
104 144 0
111 148 0
114 150 0
105 145 0
111 148 0
108 146 0
113 149 0
121 154 0
116 151 0
122 155 0
121 154 0
104 144 0
108 146 0
114 150 0
103 144 0
107 146 0
108 147 0
100 131 0
118 153 0
107 141 0
122 155 0
108 146 0
109 147 0
112 143 0
101 137 0
99 135 0
112 149 0
108 147 0
121 154 0
104 144 0
120 154 0
109 142 0
111 148 0
104 139 0
118 153 0
111 143 0
110 148 0
131 160 0
120 154 0
109 147 0
112 149 0
101 137 0
117 152 0
109 147 0
109 147 0
114 145 0
115 151 0
112 143 0
123 156 0
119 153 0
128 159 0
126 158 0
132 161 0
116 151 0
121 154 0
118 152 0
110 148 0
116 151 0
111 148 0
118 147 0
122 149 0
114 145 0
122 155 0
130 160 0
111 149 0
121 154 0
114 145 0
135 163 0
130 160 0
113 149 0
115 146 0
120 153 0
117 146 0
135 163 0
123 156 0
127 158 0
120 154 0
114 150 0
127 158 0
125 157 0
106 140 0
141 166 0
111 148 0
118 152 0
125 157 0
120 154 0
130 160 0
125 157 0
125 157 0
131 160 0
110 142 0
137 164 0
138 165 0
126 158 0
131 161 0
116 151 0
129 159 0
134 162 0
136 163 0
135 163 0
116 151 0
131 160 0
136 163 0
129 159 0
123 155 0
119 153 0
124 156 0
127 158 0
137 164 0
148 171 0
121 154 0
133 161 0
120 154 0
120 154 0
131 160 0
122 155 0
117 152 0
138 165 0
131 160 0
144 168 0
134 162 0
136 163 0
133 161 0
129 159 0
127 158 0
127 158 0
133 161 0
130 160 0
130 160 0
133 162 0
133 162 0
139 165 0
130 159 0
137 164 0
129 159 0
125 157 0
131 161 0
134 162 0
138 165 0
132 161 0
131 160 0
131 161 0
126 157 0
137 164 0
127 158 0
134 162 0
127 158 0
123 155 0
138 164 0
127 158 0
124 156 0
139 165 0
123 156 0
120 154 0
138 164 0
136 163 0
125 157 0
131 160 0
126 157 0
133 161 0
127 158 0
128 159 0
133 162 0
128 158 0
136 163 0
136 163 0
126 158 0
124 156 0
138 165 0
143 167 0
120 154 0
141 166 0
140 165 0
135 163 0
133 161 0
122 155 0
128 159 0
128 158 0
126 157 0
125 157 0
126 157 0
122 155 0
135 163 0
130 159 0
127 158 0
136 163 0
128 158 0
127 158 0
124 156 0
114 150 0
122 155 0
122 155 0
124 156 0
138 164 0
132 161 0
127 158 0
131 161 0
122 155 0
126 157 0
124 156 0
128 159 0
128 158 0
123 155 0
125 157 0
120 154 0
124 156 0
121 154 0
120 153 0
121 155 0
126 157 0
117 152 0
126 157 0
135 163 0
128 158 0
134 162 0
122 155 0
122 155 0
124 156 0
126 157 0
136 164 0
129 159 0
120 154 0
122 155 0
124 156 0
126 157 0
122 155 0
128 158 0
129 159 0
130 160 0
124 156 0
128 159 0
117 152 0
125 157 0
122 155 0
123 156 0
126 158 0
127 158 0
120 154 0
126 157 0
120 154 0
124 156 0
126 158 0
132 161 0
122 155 0
129 159 0
120 154 0
125 157 0
125 156 0
118 153 0
121 154 0
122 155 0
130 160 0
122 155 0
123 156 0
114 150 0
126 157 0
131 160 0
127 158 0
126 157 0
120 154 0
123 155 0
120 153 0
121 154 0
114 150 0
122 155 0
124 156 0
120 154 0
127 158 0
122 155 0
122 155 0
116 151 0
123 156 0
125 157 0
124 156 0
123 156 0
123 156 0
131 160 0
125 157 0
118 152 0
114 150 0
118 153 0
130 160 0
124 156 0
124 156 0
119 153 0
117 152 0
126 158 0
123 155 0
121 154 0
126 157 0
117 152 0
119 153 0
128 159 0
119 153 0
118 152 0
121 155 0
122 155 0
131 160 0
119 153 0
122 155 0
117 152 0
